src/assets/luts/Alen Palander - Zurich.cube
TITLE "Generated by Resolve"
LUT_3D_SIZE 33
0 0 0
0.0159304 0.00180056 0.00283818
0.0299382 0.00556954 0.00607309
0.0436408 0.0115969 0.00996414
0.0594797 0.0184634 0.013077
0.082536 0.0206455 0.0153506
0.107164 0.021912 0.0177462
0.132937 0.0226596 0.0196689
0.159045 0.0216373 0.0205844
0.188067 0.0171664 0.0192416
0.215717 0.0137484 0.0180209
0.242603 0.0113375 0.0168154
0.27126 0.00914015 0.015198
0.299321 0.00704967 0.0141604
0.327001 0.00503548 0.0131228
0.355184 0.00376898 0.0116426
0.38143 0.00273136 0.00961318
0.407172 0.00195315 0.00755322
0.432135 0.00143435 0.00682078
0.456809 0.000991836 0.00601205
0.482002 0.000717174 0.00518807
0.504631 0.000595102 0.004654
0.526207 0.000518807 0.00419623
0.548577 0.000488289 0.00392157
0.56994 0.000457771 0.00366217
0.590616 0.000442512 0.00349432
0.607797 0.000427253 0.00332647
0.623438 0.000411994 0.00317388
0.634318 0.000396735 0.00314336
0.64506 0.000381476 0.0030518
0.654932 0.000366217 0.00294499
0.658824 0.000350958 0.00282292
0.657877 0.000335698 0.00265507
0.00943008 0.0197452 0.0105745
0.0258335 0.0237888 0.0138094
0.0390784 0.0296788 0.0210574
0.0569162 0.0357214 0.025391
0.0803845 0.0408484 0.028336
0.108293 0.045182 0.0299535
0.137087 0.0489967 0.0302586
0.164767 0.0504311 0.0298772
0.192493 0.0498817 0.0285496
0.221546 0.0478065 0.0270848
0.249134 0.0426642 0.0257115
0.27744 0.0357519 0.0238499
0.30576 0.0267033 0.0211185
0.331838 0.0200046 0.0184787
0.357122 0.0141146 0.0154726
0.382559 0.00962844 0.0124056
0.40824 0.00701915 0.00958267
0.433295 0.00477607 0.00691234
0.457771 0.00337224 0.00613413
0.482444 0.00222782 0.00547799
0.507149 0.0015259 0.00485237
0.52932 0.0011902 0.00434882
0.550622 0.00102235 0.00389105
0.572091 0.000961318 0.00357061
0.593332 0.000900282 0.00332647
0.613809 0.000854505 0.00309758
0.630533 0.000808728 0.00289921
0.645426 0.00077821 0.00273136
0.656336 0.000762951 0.00260929
0.666392 0.000747692 0.00251774
0.676005 0.000717174 0.00238041
0.680674 0.000686656 0.00222782
0.679545 0.000671397 0.00202945
0.0174411 0.0390326 0.0278325
0.0343023 0.0443732 0.0318914
0.0535439 0.0517128 0.0361639
0.0755474 0.0597848 0.0396277
0.104189 0.0666819 0.0401312
0.133394 0.0723278 0.0391089
0.163256 0.0771954 0.0375677
0.191318 0.0801404 0.0352636
0.220432 0.0810101 0.0328527
0.248814 0.0802014 0.0299077
0.274922 0.077348 0.0263828
0.301518 0.0722667 0.0228275
0.329137 0.0664073 0.0196841
0.354589 0.0601968 0.0170138
0.379721 0.0531472 0.0141451
0.405158 0.0455329 0.0112764
0.430732 0.0382696 0.00863661
0.456214 0.0310521 0.00611887
0.481117 0.0255741 0.00544747
0.505394 0.0204776 0.00474556
0.529427 0.0159762 0.00410468
0.55198 0.0132143 0.00361639
0.573465 0.0113375 0.00315862
0.595514 0.010193 0.00285344
0.616571 0.00915541 0.00250248
0.636088 0.00831617 0.00224308
0.653315 0.00753796 0.00207523
0.667796 0.00669871 0.00190738
0.678782 0.00619516 0.00180056
0.688731 0.00578317 0.00167849
0.697627 0.00527962 0.0015259
0.703243 0.00482185 0.00132753
0.701839 0.00444038 0.00114443
0.017319 0.0652171 0.0431373
0.0390326 0.0709697 0.0450599
0.0648356 0.0785077 0.0466468
0.0931258 0.0865644 0.0473182
0.123354 0.0946212 0.0470893
0.154345 0.100755 0.0440986
0.183032 0.104967 0.0401923
0.210117 0.108003 0.0355993
0.23856 0.109255 0.031754
0.266743 0.109987 0.0276341
0.29398 0.10985 0.0236057
0.320714 0.107256 0.0197452
0.347402 0.10338 0.016144
0.373159 0.0977798 0.0137026
0.398795 0.091249 0.0113985
0.42475 0.0826581 0.00918593
0.451041 0.0731975 0.0071107
0.476829 0.0625467 0.00508125
0.501701 0.0535134 0.00436408
0.526192 0.044892 0.00373846
0.55021 0.0365148 0.00323491
0.573098 0.0302434 0.00274662
0.595148 0.0255283 0.00236515
0.617136 0.0220035 0.00199893
0.638621 0.0186007 0.00167849
0.657771 0.0169985 0.00146487
0.675303 0.0156558 0.00125124
0.689845 0.0141756 0.00112917
0.701411 0.0133059 0.0010071
0.710948 0.0126955 0.000869764
0.719417 0.0118715 0.000686656
0.726192 0.0110933 0.000518807
0.724773 0.0106661 0.000335698
0.0185702 0.0907759 0.0513008
0.0411688 0.0973373 0.0523384
0.0718547 0.104952 0.052079
0.103532 0.112749 0.0502022
0.135485 0.120333 0.0474708
0.16643 0.125856 0.0429236
0.195682 0.13048 0.0380713
0.223514 0.134127 0.0327001
0.252354 0.1364 0.0280156
0.281178 0.13817 0.0235142
0.308156 0.138643 0.0193484
0.335683 0.138033 0.0154269
0.363287 0.136294 0.0117189
0.389441 0.132815 0.00932326
0.415503 0.128923 0.00730907
0.441672 0.123888 0.0059205
0.467613 0.117342 0.004654
0.493446 0.10959 0.00352483
0.518685 0.101335 0.00288396
0.543511 0.0926986 0.00234989
0.568154 0.0851301 0.00198367
0.592081 0.078294 0.00164797
0.613519 0.0715953 0.00132753
0.635233 0.0658732 0.00105287
0.65684 0.0602426 0.000808728
0.676402 0.0549477 0.000640879
0.695186 0.0502022 0.000518807
0.709499 0.0456092 0.000427253
0.721492 0.041825 0.00030518
0.730861 0.0386053 0.000183108
0.739406 0.0356146 0.000167849
0.747723 0.0327459 0.00015259
0.746471 0.0310521 0.00015259
0.0166476 0.111315 0.0547341
0.0385748 0.117601 0.0539254
0.0729076 0.125277 0.0519722
0.107378 0.133654 0.0485847
0.14136 0.141711 0.0441596
0.173327 0.147982 0.0385138
0.203677 0.153201 0.0328985
0.231891 0.157214 0.027451
0.262196 0.160693 0.0224613
0.291737 0.163439 0.0178531
0.318822 0.164431 0.0141756
0.346609 0.165087 0.0109102
0.375128 0.164981 0.00810254
0.40235 0.163561 0.00616464
0.429038 0.161654 0.00459297
0.455085 0.158572 0.00357061
0.4813 0.154757 0.00276188
0.507607 0.149935 0.00218204
0.533181 0.143725 0.00167849
0.558633 0.136736 0.00128176
0.584054 0.130175 0.00103761
0.60853 0.123354 0.000793469
0.630213 0.116167 0.000579843
0.652094 0.108934 0.000411994
0.673854 0.101762 0.000289921
0.694392 0.0942397 0.000213626
0.714 0.0868238 0.000167849
0.728023 0.0800946 0.000167849
0.740795 0.0743725 0.00015259
0.749966 0.0700236 0.00015259
0.75845 0.0659495 0.00015259
0.76672 0.0625315 0.000137331
0.767208 0.0605173 0.000137331
0.0131685 0.12813 0.054963
0.0338903 0.134859 0.0531014
0.0711376 0.142901 0.0496071
0.107637 0.15172 0.0447395
0.143984 0.160739 0.0392157
0.177737 0.168109 0.032929
0.2094 0.174319 0.0267948
0.238361 0.178759 0.0213321
0.269032 0.182879 0.0164187
0.299931 0.18677 0.0120546
0.327459 0.188266 0.00907912
0.355291 0.189517 0.00671397
0.38436 0.190616 0.00523384
0.41207 0.190341 0.0039826
0.439017 0.189456 0.00285344
0.465568 0.18764 0.00213626
0.492241 0.185458 0.00154116
0.51902 0.181796 0.00115969
0.545022 0.177523 0.000839246
0.570443 0.172915 0.000564584
0.595621 0.167559 0.000411994
0.620645 0.162249 0.000274662
0.642863 0.155978 0.000167849
0.664851 0.149447 0.000167849
0.687099 0.143206 0.00015259
0.707698 0.136156 0.00015259
0.72726 0.128985 0.00015259
0.742382 0.122499 0.000137331
0.756161 0.116136 0.000137331
0.765881 0.111513 0.000137331
0.774853 0.106859 0.000122072
0.783169 0.102907 0.000122072
0.785641 0.0999313 0.000122072
0.0109865 0.142123 0.0529183
0.0293431 0.148959 0.0501259
0.0678111 0.157885 0.0449836
0.10602 0.16733 0.0392615
0.144198 0.177096 0.0329747
0.178775 0.185107 0.0266575
0.212009 0.19237 0.0208743
0.242176 0.197787 0.0162051
0.273045 0.202411 0.011841
0.304158 0.2065 0.00787366
0.332876 0.209064 0.00573739
0.361608 0.211536 0.0039826
0.390738 0.212909 0.00292973
0.418936 0.213611 0.002121
0.446189 0.213519 0.00148013
0.473487 0.21297 0.0010071
0.500816 0.212085 0.000656138
0.528115 0.209827 0.000442512
0.554772 0.207355 0.000259403
0.580148 0.204425 0.000167849
0.605386 0.200946 0.000167849
0.63061 0.197345 0.00015259
0.653712 0.192935 0.00015259
0.676677 0.188388 0.00015259
0.699107 0.182742 0.000137331
0.720363 0.176989 0.000137331
0.740124 0.171054 0.000137331
0.756161 0.165499 0.000122072
0.770825 0.160159 0.000122072
0.780652 0.155505 0.000122072
0.789868 0.151171 0.000106813
0.798321 0.148272 0.000106813
0.802701 0.145708 9.15541e-05
0.00848402 0.155215 0.0494087
0.0231937 0.162371 0.0458991
0.0626383 0.17203 0.0395361
0.102403 0.182071 0.033051
0.142916 0.192691 0.0264744
0.178851 0.201404 0.020325
0.213046 0.209201 0.0146487
0.244617 0.215717 0.010956
0.275944 0.220996 0.00753796
0.306981 0.225025 0.00440986
0.337026 0.228656 0.00296025
0.366354 0.231846 0.00187686
0.395575 0.23357 0.00122072
0.424033 0.234821 0.000732433
0.451743 0.235599 0.000411994
0.479393 0.235935 0.000198367
0.507134 0.235904 0.000167849
0.534676 0.234379 0.00015259
0.561746 0.232654 0.00015259
0.587396 0.230793 0.00015259
0.612528 0.228351 0.000137331
0.637583 0.225376 0.000137331
0.661433 0.22208 0.000137331
0.684611 0.218616 0.000122072
0.707622 0.214099 0.000122072
0.729793 0.209506 0.000122072
0.749294 0.205035 0.000106813
0.766796 0.200946 0.000106813
0.781674 0.197192 0.000106813
0.792752 0.193851 9.15541e-05
0.802396 0.190555 9.15541e-05
0.811185 0.188846 9.15541e-05
0.817792 0.18732 7.62951e-05
0.00572213 0.168017 0.04448
0.0149844 0.175494 0.0400702
0.0549325 0.185718 0.0332494
0.0964218 0.196582 0.0265202
0.139239 0.207828 0.0198062
0.177478 0.217548 0.0142977
0.213565 0.226612 0.00932326
0.245014 0.233066 0.00633249
0.276829 0.239002 0.00384527
0.309636 0.244388 0.00233463
0.340078 0.248493 0.00129702
0.369299 0.251728 0.000534066
0.399008 0.254047 0.000228885
0.428046 0.256031 0.000183108
0.45597 0.257282 0.000167849
0.483742 0.258122 0.00015259
0.511742 0.258564 0.00015259
0.539727 0.258076 0.000137331
0.567971 0.257176 0.000137331
0.593698 0.256046 0.000122072
0.619425 0.254673 0.000122072
0.644175 0.252476 0.000122072
0.668254 0.250004 0.000106813
0.692042 0.247654 0.000106813
0.715557 0.244587 0.000106813
0.739147 0.241245 9.15541e-05
0.758923 0.238636 9.15541e-05
0.776867 0.23537 9.15541e-05
0.79202 0.232807 7.62951e-05
0.804211 0.230457 7.62951e-05
0.813916 0.228305 7.62951e-05
0.823178 0.227298 6.10361e-05
0.831708 0.226459 6.10361e-05
0.00389105 0.17937 0.0386053
0.0105898 0.187533 0.0331426
0.0476844 0.198459 0.026276
0.0888533 0.209537 0.0194553
0.133776 0.221515 0.0133059
0.174655 0.23241 0.00848402
0.21236 0.24242 0.00503548
0.24509 0.249744 0.00276188
0.276905 0.256107 0.000991836
0.310475 0.26244 0.000732433
0.342016 0.267506 0.000564584
0.370962 0.270787 0.000259403
0.400732 0.273747 0.000167849
0.431037 0.27689 0.00015259
0.459007 0.278462 0.000137331
0.487007 0.279698 0.000137331
0.515297 0.280751 0.000122072
0.543999 0.281086 0.000122072
0.572778 0.281086 0.000122072
0.599405 0.280583 0.000106813
0.624979 0.279438 0.000106813
0.650034 0.277974 0.000106813
0.674403 0.276127 9.15541e-05
0.698421 0.274388 9.15541e-05
0.722637 0.272129 9.15541e-05
0.746975 0.269627 7.62951e-05
0.767239 0.267262 7.62951e-05
0.786099 0.264942 7.62951e-05
0.801541 0.263355 6.10361e-05
0.815 0.26186 6.10361e-05
0.825147 0.261067 6.10361e-05
0.834485 0.26038 4.57771e-05
0.843763 0.260655 4.57771e-05
0.00273136 0.189853 0.031754
0.00900282 0.198306 0.0255131
0.0404822 0.209598 0.0191806
0.0808881 0.221393 0.0128481
0.126787 0.233906 0.00770581
0.169528 0.24538 0.00355535
0.208255 0.256092 0.00209049
0.242664 0.264439 0.0011902
0.274952 0.271855 0.000503548
0.308354 0.278126 0.000427253
0.340902 0.283848 0.000350958
0.371176 0.288319 0.000213626
0.401572 0.292103 0.000137331
0.431479 0.295232 0.000137331
0.460273 0.297551 0.000122072
0.488762 0.29955 0.000106813
0.517555 0.301137 0.000106813
0.547127 0.302571 0.000106813
0.576593 0.30341 9.15541e-05
0.603937 0.303517 9.15541e-05
0.630045 0.303014 9.15541e-05
0.655116 0.302281 7.62951e-05
0.679942 0.301427 7.62951e-05
0.704921 0.300679 7.62951e-05
0.729717 0.299397 6.10361e-05
0.754345 0.297536 6.10361e-05
0.775708 0.295827 6.10361e-05
0.795026 0.293904 4.57771e-05
0.811276 0.293156 4.57771e-05
0.826108 0.292363 4.57771e-05
0.835966 0.291493 4.57771e-05
0.84564 0.291112 3.0518e-05
0.855055 0.291585 3.0518e-05
0.0015259 0.200336 0.0236362
0.00735485 0.209293 0.0174563
0.0320897 0.220264 0.0117647
0.0710307 0.232731 0.00775158
0.117586 0.245869 0.00466926
0.163287 0.258473 0.00216678
0.202564 0.269169 0.0011902
0.238972 0.278691 0.000564584
0.272358 0.286717 0.000289921
0.305852 0.293431 0.000198367
0.339376 0.299809 0.000137331
0.370596 0.305226 0.000122072
0.40145 0.309758 0.000106813
0.431434 0.312795 0.000106813
0.460563 0.315633 0.000106813
0.489693 0.318547 9.15541e-05
0.519371 0.320684 9.15541e-05
0.548714 0.322499 7.62951e-05
0.578882 0.323873 7.62951e-05
0.607324 0.324636 7.62951e-05
0.633967 0.325032 6.10361e-05
0.659312 0.324758 6.10361e-05
0.684413 0.324437 6.10361e-05
0.709651 0.323903 6.10361e-05
0.734874 0.323384 4.57771e-05
0.760372 0.322408 4.57771e-05
0.783093 0.321431 4.57771e-05
0.802609 0.320394 3.0518e-05
0.819852 0.320073 3.0518e-05
0.836072 0.319966 3.0518e-05
0.846235 0.319799 3.0518e-05
0.856077 0.319631 1.5259e-05
0.865721 0.320638 1.5259e-05
0.000457771 0.210575 0.0158083
0.00546273 0.220188 0.01149
0.0226444 0.230915 0.00782788
0.0598306 0.243854 0.00520333
0.106218 0.257481 0.00314336
0.155749 0.27126 0.00137331
0.196551 0.282643 0.000854505
0.235096 0.29308 0.000427253
0.268788 0.301366 0.000244144
0.30309 0.30901 0.00015259
0.337316 0.316045 0.000122072
0.368841 0.321538 0.000106813
0.400061 0.326619 9.15541e-05
0.430869 0.330434 9.15541e-05
0.460899 0.333974 7.62951e-05
0.490455 0.337133 7.62951e-05
0.519966 0.339696 7.62951e-05
0.549996 0.342077 6.10361e-05
0.580621 0.343893 6.10361e-05
0.610361 0.34551 6.10361e-05
0.637644 0.34667 4.57771e-05
0.66389 0.347082 4.57771e-05
0.688807 0.346929 4.57771e-05
0.714366 0.346975 3.0518e-05
0.740078 0.347066 3.0518e-05
0.766445 0.347112 3.0518e-05
0.791074 0.347158 3.0518e-05
0.810758 0.346609 1.5259e-05
0.828611 0.346761 1.5259e-05
0.845212 0.347326 1.5259e-05
0.856443 0.347585 1.5259e-05
0.866545 0.347768 0
0.8766 0.349416 0
0.00015259 0.220279 0.0113375
0.00415045 0.229892 0.00790417
0.0145266 0.240772 0.00503548
0.0500343 0.253986 0.00332647
0.0937209 0.267903 0.00195315
0.145388 0.282338 0.000900282
0.18938 0.294865 0.000518807
0.230854 0.306676 0.00030518
0.265171 0.315526 0.000183108
0.299855 0.323842 0.000106813
0.334676 0.331426 9.15541e-05
0.3673 0.337682 7.62951e-05
0.398474 0.342916 7.62951e-05
0.430564 0.347951 6.10361e-05
0.461494 0.352316 6.10361e-05
0.490684 0.355383 6.10361e-05
0.5205 0.358358 4.57771e-05
0.551125 0.361288 4.57771e-05
0.582132 0.363622 4.57771e-05
0.613474 0.365988 4.57771e-05
0.64097 0.367453 3.0518e-05
0.667597 0.368399 3.0518e-05
0.692897 0.36875 3.0518e-05
0.718807 0.369162 1.5259e-05
0.745022 0.369757 1.5259e-05
0.771969 0.370245 1.5259e-05
0.797818 0.370581 1.5259e-05
0.817884 0.370596 0
0.836698 0.37116 0
0.853666 0.372168 0
0.866178 0.373266 0
0.876966 0.374426 0
0.886961 0.376104 0
0.000137331 0.229633 0.00796521
0.00309758 0.239048 0.00508125
0.00762951 0.249439 0.00306706
0.0411994 0.263294 0.00204471
0.0808728 0.277302 0.00117494
0.1337 0.292515 0.000564584
0.180911 0.306188 0.000259403
0.223972 0.318669 0.000167849
0.260349 0.32845 0.000122072
0.295506 0.337362 7.62951e-05
0.330922 0.345342 7.62951e-05
0.364752 0.352483 6.10361e-05
0.396963 0.358587 6.10361e-05
0.429114 0.363958 4.57771e-05
0.460609 0.368856 4.57771e-05
0.490791 0.372732 4.57771e-05
0.520958 0.376287 3.0518e-05
0.552193 0.37969 3.0518e-05
0.584024 0.38291 3.0518e-05
0.616053 0.385809 3.0518e-05
0.644266 0.387701 1.5259e-05
0.671702 0.389502 1.5259e-05
0.697414 0.39028 1.5259e-05
0.723674 0.391455 1.5259e-05
0.750576 0.392447 0
0.777874 0.393469 0
0.805417 0.39443 0
0.825986 0.395346 0
0.845701 0.396506 0
0.863355 0.398474 0
0.876707 0.399863 0
0.887388 0.401022 0
0.897398 0.402655 0
0.000106813 0.239689 0.00572213
0.00180056 0.248631 0.00335698
0.00549325 0.259388 0.0019379
0.0315709 0.272816 0.00120546
0.0664073 0.28719 0.000656138
0.122179 0.303166 0.00030518
0.172351 0.317662 0.000106813
0.216648 0.330724 7.62951e-05
0.25536 0.34136 6.10361e-05
0.291432 0.350912 4.57771e-05
0.327413 0.359258 4.57771e-05
0.362524 0.367285 4.57771e-05
0.395514 0.374044 3.0518e-05
0.427588 0.37969 3.0518e-05
0.459403 0.384802 3.0518e-05
0.490562 0.389685 3.0518e-05
0.521859 0.394354 1.5259e-05
0.553628 0.398062 1.5259e-05
0.585641 0.401587 1.5259e-05
0.618265 0.405081 1.5259e-05
0.647745 0.407721 0
0.675792 0.409918 0
0.702419 0.411917 0
0.729274 0.413611 0
0.75697 0.415442 0
0.784726 0.417197 0
0.812818 0.418906 0
0.834516 0.420325 0
0.855116 0.422004 0
0.872602 0.423972 0
0.886854 0.42565 0
0.897581 0.427024 0
0.907652 0.428702 0
9.15541e-05 0.249851 0.00376898
0.000747692 0.258305 0.00215152
0.00308232 0.269596 0.00123598
0.021973 0.283207 0.000686656
0.0525826 0.298299 0.000381476
0.108629 0.314488 0.000198367
0.164004 0.33022 7.62951e-05
0.209888 0.344106 6.10361e-05
0.251377 0.356039 4.57771e-05
0.288426 0.366308 3.0518e-05
0.325185 0.375494 3.0518e-05
0.361425 0.384085 3.0518e-05
0.394949 0.391241 1.5259e-05
0.427787 0.397513 1.5259e-05
0.460227 0.403067 1.5259e-05
0.491981 0.408392 1.5259e-05
0.523415 0.41355 0
0.556039 0.417914 0
0.589029 0.422293 0
0.62266 0.426719 0
0.653498 0.430137 0
0.682307 0.433112 0
0.709316 0.435325 0
0.736309 0.437476 0
0.764294 0.439673 0
0.792355 0.441764 0
0.820584 0.443976 0
0.843427 0.445762 0
0.864454 0.447517 0
0.881834 0.449622 0
0.896971 0.45153 0
0.907744 0.45304 0
0.917967 0.45481 0
7.62951e-05 0.26009 0.00231937
0.000259403 0.268025 0.00129702
0.00181582 0.279973 0.000717174
0.013611 0.293553 0.000350958
0.0411383 0.30927 0.000198367
0.0939803 0.325994 0.000106813
0.155032 0.342962 4.57771e-05
0.20296 0.357778 3.0518e-05
0.247715 0.371481 3.0518e-05
0.285847 0.382284 1.5259e-05
0.323415 0.392126 1.5259e-05
0.360784 0.401419 1.5259e-05
0.394903 0.408972 0
0.42884 0.416159 0
0.462226 0.422644 0
0.495018 0.428717 0
0.52694 0.434333 0
0.561074 0.440253 0
0.595087 0.445716 0
0.628931 0.450187 0
0.660578 0.454261 0
0.689464 0.45745 0
0.716655 0.459739 0
0.743572 0.462028 0
0.772015 0.464866 0
0.800412 0.467643 0
0.828519 0.46981 0
0.852201 0.471778 0
0.873259 0.473625 0
0.890959 0.475731 0
0.90692 0.477852 0
0.917769 0.479515 0
0.928023 0.481331 0
4.57771e-05 0.270497 0.00117494
0.00015259 0.278691 0.000671397
0.00115969 0.290822 0.000335698
0.00708019 0.304082 0.000122072
0.0305943 0.320562 7.62951e-05
0.0776379 0.337835 4.57771e-05
0.143252 0.355978 1.5259e-05
0.19559 0.372213 1.5259e-05
0.243046 0.387045 1.5259e-05
0.28217 0.398489 0
0.321294 0.409308 0
0.360174 0.419623 0
0.396155 0.428489 0
0.431464 0.436973 0
0.465599 0.443961 0
0.499199 0.450721 0
0.531914 0.456809 0
0.565835 0.462913 0
0.600504 0.469001 0
0.635401 0.474281 0
0.667887 0.478767 0
0.696757 0.482002 0
0.724193 0.484535 0
0.751034 0.486946 0
0.779873 0.490303 0
0.808286 0.493324 0
0.836606 0.495888 0
0.861051 0.498116 0
0.882033 0.49987 0
0.900374 0.502464 0
0.91725 0.504875 0
0.927825 0.506233 0
0.938125 0.508019 0
3.0518e-05 0.28011 0.00062562
0.000137331 0.28893 0.000335698
0.000808728 0.300801 0.00015259
0.00251774 0.314183 4.57771e-05
0.0232242 0.331548 1.5259e-05
0.0621805 0.349508 1.5259e-05
0.130434 0.368688 0
0.187289 0.386007 0
0.238666 0.402823 0
0.279545 0.415457 0
0.320134 0.427634 0
0.360647 0.438972 0
0.398032 0.448783 0
0.434119 0.457725 0
0.468803 0.465309 0
0.503075 0.472511 0
0.536583 0.479347 0
0.571038 0.485817 0
0.605509 0.49192 0
0.641123 0.498146 0
0.67512 0.503517 0
0.70399 0.506752 0
0.731746 0.509682 0
0.75877 0.512337 0
0.787182 0.515557 0
0.815793 0.518883 0
0.844572 0.522103 0
0.870329 0.524865 0
0.891218 0.526925 0
0.909987 0.529656 0
0.927581 0.532403 0
0.938216 0.533745 0
0.94847 0.535439 0
1.5259e-05 0.289784 0.000274662
0.000122072 0.298955 0.000106813
0.000610361 0.310658 3.0518e-05
0.00144961 0.324559 0
0.0182803 0.342687 0
0.0491188 0.361639 0
0.117906 0.381567 0
0.178668 0.400153 0
0.233051 0.417624 0
0.277028 0.431678 0
0.319249 0.444938 0
0.359854 0.456428 0
0.398627 0.46685 0
0.435325 0.47628 0
0.470619 0.484413 0
0.505455 0.492027 0
0.539635 0.499367 0
0.574014 0.50605 0
0.608789 0.512505 0
0.644465 0.518944 0
0.679667 0.525002 0
0.709484 0.529122 0
0.738308 0.532891 0
0.765133 0.535515 0
0.793317 0.538842 0
0.822141 0.542443 0
0.851148 0.546166 0
0.878523 0.549767 0
0.899458 0.552102 0
0.918578 0.554772 0
0.936278 0.557885 0
0.947707 0.559548 0
0.957916 0.561257 0
0 0.299687 4.57771e-05
0.000106813 0.309453 0
0.00047303 0.321492 0
0.00128176 0.336675 0
0.014847 0.354894 0
0.0377813 0.374334 0
0.107378 0.395117 0
0.171298 0.414694 0
0.227436 0.432624 0
0.274189 0.447761 0
0.317784 0.461692 0
0.358968 0.473487 0
0.398596 0.484504 0
0.436057 0.494423 0
0.472343 0.50338 0
0.50779 0.511498 0
0.542153 0.51899 0
0.576761 0.52607 0
0.612055 0.532845 0
0.647532 0.539391 0
0.683726 0.545922 0
0.714839 0.551019 0
0.744503 0.555428 0
0.771405 0.558236 0
0.799283 0.561532 0
0.828016 0.565255 0
0.857694 0.569497 0
0.886076 0.573388 0
0.907103 0.575921 0
0.926696 0.578759 0
0.944198 0.581628 0
0.956436 0.583688 0
0.966613 0.585519 0
0 0.312016 0
9.15541e-05 0.321111 0
0.000366217 0.333227 0
0.00117494 0.349065 0
0.0121004 0.367269 0
0.0294347 0.38703 0
0.0976577 0.40856 0
0.163928 0.429175 0
0.221622 0.447486 0
0.270481 0.46305 0
0.315022 0.477363 0
0.357214 0.48986 0
0.398123 0.50164 0
0.436271 0.512047 0
0.472938 0.52137 0
0.509102 0.529961 0
0.544076 0.537957 0
0.578775 0.545464 0
0.614237 0.552392 0
0.65037 0.559442 0
0.686595 0.566217 0
0.718379 0.571435 0
0.74873 0.576303 0
0.776623 0.57995 0
0.804868 0.58378 0
0.834028 0.587777 0
0.863294 0.591867 0
0.89276 0.596246 0
0.914153 0.599084 0
0.934478 0.602075 0
0.952087 0.605219 0
0.964874 0.607401 0
0.974746 0.609262 0
0 0.325948 0
7.62951e-05 0.333837 0
0.000274662 0.345602 0
0.00105287 0.361913 0
0.00970474 0.380179 0
0.0265812 0.400397 0
0.088426 0.422415 0
0.156466 0.444099 0
0.214969 0.462684 0
0.26659 0.479103 0
0.312169 0.49366 0
0.35552 0.506798 0
0.398077 0.519493 0
0.436469 0.530129 0
0.474006 0.539864 0
0.510414 0.548852 0
0.545892 0.557137 0
0.581445 0.565362 0
0.617273 0.572656 0
0.653284 0.579721 0
0.689723 0.586709 0
0.722194 0.592203 0
0.753094 0.597436 0
0.782116 0.601984 0
0.811124 0.606394 0
0.839811 0.610193 0
0.86894 0.614404 0
0.898543 0.618875 0
0.921248 0.622141 0
0.942458 0.625544 0
0.959777 0.628504 0
0.973159 0.630747 0
0.982589 0.632563 0
0 0.340017 0
6.10361e-05 0.346517 0
0.000167849 0.357794 0
0.000946059 0.374731 0
0.00743114 0.393072 0
0.0241398 0.414328 0
0.0788128 0.436332 0
0.147845 0.458625 0
0.207919 0.478035 0
0.262409 0.495567 0
0.309239 0.510536 0
0.354192 0.524483 0
0.39791 0.537789 0
0.437125 0.548745 0
0.475227 0.559121 0
0.512352 0.568322 0
0.548455 0.577295 0
0.584298 0.585885 0
0.620813 0.593622 0
0.657374 0.60116 0
0.69427 0.608362 0
0.727611 0.614542 0
0.758679 0.619944 0
0.787854 0.624582 0
0.816907 0.629023 0
0.846632 0.633722 0
0.87599 0.638193 0
0.905455 0.64271 0
0.929213 0.646433 0
0.950362 0.649668 0
0.966247 0.652537 0
0.979095 0.654902 0
0.987549 0.656519 0
0 0.354391 0
4.57771e-05 0.359472 0
0.00015259 0.371374 0
0.000839246 0.388052 0
0.00529488 0.406638 0
0.0220035 0.428428 0
0.0695659 0.450721 0
0.138811 0.473594 0
0.200427 0.49369 0
0.257771 0.512428 0
0.305715 0.527977 0
0.351675 0.542306 0
0.396689 0.556115 0
0.437079 0.567681 0
0.476448 0.578729 0
0.514305 0.58854 0
0.551202 0.597772 0
0.587274 0.606607 0
0.624125 0.61474 0
0.661448 0.622873 0
0.698863 0.630411 0
0.733455 0.637278 0
0.764691 0.642863 0
0.793942 0.647471 0
0.82298 0.652247 0
0.853284 0.657435 0
0.883497 0.662531 0
0.913176 0.667124 0
0.937224 0.670863 0
0.958724 0.674235 0
0.973022 0.677043 0
0.984924 0.679377 0
0.992172 0.681132 0
0 0.367681 0
3.0518e-05 0.371405 0
0.000137331 0.384375 0
0.000732433 0.401022 0
0.00315862 0.419608 0
0.0197757 0.441932 0
0.060441 0.464958 0
0.129427 0.488457 0
0.193103 0.509728 0
