src/assets/luts/Alen Palander - Istanbul.cube
TITLE "Generated by Resolve"
LUT_3D_SIZE 33
0 0 0.0139467
0.00560006 0 0.0137179
0.058732 0 0.0134585
0.123949 0.00164797 0.0163424
0.180209 0.0127565 0.019852
0.233112 0.0263828 0.0194858
0.277913 0.0366674 0.0181888
0.317128 0.0475929 0.018616
0.356252 0.0599985 0.0201419
0.393851 0.0728771 0.0218509
0.429557 0.0858015 0.0233768
0.4636 0.0962997 0.0241703
0.496315 0.106584 0.0248722
0.528405 0.11696 0.0255894
0.559945 0.127169 0.026215
0.588159 0.136065 0.0267796
0.613352 0.143053 0.0269474
0.636027 0.149477 0.027039
0.657374 0.155383 0.0271305
0.677287 0.161044 0.0272526
0.696529 0.166659 0.0273899
0.714656 0.172412 0.0276799
0.731838 0.178149 0.0280461
0.748928 0.184344 0.0286564
0.766537 0.191119 0.0293278
0.7832 0.19794 0.030045
0.798993 0.204578 0.0307622
0.814206 0.210285 0.0312505
0.828763 0.21593 0.0318456
0.840726 0.221729 0.0327916
0.842588 0.222904 0.0330663
0.842588 0.222934 0.0330816
0.842603 0.22298 0.0330968
0 0 0.0289311
0.00886549 6.10361e-05 0.0289158
0.0561837 0.00447089 0.0268406
0.117372 0.018204 0.0300755
0.179324 0.0334478 0.0319371
0.236515 0.0470588 0.0308385
0.282582 0.0573434 0.0284733
0.32517 0.0680247 0.0251621
0.364996 0.0792248 0.0248112
0.402365 0.0903334 0.0252079
0.439231 0.101762 0.025742
0.473213 0.111772 0.026154
0.506355 0.121813 0.0265049
0.538964 0.131792 0.0267796
0.568765 0.140536 0.0268711
0.596674 0.148653 0.0269474
0.621973 0.155596 0.0269932
0.645258 0.162051 0.027039
0.6663 0.167498 0.0269627
0.686381 0.172854 0.0269169
0.705211 0.178164 0.0269169
0.723095 0.18323 0.027039
0.740139 0.18854 0.0272221
0.756863 0.194125 0.0275731
0.773709 0.20032 0.0280766
0.790051 0.207034 0.028809
0.805829 0.213428 0.0294194
0.820798 0.218891 0.0298772
0.834318 0.224247 0.030457
0.844678 0.229694 0.0314336
0.846067 0.230793 0.031754
0.846067 0.230762 0.0317388
0.846052 0.230716 0.0317235
0 0.0193942 0.0552224
0.00978103 0.0308232 0.0573129
0.0621042 0.0373083 0.049424
0.124559 0.0489509 0.0445563
0.187716 0.0605478 0.0428473
0.243183 0.0694133 0.0378271
0.288365 0.0771496 0.0332799
0.331472 0.0854047 0.0297856
0.371115 0.094667 0.027039
0.408606 0.104021 0.0270237
0.444282 0.11339 0.0267948
0.477699 0.122164 0.026688
0.511254 0.131746 0.0267643
0.543801 0.141405 0.0267796
0.574563 0.150301 0.0267491
0.603037 0.15845 0.0267185
0.628733 0.165469 0.0265812
0.652079 0.171817 0.0265507
0.673518 0.177554 0.0265049
0.693751 0.183001 0.0264591
0.712398 0.187839 0.0263066
0.730083 0.192752 0.0263371
0.747021 0.197559 0.0262455
0.76376 0.203006 0.0265049
0.779934 0.209125 0.0270695
0.795636 0.215549 0.0277714
0.811109 0.221515 0.0282902
0.826261 0.226993 0.0285496
0.838773 0.232197 0.0292515
0.847929 0.237125 0.0301213
0.849271 0.238102 0.0304265
0.849241 0.23798 0.0303502
0.84921 0.237888 0.0303197
0 0.0580148 0.0789349
0.01149 0.0668193 0.0818647
0.0623178 0.0793469 0.0766308
0.123644 0.0773022 0.0599527
0.1888 0.0870069 0.0482643
0.242527 0.0958267 0.0389868
0.28806 0.0993057 0.0330358
0.333104 0.104372 0.0297704
0.372824 0.110811 0.0281834
0.410559 0.11812 0.0273289
0.447074 0.126238 0.0271
0.48069 0.134051 0.0268711
0.514519 0.142824 0.0267185
0.547814 0.15198 0.0266575
0.579278 0.160372 0.0263981
0.607675 0.16788 0.0262455
0.634485 0.175097 0.0260929
0.657755 0.181155 0.0260014
0.679561 0.186892 0.0259861
0.700099 0.19237 0.0259403
0.718425 0.197253 0.0259251
0.736141 0.20174 0.0256962
0.75317 0.206226 0.0254063
0.769406 0.211582 0.0256962
0.785229 0.217777 0.0263523
0.800641 0.22388 0.0269017
0.815961 0.228824 0.0268101
0.8309 0.234638 0.0271763
0.842908 0.23946 0.0277867
0.850904 0.243687 0.0284733
0.852384 0.244648 0.0287785
0.852338 0.24448 0.0287022
0.852308 0.244373 0.0286564
0 0.0903487 0.0942855
0.010193 0.0961166 0.0977798
0.0533455 0.109606 0.0970932
0.116991 0.122774 0.0863508
0.179385 0.108934 0.0612345
0.234852 0.116121 0.0435035
0.28072 0.125902 0.0373236
0.326558 0.130968 0.0330663
0.368902 0.134096 0.0294194
0.409552 0.138323 0.0277867
0.44831 0.144076 0.0272221
0.482734 0.150042 0.0268406
0.517754 0.15758 0.0264897
0.551308 0.165423 0.0261997
0.582956 0.172946 0.0258183
0.612253 0.180011 0.0256046
0.639384 0.186755 0.0254063
0.663081 0.19205 0.0250858
0.6851 0.197269 0.0249943
0.705943 0.201846 0.0246433
0.724376 0.205997 0.0243992
0.742412 0.210346 0.0242466
0.758846 0.215091 0.024445
0.774731 0.220188 0.0246128
0.790356 0.225666 0.0248112
0.805631 0.231067 0.024979
0.820737 0.2365 0.0252689
0.835401 0.242161 0.0256046
0.846479 0.246281 0.0259861
0.853773 0.250065 0.0268101
0.85539 0.25098 0.0271153
0.855344 0.250813 0.027039
0.855329 0.250782 0.0270237
0.000274662 0.117708 0.104891
0.010544 0.120668 0.106706
0.0440375 0.131243 0.110994
0.0991379 0.145739 0.103243
0.172015 0.152453 0.0833753
0.223133 0.137682 0.057847
0.273228 0.143359 0.0438697
0.319631 0.153307 0.0387579
0.36199 0.161013 0.0353246
0.403967 0.164752 0.0312352
0.444938 0.167575 0.027924
0.48246 0.171191 0.0267185
0.518578 0.176089 0.0262303
0.554147 0.182437 0.0258793
0.587243 0.18909 0.0254673
0.616754 0.194888 0.0250401
0.644312 0.201007 0.0250248
0.66807 0.2056 0.024506
0.690379 0.210224 0.0243687
0.711604 0.214328 0.0239109
0.73019 0.218143 0.0236973
0.747982 0.222019 0.0235599
0.764096 0.226291 0.023743
0.780026 0.230655 0.023682
0.795102 0.235523 0.0237736
0.810407 0.240589 0.0239261
0.824811 0.245884 0.0243839
0.8392 0.251286 0.0246586
0.849836 0.254841 0.0248569
0.85658 0.257908 0.0256046
0.858412 0.25864 0.025803
0.858396 0.258549 0.0257572
0.858351 0.258412 0.0256809
0.00103761 0.142443 0.113451
0.0120699 0.144488 0.115129
0.0394598 0.152697 0.122164
0.0831769 0.165347 0.117311
0.154589 0.180102 0.102937
0.215671 0.177096 0.0781567
0.260945 0.165362 0.0568551
0.312901 0.170077 0.0458991
0.356237 0.177905 0.040116
0.398032 0.186618 0.0360723
0.439628 0.192279 0.032105
0.477989 0.195422 0.0287175
0.517143 0.199039 0.0262455
0.554177 0.203037 0.0255283
0.5897 0.208026 0.0250095
0.620096 0.212207 0.0243381
0.648219 0.216876 0.0242466
0.672816 0.220691 0.0234836
0.695659 0.224918 0.02327
0.716838 0.228733 0.0231632
0.735149 0.232288 0.0233005
0.752819 0.235737 0.0233005
0.768841 0.239399 0.0234531
0.784482 0.242847 0.0231174
0.799908 0.247211 0.0231327
0.814603 0.252094 0.0233921
0.828794 0.257542 0.024094
0.843137 0.262287 0.0240787
0.8533 0.265278 0.0241245
0.85948 0.268009 0.0251011
0.861418 0.268437 0.0250553
0.861357 0.268254 0.024979
0.861326 0.268101 0.0249027
0.00218204 0.166674 0.121416
0.011902 0.166735 0.121584
0.0373236 0.173419 0.130037
0.0736553 0.1841 0.127672
0.135653 0.198795 0.117754
0.205341 0.211109 0.0982834
0.254658 0.199893 0.0744182
0.301228 0.190707 0.0569924
0.349203 0.194095 0.0472725
0.392279 0.200671 0.0406958
0.434394 0.209918 0.0363012
0.473426 0.217975 0.0331731
0.512184 0.22266 0.0292058
0.55169 0.226398 0.025803
0.58912 0.229831 0.0245518
0.622034 0.233082 0.0235904
0.651255 0.236271 0.0231479
0.677089 0.239063 0.0228122
0.699962 0.2421 0.0226444
0.721355 0.245441 0.0226902
0.739895 0.247944 0.0225681
0.757809 0.250446 0.0224765
0.773938 0.253376 0.0225071
0.789425 0.256535 0.0224918
0.804532 0.260746 0.0225376
0.819135 0.265492 0.0226749
0.833509 0.270161 0.0226596
0.847257 0.274708 0.0226444
0.856535 0.278309 0.0234379
0.862455 0.279698 0.0237583
0.864668 0.280446 0.0244297
0.864622 0.280278 0.0243534
0.864591 0.280156 0.0242771
0.00358587 0.189532 0.128603
0.0128634 0.188998 0.128695
0.0357977 0.193637 0.136889
0.0675517 0.203769 0.137407
0.121035 0.218189 0.131106
0.19086 0.233371 0.116854
0.250263 0.239948 0.0953384
0.294118 0.22179 0.0729992
0.338781 0.214496 0.0580606
0.385245 0.217517 0.0485695
0.429221 0.223667 0.0415808
0.468971 0.233143 0.0376593
0.50753 0.241947 0.0337682
0.547158 0.248829 0.0296788
0.586587 0.254017 0.0263066
0.621347 0.257206 0.0235599
0.652811 0.259602 0.0228733
0.679988 0.261311 0.0225528
0.703639 0.263157 0.0223697
0.725399 0.265126 0.0222934
0.744671 0.266758 0.0221866
0.762737 0.26836 0.0221408
0.779049 0.270619 0.0221103
0.794263 0.273442 0.0221256
0.809155 0.27715 0.0221256
0.823713 0.281041 0.0221256
0.83801 0.28513 0.0220493
0.851667 0.289433 0.0220951
0.860075 0.292668 0.0224002
0.865766 0.292973 0.0225223
0.868086 0.293568 0.0234073
0.868055 0.293431 0.0233463
0.86804 0.2934 0.0233463
0.00582895 0.212909 0.136797
0.0158389 0.212314 0.137545
0.0349126 0.214984 0.14403
0.0624247 0.224094 0.14725
0.109819 0.237858 0.143206
0.174853 0.252857 0.132921
0.236408 0.265553 0.115572
0.297642 0.267826 0.0955978
0.331655 0.243381 0.0734874
0.375326 0.238682 0.0601205
0.423102 0.241077 0.0497292
0.464057 0.24686 0.0433814
0.503471 0.255207 0.0381476
0.543206 0.266087 0.0340429
0.583459 0.276509 0.0305028
0.619989 0.283085 0.027451
0.651957 0.286305 0.0246281
0.680446 0.287541 0.0227512
0.705547 0.287602 0.0222324
0.729046 0.288258 0.0221561
0.749081 0.288853 0.0220035
0.767208 0.289326 0.0219425
0.783948 0.290608 0.021912
0.799191 0.292485 0.0218967
0.814008 0.295674 0.0219272
0.828458 0.298787 0.0219272
0.843122 0.302922 0.0218967
0.856062 0.307317 0.0220035
0.863905 0.31014 0.0223697
0.869322 0.30959 0.0222477
0.871611 0.309163 0.0227054
0.871595 0.309102 0.0226749
0.871595 0.309102 0.0226749
0.00880446 0.237598 0.146502
0.0200198 0.236408 0.147402
0.0380865 0.238407 0.153002
0.0597543 0.244694 0.155825
0.0984207 0.257527 0.154513
0.160952 0.273045 0.147387
0.222751 0.286351 0.133165
0.285176 0.298268 0.115023
0.340459 0.292714 0.0963607
0.367193 0.266178 0.0754864
0.414115 0.262562 0.0614481
0.458137 0.265232 0.0522621
0.498054 0.269932 0.0449683
0.540581 0.279484 0.0391699
0.580575 0.291798 0.0353094
0.617411 0.304204 0.0328985
0.650446 0.311192 0.0298619
0.680095 0.314611 0.0270695
0.707286 0.316014 0.0246738
0.731807 0.316106 0.0229343
0.75285 0.315297 0.0221561
0.77142 0.314763 0.0218814
0.788281 0.314946 0.0217899
0.803662 0.315175 0.0217899
0.818692 0.31751 0.0217899
0.83331 0.320134 0.0217899
0.847654 0.323552 0.0218357
0.860029 0.327947 0.0221103
0.86743 0.330098 0.0222629
0.872831 0.328832 0.0225376
0.875257 0.327321 0.0229191
0.875242 0.32726 0.0228885
0.875242 0.327291 0.0229038
0.0119631 0.262013 0.155978
0.0239567 0.259586 0.156298
0.0419471 0.261662 0.161471
0.0594797 0.266087 0.163592
0.0896162 0.276997 0.164004
0.145892 0.29247 0.160006
0.20914 0.306645 0.14931
0.272541 0.320592 0.130526
0.331395 0.329488 0.118578
0.377584 0.314885 0.0977951
0.404685 0.287587 0.0755627
0.450538 0.287007 0.063798
0.493339 0.289219 0.0542763
0.536339 0.295201 0.0463569
0.578515 0.305348 0.0407111
0.615427 0.318242 0.0379644
0.649409 0.330571 0.0356451
0.679911 0.339422 0.0332189
0.70808 0.344274 0.0306249
0.733608 0.346212 0.0282292
0.755703 0.346181 0.0264744
0.775082 0.345159 0.0251011
0.792462 0.34406 0.0241398
0.808057 0.343511 0.0235599
0.822995 0.344091 0.023331
0.837385 0.345434 0.0232547
0.851667 0.348272 0.0234684
0.863432 0.351385 0.0237736
0.870985 0.352895 0.0239414
0.876631 0.351019 0.0240635
0.87895 0.348562 0.0235752
0.87895 0.348608 0.0235752
0.878981 0.348714 0.023621
0.0154726 0.286519 0.165301
0.0282597 0.283955 0.165454
0.0459297 0.285298 0.169787
0.0626078 0.289769 0.172061
0.0850385 0.297368 0.17203
0.132601 0.312764 0.171649
0.194217 0.327428 0.164645
0.260838 0.34168 0.146838
0.319936 0.355871 0.135637
0.378958 0.361883 0.123293
0.415717 0.335012 0.0975814
0.442451 0.31249 0.0781872
0.486046 0.312169 0.0668345
0.531395 0.314702 0.0559701
0.57496 0.321462 0.0480201
0.613565 0.332006 0.043595
0.648661 0.344549 0.0409705
0.679744 0.356847 0.0391089
0.708873 0.366842 0.037171
0.735027 0.373114 0.0350652
0.757977 0.375967 0.0332494
0.777951 0.377066 0.0318151
0.795941 0.376959 0.0306249
0.812039 0.376349 0.0296483
0.827237 0.375555 0.0288548
0.841657 0.376471 0.0287327
0.855955 0.37821 0.028687
0.867002 0.379904 0.0287633
0.874708 0.380804 0.0287785
0.880232 0.376593 0.0279088
0.882368 0.373205 0.0272374
0.882383 0.373312 0.0272831
0.882429 0.373526 0.0273747
0.0197757 0.312352 0.174975
0.0332494 0.310155 0.175509
0.05066 0.310185 0.178592
0.0663005 0.314397 0.18056
0.0851453 0.320592 0.180713
0.12221 0.33373 0.181888
0.177676 0.348211 0.178607
0.246479 0.362966 0.164813
0.310094 0.377218 0.147662
0.363775 0.388388 0.141558
0.424659 0.390753 0.126116
0.451987 0.358816 0.100496
0.478614 0.339284 0.0826123
0.52491 0.338735 0.0692454
0.57113 0.342351 0.0583658
0.611841 0.349584 0.051545
0.648096 0.359533 0.0472114
0.679973 0.370703 0.044358
0.709621 0.382834 0.042771
0.736095 0.393378 0.0414893
0.75993 0.40148 0.0407111
0.780804 0.406546 0.0400244
0.7991 0.408957 0.0391089
0.815732 0.409735 0.0380407
0.831235 0.409552 0.0369268
0.84567 0.410452 0.0365454
0.86041 0.412436 0.0365759
0.871031 0.41323 0.0363622
0.878721 0.413657 0.0362249
0.88426 0.407187 0.0342412
0.886366 0.402823 0.0331884
0.886442 0.403143 0.0333257
0.886564 0.403738 0.0335699
0.0246433 0.339544 0.185
0.0384222 0.336522 0.185153
0.0558785 0.336645 0.188144
0.0692912 0.33904 0.187869
0.0857404 0.345357 0.188937
0.115236 0.356146 0.191379
0.16466 0.370367 0.190723
0.230015 0.385367 0.182483
0.300771 0.400473 0.163165
0.356344 0.414633 0.156588
0.412879 0.424521 0.148425
0.464927 0.419867 0.13164
0.489372 0.387671 0.105852
0.519509 0.36849 0.0860609
0.566522 0.368719 0.0726024
0.609415 0.372671 0.0628061
0.647501 0.378973 0.0558633
0.680766 0.387762 0.0514534
0.710796 0.398474 0.0490425
0.738674 0.410513 0.0479896
0.762707 0.422232 0.0483101
0.784161 0.432486 0.0492561
0.803311 0.439292 0.0495766
0.820661 0.443442 0.0493172
0.83682 0.445426 0.0483711
0.851652 0.447944 0.0484779
0.865797 0.449866 0.0483253
0.875608 0.450858 0.0480659
0.883452 0.451423 0.0476387
0.889128 0.44387 0.0444343
0.890852 0.439246 0.0428779
0.891005 0.439933 0.043183
0.891142 0.440558 0.043473
0.029572 0.366644 0.194797
0.0438392 0.363119 0.194766
0.0615091 0.363302 0.197665
0.0745861 0.365255 0.196643
0.0878767 0.370214 0.196185
0.11194 0.379904 0.19939
0.155077 0.393927 0.201541
0.217853 0.409857 0.198352
0.28777 0.425483 0.183139
0.349111 0.440528 0.17145
0.406287 0.456321 0.168963
0.461982 0.465064 0.160266
0.506691 0.453025 0.140078
0.530877 0.416281 0.109071
0.563119 0.398047 0.0885786
0.607202 0.398993 0.0762951
0.647028 0.40267 0.0670176
0.6813 0.408682 0.0608225
0.712947 0.417746 0.0573129
0.741634 0.42887 0.0559091
0.766415 0.44123 0.0567483
0.788754 0.4542 0.0590219
0.80885 0.465156 0.0608835
0.826993 0.474311 0.0628367
0.843229 0.480125 0.0636149
0.858381 0.484276 0.063859
0.872312 0.487282 0.0638895
0.881849 0.490196 0.0644083
0.889677 0.491356 0.0642252
0.895018 0.485161 0.0608835
0.896254 0.481056 0.0589761
0.896391 0.481743 0.0593271
0.896544 0.482551 0.0597696
0.0358282 0.396414 0.206195
0.0504005 0.392477 0.206165
0.0687114 0.392432 0.208377
0.0817426 0.394522 0.207233
0.0939193 0.398444 0.206043
0.111604 0.406363 0.209461
0.147539 0.420233 0.214206
0.20705 0.436011 0.213794
0.277592 0.452338 0.203494
0.342901 0.467674 0.188098
0.401556 0.483391 0.184466
0.457069 0.497459 0.180957
0.510781 0.504921 0.171618
0.549615 0.483619 0.145937
0.573327 0.446906 0.114519
0.605234 0.430488 0.0941482
0.647059 0.432258 0.0827802
0.683589 0.436133 0.074403
0.716609 0.443061 0.0695354
0.745602 0.452491 0.0675669
0.771054 0.463172 0.0677348
0.793896 0.474998 0.0694438
0.814557 0.486549 0.0715953
0.832837 0.497826 0.0747539
0.84947 0.507469 0.0773175
0.864622 0.514763 0.079057
0.87837 0.520378 0.0803235
0.887526 0.525231 0.0819867
0.895521 0.529427 0.0833753
0.901061 0.523384 0.0791333
0.902098 0.52047 0.0774395
0.902281 0.521218 0.0778973
0.902464 0.521996 0.0783856
0.0424659 0.425589 0.21767
0.0575875 0.422354 0.218082
0.0761425 0.421469 0.21944
0.089128 0.423163 0.217426
0.101152 0.427268 0.216785
0.11783 0.434791 0.22034
0.145922 0.44715 0.2262
0.19736 0.462593 0.228199
0.270863 0.479698 0.221225
0.339849 0.495262 0.204623
0.400656 0.511131 0.199252
0.455543 0.526329 0.197238
0.506233 0.538048 0.192966
0.560876 0.541024 0.178897
0.591928 0.511666 0.150607
0.615869 0.479912 0.122133
0.64715 0.466331 0.103487
0.685954 0.469093 0.0933852
0.720287 0.473625 0.0864424
0.750027 0.480034 0.082475
0.776059 0.488045 0.0810407
0.799603 0.498009 0.081651
0.819959 0.508263 0.0835889
0.838468 0.518791 0.0863966
0.854932 0.528176 0.0887465
0.870268 0.537285 0.091371
0.883803 0.546258 0.0946365
0.892958 0.553811 0.0975509
0.900954 0.559426 0.0995651
0.90634 0.556115 0.0964218
0.907027 0.555184 0.0957809
0.907179 0.555901 0.0962539
0.907408 0.556863 0.0968948
0.0495308 0.453742 0.228077
0.0656443 0.451774 0.229587
0.0842145 0.451057 0.230732
0.097322 0.452613 0.228351
0.109255 0.456626 0.227817
0.125734 0.464576 0.231632
0.149828 0.475181 0.23714
0.198535 0.490867 0.240742
0.269596 0.50811 0.236545
0.338354 0.52343 0.2215
0.402289 0.539635 0.213581
0.457374 0.554482 0.211444
0.50692 0.568841 0.210285
0.559518 0.578073 0.201892
0.610636 0.575875 0.186038
0.634501 0.54165 0.15671
0.657237 0.513664 0.131395
0.687419 0.503883 0.115373
0.723278 0.507362 0.107088
0.754574 0.511482 0.100999
0.781567 0.516991 0.0977646
0.805112 0.523812 0.0964675
0.82565 0.532036 0.0972915
0.844007 0.540505 0.0987716
0.860441 0.549355 0.101167
0.876219 0.558526 0.104021
0.889036 0.567132 0.106813
0.897719 0.576242 0.110719
0.905989 0.583886 0.113695
0.911482 0.583261 0.11165
0.911849 0.583535 0.111803
0.912047 0.584298 0.112367
0.912261 0.585061 0.112932
0.0568551 0.481209 0.237675
0.0732128 0.480415 0.240116
0.0923018 0.480583 0.241947
0.105959 0.482063 0.239902
0.117968 0.485954 0.238758
0.132448 0.492592 0.241413
0.157763 0.503975 0.247257
0.203754 0.519921 0.252018
0.272755 0.536904 0.249378
0.341421 0.552453 0.236912
0.405936 0.568414 0.227604
0.462364 0.583886 0.225834
0.510887 0.59826 0.225193
0.562417 0.611673 0.221668
0.617227 0.620676 0.212177
0.654414 0.606424 0.192706
0.675578 0.572824 0.164675
0.697414 0.549508 0.142748
0.726284 0.542336 0.12932
0.759533 0.544411 0.120897
0.786816 0.547189 0.115755
0.810971 0.551965 0.112886
0.831357 0.557488 0.11194
0.8495 0.56466 0.113191
0.866484 0.571756 0.114534
0.882338 0.579644 0.116564
0.894041 0.588037 0.119677
0.902571 0.596445 0.123033
0.910369 0.60441 0.126497
0.915831 0.605859 0.125597
0.91603 0.606577 0.126162
0.916197 0.607156 0.126619
0.916365 0.607797 0.127108
0.063508 0.506813 0.245472
0.0790875 0.507622 0.24976
0.10016 0.508934 0.252415
0.114031 0.509819 0.249622
0.125963 0.513436 0.247974
0.141878 0.520729 0.251057
0.166461 0.532769 0.257557
0.209934 0.548165 0.262287
0.280476 0.565927 0.260441
0.347692 0.581674 0.250904
0.413138 0.598062 0.241764
0.469047 0.613169 0.239994
0.516762 0.62649 0.238651
0.568276 0.642039 0.237232
0.616205 0.650507 0.229862
0.66743 0.657069 0.219913
0.6916 0.631098 0.197818
0.714595 0.604395 0.173983
0.733883 0.582345 0.153872
0.762768 0.57702 0.141665
0.791318 0.578317 0.134874
0.815976 0.580316 0.129885
0.836484 0.583688 0.127703
0.855085 0.588724 0.127443
0.871885 0.594675 0.128313
0.88748 0.601114 0.129503
0.898497 0.608698 0.132555
0.906676 0.616327 0.135882
0.914412 0.623667 0.138979
0.9196 0.625711 0.138506
0.919722 0.626245 0.138933
0.91986 0.62678 0.139345
0.920012 0.627359 0.139803
0.0700236 0.531533 0.252598
0.0856489 0.533303 0.258091
0.107042 0.535317 0.261524
0.122362 0.537438 0.259388
0.134752 0.541482 0.258106
0.150027 0.548516 0.260746
0.17438 0.559945 0.266697
0.221241 0.576745 0.271809
0.288334 0.594644 0.271168
0.356664 0.610224 0.262791
0.421012 0.625666 0.25362
0.47538 0.639887 0.251759
0.523293 0.653483 0.250843
0.573114 0.667918 0.249302
0.621454 0.680079 0.245441
0.667308 0.686275 0.236545
0.710399 0.684382 0.22388
0.729305 0.656855 0.202487
0.749706 0.632639 0.182193
0.768429 0.613809 0.164813
0.793988 0.610071 0.155901
0.819547 0.610498 0.149569
0.840848 0.611917 0.145556
0.859709 0.614343 0.14316
0.876646 0.618204 0.142657
0.892058 0.622858 0.143038
0.902449 0.629114 0.145357
0.910323 0.635554 0.14789
0.917372 0.641459 0.150027
0.921889 0.64332 0.149783
0.921996 0.643778 0.150164
0.922103 0.644205 0.1505
0.92221 0.644709 0.150896
0.0763256 0.554971 0.25919
0.090959 0.557824 0.265736
0.114275 0.560891 0.270024
0.130419 0.564065 0.270191
0.142702 0.567361 0.267231
0.159106 0.574548 0.269261
0.185855 0.58735 0.275608
0.231266 0.603235 0.279973
0.29865 0.620356 0.278172
0.365209 0.635752 0.271489
0.428107 0.650965 0.264332
0.480766 0.66453 0.262638
0.527565 0.677455 0.261646
0.578607 0.69163 0.259419
0.626108 0.70457 0.257053
0.665751 0.708812 0.248447
0.712749 0.714778 0.239567
0.740871 0.70103 0.224811
0.762173 0.678584 0.206744
0.780285 0.657099 0.189364
0.797772 0.641642 0.175753
0.822049 0.637858 0.166842
0.8439 0.637461 0.161135
0.862959 0.638483 0.157885
0.880232 0.641154 0.156695
0.895628 0.644251 0.155901
0.905608 0.648768 0.157
0.913008 0.653407 0.158434
0.91989 0.658808 0.160555
0.924117 0.660655 0.160693
0.924208 0.661021 0.160967
0.9243 0.661418 0.161273
0.924437 0.661967 0.161715
0.0825055 0.577478 0.265507
0.0964981 0.580636 0.271794
0.121096 0.58529 0.277989
0.137881 0.588235 0.277394
0.150805 0.592035 0.275181
0.166827 0.598688 0.276692
0.193347 0.611017 0.28249
0.242023 0.62742 0.286137
0.309117 0.644862 0.284413
0.373526 0.659113 0.278355
0.433158 0.673259 0.273381
0.48455 0.685893 0.271504
0.53196 0.698161 0.269749
0.580575 0.710918 0.267231
0.627741 0.723812 0.26508
0.666316 0.730419 0.259464
0.708904 0.734997 0.250309
0.748653 0.735348 0.239704
0.769238 0.715892 0.225116
0.790311 0.696773 0.210025
0.806165 0.677516 0.195102
0.823697 0.664317 0.182635
0.845457 0.661677 0.175753
0.865568 0.661631 0.171511
0.883116 0.662943 0.169314
0.898283 0.665156 0.168292
0.90782 0.667948 0.168383
0.915022 0.671504 0.169207
0.921889 0.675853 0.170581
0.925826 0.677607 0.170855
0.925902 0.678035 0.171176
0.925948 0.678264 0.171359
0.925994 0.678523 0.171557
0.0881971 0.598856 0.271885
0.102449 0.60238 0.277287
0.127901 0.606973 0.283482
0.144488 0.610376 0.283635
0.157549 0.614099 0.28127
0.175265 0.622049 0.283238
0.203555 0.634134 0.288334
0.252323 0.65008 0.291157
0.316045 0.665797 0.288563
0.378042 0.679438 0.283513
0.436118 0.693095 0.280888
0.485054 0.70425 0.27863
0.530343 0.715251 0.2766
0.579141 0.72781 0.274159
0.625834 0.73994 0.27155
0.666178 0.749676 0.268574
0.70161 0.752499 0.260319
0.743877 0.757382 0.251606
0.775448 0.750744 0.240284
0.794354 0.730907 0.226413
0.814084 0.713191 0.212818
0.829572 0.696529 0.200122
0.845899 0.686 0.19028
0.867079 0.683787 0.184085
0.884993 0.684016 0.18117
0.900313 0.68484 0.179232
0.909804 0.686213 0.178424
0.917144 0.688869 0.178668
0.923552 0.691722 0.179263
0.927092 0.693492 0.179736
0.927138 0.693706 0.179904
0.927169 0.693828 0.179995
0.927199 0.693965 0.180102
0.0929274 0.618372 0.277455
0.108156 0.621729 0.281086
0.133501 0.626932 0.288075
0.150347 0.630274 0.288136
0.164828 0.635019 0.28658
0.18172 0.642008 0.287953
0.210376 0.65388 0.292561
0.260914 0.66952 0.294575
0.323308 0.684596 0.291554
0.381292 0.69723 0.288502
0.435416 0.709178 0.286702
0.482963 0.719844 0.284642
0.527138 0.73022 0.282582
0.574655 0.742092 0.280079
0.620768 0.75407 0.277684
0.661845 0.765026 0.275944
0.695735 0.768994 0.26952
0.732937 0.773297 0.262089
0.77435 0.775967 0.251911
0.797543 0.762371 0.240146
0.817639 0.743801 0.226841
0.836774 0.727901 0.214542
0.850446 0.713573 0.204273
0.866514 0.704387 0.195697
0.884886 0.7028 0.19147
0.900999 0.703151 0.189212
0.911254 0.703883 0.1879
0.91841 0.705089 0.187091
0.924956 0.707454 0.187503
0.928435 0.708507 0.187686
0.928435 0.708507 0.187686
0.92845 0.708553 0.187716
0.92845 0.708583 0.187732
0.0976425 0.637064 0.283314
0.112963 0.639948 0.285191
0.139345 0.645304 0.291951
0.155871 0.648646 0.291539
0.169497 0.652979 0.289403
0.188632 0.660868 0.291295
0.218585 0.672541 0.295796
0.269154 0.687541 0.297414
0.328756 0.701701 0.295476
0.383551 0.71371 0.29398
0.435431 0.725155 0.292775
0.4795 0.734462 0.2907
0.521584 0.743542 0.288212
0.568536 0.754818 0.285512
0.612879 0.766079 0.283207
0.653254 0.776761 0.281254
0.691173 0.785901 0.278706
0.721401 0.786267 0.269978
0.762081 0.790951 0.261555
0.799741 0.791608 0.252262
