src/assets/luts/Alen Palander - Vancouver.cube
TITLE "Generated by Resolve"
LUT_3D_SIZE 5
0.00172427 0.00276188 0.00207523
0.183276 0.0100252 0.00207523
0.416342 0.0276493 0
0.649744 0.0369879 0
0.829908 0.0404517 0.00518807
0.00450141 0.181537 0.013138
0.190539 0.191562 0
0.456092 0.217502 0.00794995
0.692607 0.228901 0
0.872435 0.23859 0.000350958
0 0.392477 0.0366522
0.175662 0.427756 0.0221256
0.511757 0.479606 0
0.757946 0.496208 0
0.937087 0.512444 0.00898756
0 0.601343 0.0570382
0.179477 0.655619 0.0366522
0.548745 0.728557 0.00518807
0.804273 0.755871 0.0248875
0.978561 0.761059 0.0255894
0 0.802609 0.0705272
0.247913 0.858946 0.000350958
0.566369 0.908385 0.000350958
0.813947 0.932937 0.0314641
0.989288 0.937423 0.0335393
0 0.0110628 0.179812
0.183612 0.00967422 0.188113
0.431205 0 0.185351
0.664958 0.0124514 0.190875
0.84651 0.00552377 0.196063
0.00794995 0.187076 0.189502
0.185 0.195026 0.195712
0.478569 0.205737 0.190188
0.730983 0.161501 0.161501
0.912886 0.189151 0.161501
0 0.404578 0.219226
0.165301 0.437079 0.223026
0.530419 0.493782 0.161501
0.788373 0.50518 0.161486
0.970275 0.520745 0.161486
0.0100252 0.613108 0.247227
0.161486 0.667369 0.251026
0.553933 0.74931 0.161501
0.824323 0.771084 0.161486
0.999649 0.776959 0.161501
0 0.822995 0.299092
0.161486 0.881422 0.302892
0.560494 0.936736 0.283528
0.834348 0.957824 0.271778
0.999649 0.959899 0.303578
0.00311284 0.0311131 0.380041
0.177401 0 0.414603
0.438117 0.0117494 0.432578
0.674983 0 0.440879
0.856535 0.00967422 0.449866
0 0.213687 0.407691
0.161486 0.217502 0.436393
0.482033 0.209552 0.479606
0.736858 0.161501 0.48307
0.917723 0.202991 0.492744
0.00830091 0.437781 0.456092
0.172213 0.468193 0.485832
0.520043 0.517968 0.521431
0.796674 0.526268 0.522469
0.97615 0.543908 0.530068
0 0.650095 0.491707
0.161486 0.699519 0.524193
0.529381 0.779721 0.543557
0.826749 0.801846 0.543206
0.999649 0.806348 0.552895
0 0.853773 0.535943
0.161486 0.903548 0.56672
0.539757 0.959548 0.58262
0.824674 0.980636 0.584009
0.999649 0.982712 0.591608
0 0.0487373 0.578531
0.161486 0.0138247 0.62797
0.443992 0.0110628 0.652171
0.683619 0.0138247 0.662181
0.86656 0.013138 0.672557
0 0.237888 0.613443
0.161486 0.243427 0.644221
0.483757 0.2009 0.724407
0.742046 0.161501 0.73167
0.924285 0.198138 0.742046
0.0110628 0.462318 0.669093
0.168414 0.491707 0.70782
0.508644 0.530068 0.78146
0.794598 0.538369 0.787686
0.975113 0.556344 0.79321
0.0145266 0.67602 0.706432
0.180514 0.721645 0.747921
0.504845 0.796674 0.806348
0.819486 0.819837 0.812909
0.998962 0.823972 0.814298
0 0.871046 0.737896
0.161486 0.91841 0.779721
0.52108 0.972 0.815686
0.817761 0.993774 0.821897
0.999649 0.996887 0.824323
0 0.0608377 0.759396
0.161486 0.0629129 0.787396
0.459556 0.000350958 0.853422
0.702983 0.0242008 0.859297
0.885573 0.0255894 0.871397
0 0.249653 0.794308
0.161486 0.257603 0.825757
0.487907 0.228901 0.913924
0.751385 0.213703 0.923949
0.932235 0.236164 0.931548
0 0.470619 0.843732
0.176013 0.497581 0.881422
0.505531 0.538033 0.96405
0.793561 0.544594 0.972351
0.975448 0.562219 0.977188
0 0.681193 0.87866
0.174624 0.726833 0.921874
0.494133 0.799084 0.986175
0.816373 0.822248 0.995499
0.997925 0.826749 0.996887
0 0.875196 0.907698
0.161486 0.920134 0.949187
0.510018 0.972686 0.989624
0.814298 0.99585 0.997925
0.999649 0.999649 0.999313
