src/assets/luts/Alen Palander - Austria.cube
TITLE "Generated by Resolve"
LUT_3D_SIZE 9
0.0246891 0.024918 0.0250858
0.0598917 0.0323033 0.0319219
0.126162 0.0301061 0.026566
0.196063 0.0130312 0.0153658
0.27097 0.00210575 0.00402838
0.354681 0.000183108 0.000656138
0.439979 0.000106813 0.000137331
0.528801 9.15541e-05 9.15541e-05
0.595956 7.62951e-05 7.62951e-05
0.0111849 0.0619364 0.0393378
0.0731518 0.074876 0.0391394
0.158724 0.0882887 0.0265507
0.248524 0.0894942 0.00924697
0.341115 0.0722972 0.00230411
0.438407 0.0391852 0.000335698
0.534722 0.016907 0.000137331
0.624964 0.0102693 0.000122072
0.687388 0.00700389 0.000106813
0.00154116 0.113603 0.0406958
0.077409 0.136019 0.0322118
0.190784 0.165438 0.0129549
0.299504 0.183139 0.00277714
0.40705 0.190005 0.000381476
0.516274 0.186389 0.00015259
0.62237 0.173236 0.00015259
0.717937 0.152972 0.000137331
0.780468 0.135927 0.000122072
0.000259403 0.162753 0.030518
0.068574 0.195895 0.0150454
0.210605 0.239628 0.00320439
0.334752 0.269474 0.00062562
0.453559 0.287175 0.000167849
0.572244 0.297673 0.00015259
0.684382 0.300923 0.00015259
0.784726 0.300496 0.00015259
0.848173 0.301869 0.000137331
0.000137331 0.214618 0.0128023
0.0535286 0.257954 0.00376898
0.221439 0.314015 0.00047303
0.361212 0.354269 0.000167849
0.491722 0.381796 0.00015259
0.616342 0.399298 0.00015259
0.736019 0.412482 0.00015259
0.839261 0.420417 0.00015259
0.9037 0.428214 0.000137331
0.000122072 0.271107 0.00317388
0.0317388 0.323323 0.000488289
0.226612 0.39144 0.00015259
0.383932 0.44097 0.00015259
0.522728 0.475181 0.00015259
0.657313 0.501488 0.00015259
0.77969 0.518914 0.00015259
0.887968 0.533211 0.00015259
0.952926 0.544076 0.00015259
0.000106813 0.329 0.000503548
0.0193179 0.390738 0.000137331
0.224491 0.469993 0.000137331
0.401251 0.527962 0.00015259
0.551171 0.569894 0.00015259
0.690257 0.600305 0.00015259
0.822171 0.625681 0.00015259
0.932021 0.642863 0.00015259
0.990768 0.655177 0.00015259
0.000106813 0.388922 0.000106813
0.0164645 0.45745 0.000122072
0.219532 0.545037 0.000137331
0.412497 0.610117 0.000137331
0.572076 0.65771 0.000137331
0.719326 0.694408 0.00015259
0.854658 0.72285 0.00015259
0.96791 0.744289 0.00015259
0.99971 0.755657 0.00015259
9.15541e-05 0.432212 0.000320439
0.0162814 0.507607 0.000106813
0.224338 0.598764 0.000122072
0.426322 0.665888 0.000137331
0.588907 0.715358 0.000137331
0.737499 0.753719 0.000137331
0.875059 0.784268 0.000137331
0.982574 0.806577 0.00015259
1 0.818219 0.000137331
0.00915541 0.0321813 0.0745251
0.059617 0.0356909 0.079881
0.130205 0.0357977 0.0832685
0.205921 0.0166171 0.0802319
0.285008 0.00251774 0.0715648
0.370047 0.000198367 0.0569619
0.456611 0.000106813 0.0423133
0.54255 9.15541e-05 0.0304723
0.608118 7.62951e-05 0.0238499
0.00270085 0.072694 0.0908827
0.0806897 0.0847334 0.0871138
0.163348 0.0998856 0.101732
0.26186 0.099443 0.0979019
0.359274 0.0811475 0.0869001
0.457496 0.0508431 0.070161
0.553414 0.0217899 0.0549935
0.640681 0.0136568 0.0421759
0.70074 0.0110323 0.0370336
0.000244144 0.127489 0.100557
0.0646982 0.149126 0.106279
0.193729 0.180941 0.106966
0.309926 0.200137 0.0929427
0.422736 0.206394 0.0764782
0.532876 0.203403 0.0572976
0.638254 0.190448 0.0378729
0.732876 0.173083 0.0252689
0.794568 0.163119 0.0213474
0.000167849 0.181827 0.103182
0.0379644 0.217182 0.106203
0.210346 0.262181 0.0938735
0.343984 0.292378 0.074342
0.467567 0.309239 0.0472267
0.586648 0.319234 0.0340581
0.698497 0.321813 0.0233005
0.798856 0.323659 0.0179294
0.861418 0.328191 0.0178531
0.000137331 0.23859 0.100359
0.0234226 0.284947 0.0967422
0.216342 0.343389 0.0744488
0.369574 0.383703 0.0460365
0.506142 0.410788 0.0301671
0.631418 0.427314 0.0197452
0.750454 0.439109 0.0136416
0.853544 0.448585 0.009308
0.91635 0.459373 0.0108949
0.000137331 0.299718 0.0910048
0.016022 0.356023 0.0791943
0.215579 0.426993 0.0485695
0.390494 0.4766 0.0292515
0.536324 0.51043 0.0172732
0.672587 0.536324 0.011017
0.793957 0.551614 0.00466926
0.901778 0.5673 0.00340276
0.96405 0.579629 0.00363165
0.000122072 0.361822 0.0735637
0.00999466 0.428107 0.0608225
0.206073 0.509926 0.0284428
0.404059 0.56791 0.0175174
0.56318 0.609705 0.00587472
0.70396 0.639292 0.00335698
0.835126 0.66305 0.00268559
0.943801 0.680369 0.00230411
0.995026 0.693935 0.00242618
0.000106813 0.423148 0.0593423
0.00610361 0.497124 0.047013
0.183536 0.58793 0.0218662
0.410712 0.653574 0.0148775
0.58088 0.700496 0.00479133
0.730724 0.736233 0.00244144
0.865293 0.763058 0.00238041
0.975326 0.783948 0.00241093
0.999954 0.795865 0.00259403
9.15541e-05 0.468803 0.0661784
0.00537118 0.549508 0.0611429
0.174487 0.643854 0.0305333
0.417304 0.711254 0.024094
0.591806 0.759731 0.0201114
0.74258 0.797009 0.0139315
0.879774 0.826444 0.00706493
0.985611 0.848386 0.00462348
1 0.859922 0.00624094
0.000503548 0.0365148 0.142977
0.0431983 0.0398108 0.155138
0.129412 0.0363928 0.165896
0.21091 0.01561 0.169909
0.293156 0.00265507 0.169406
0.379934 0.000213626 0.166323
0.46659 0.000106813 0.160967
0.551675 9.15541e-05 0.154116
0.615839 7.62951e-05 0.149538
0.000183108 0.0831311 0.17084
0.0445106 0.0974289 0.180941
0.161486 0.112428 0.197131
0.263752 0.110002 0.207706
0.365545 0.090959 0.208637
0.465934 0.062089 0.205966
0.562432 0.0264591 0.20058
0.64947 0.0167697 0.195102
0.709117 0.0143282 0.19443
0.000167849 0.146609 0.192645
0.0386206 0.170993 0.205966
0.204501 0.206226 0.207706
0.299351 0.229114 0.235294
0.427878 0.230167 0.233783
0.544213 0.227298 0.229908
0.64976 0.215473 0.22269
0.74226 0.200397 0.215091
0.802365 0.192386 0.214603
0.00015259 0.205951 0.204334
0.0167391 0.241886 0.222156
0.204837 0.2795 0.23772
0.332448 0.314305 0.251896
0.46598 0.336416 0.242481
0.593988 0.346654 0.232471
0.706798 0.349722 0.223056
0.805829 0.351995 0.214054
0.867323 0.357443 0.214511
0.000137331 0.266972 0.212207
0.00668345 0.31458 0.229465
0.184588 0.371817 0.241108
0.36025 0.411536 0.245075
0.504219 0.441154 0.236149
0.635767 0.458717 0.223926
0.755901 0.471015 0.209949
0.857908 0.479805 0.196078
0.919478 0.488945 0.197055
0.000137331 0.331014 0.218006
0.00437934 0.389166 0.233677
0.168399 0.460929 0.240391
0.375204 0.510735 0.236011
0.531823 0.544488 0.22356
0.673381 0.57026 0.207752
0.796033 0.585687 0.186267
0.903014 0.600351 0.171771
0.964462 0.611048 0.172457
0.000122072 0.396963 0.223102
0.00231937 0.465156 0.235416
0.145357 0.548104 0.235599
0.38146 0.606317 0.225025
0.554162 0.647944 0.200656
0.70042 0.676356 0.179507
0.832731 0.699092 0.166506
0.941924 0.715908 0.156207
0.994858 0.728634 0.158923
0.000106813 0.463096 0.230915
0.0015259 0.539147 0.240558
0.122408 0.630701 0.23624
0.378882 0.6963 0.221988
0.566064 0.742916 0.192523
0.721416 0.777676 0.168917
0.858198 0.803708 0.161089
0.971756 0.823819 0.157153
0.999954 0.835721 0.162371
9.15541e-05 0.510658 0.257313
0.00132753 0.593332 0.272663
0.111177 0.687587 0.271504
0.375769 0.754574 0.263676
0.569635 0.802365 0.247669
0.728389 0.838697 0.223072
0.868223 0.867323 0.198215
0.98088 0.888914 0.191516
1 0.900374 0.196002
0.00015259 0.0359808 0.205692
0.0237888 0.0371557 0.223423
0.123766 0.030808 0.241215
0.211154 0.0112917 0.250065
0.296254 0.00158694 0.253697
0.38439 0.000167849 0.254826
0.471427 0.000106813 0.254032
0.556664 9.15541e-05 0.253086
0.619974 7.62951e-05 0.254047
0.000167849 0.0910811 0.244923
0.0177005 0.103395 0.268254
0.150423 0.116365 0.290196
0.262943 0.115312 0.302632
0.368124 0.0966049 0.309331
0.470115 0.0687877 0.312078
0.566934 0.0303044 0.312139
0.654108 0.0185855 0.312566
0.712963 0.0162966 0.317128
0.00015259 0.160876 0.277104
0.0128481 0.186343 0.301961
0.186038 0.226505 0.307591
0.306188 0.251164 0.328969
0.426383 0.248127 0.346883
0.545724 0.242329 0.351537
0.652537 0.231556 0.352361
0.746136 0.218326 0.35314
0.805844 0.212757 0.359686
0.00015259 0.225666 0.297169
0.00546273 0.262364 0.323659
0.190295 0.306584 0.334783
0.344259 0.345281 0.347189
0.451438 0.367437 0.372488
0.590539 0.369726 0.37174
0.708568 0.370886 0.369985
0.808682 0.374716 0.370809
0.869032 0.380652 0.377966
0.000137331 0.290181 0.311879
0.00248722 0.337972 0.338567
0.151125 0.394919 0.359915
0.358816 0.427985 0.376745
0.487511 0.461769 0.39237
0.625986 0.483284 0.384298
0.754726 0.494362 0.376928
0.858198 0.504036 0.376196
0.919127 0.513283 0.382773
0.000137331 0.357122 0.325078
0.00144961 0.415229 0.351293
0.12134 0.486717 0.372488
0.355093 0.533562 0.382895
0.51931 0.565896 0.389425
0.663417 0.593576 0.386511
0.790707 0.609461 0.379065
0.900053 0.624689 0.377035
0.961654 0.635096 0.383139
0.000122072 0.424323 0.336889
0.00111391 0.492622 0.362417
0.101213 0.575708 0.382452
0.351415 0.632731 0.38941
0.538338 0.674205 0.390036
0.690288 0.702007 0.386175
0.824598 0.724056 0.381521
0.935882 0.740795 0.37821
0.99324 0.753246 0.384634
0.000106813 0.492317 0.353872
0.000671397 0.568948 0.379202
0.0720684 0.660456 0.398322
0.34023 0.724819 0.403891
0.546273 0.771084 0.401892
0.709453 0.805524 0.396887
0.848661 0.831006 0.391226
0.96492 0.850584 0.387671
0.999924 0.862104 0.395041
0.000106813 0.540856 0.388312
0.000457771 0.623331 0.417884
0.0453956 0.716762 0.437003
0.324025 0.782589 0.443702
0.544732 0.829648 0.444587
0.712169 0.865278 0.440757
0.854917 0.893431 0.43592
0.973556 0.914473 0.432944
1 0.925551 0.439628
0.00015259 0.0302434 0.26247
0.0130922 0.0296025 0.284566
0.114488 0.0218814 0.307515
0.208362 0.00773632 0.320287
0.296757 0.0009308 0.327535
0.385397 0.000122072 0.330953
0.473518 0.000106813 0.333104
0.558648 9.15541e-05 0.334142
0.62208 7.62951e-05 0.337346
0.00015259 0.096849 0.312856
0.00706493 0.108431 0.342077
0.134905 0.119936 0.371359
0.259434 0.118593 0.387396
0.369177 0.0996872 0.397543
0.471641 0.0746624 0.402289
0.570489 0.0413672 0.406332
0.656611 0.020325 0.408453
0.715419 0.0178836 0.414221
0.00015259 0.172534 0.353597
0.00332647 0.198062 0.386069
0.139666 0.231479 0.414557
0.300008 0.252811 0.431159
0.426871 0.258274 0.445762
0.544015 0.254383 0.452689
0.653361 0.244724 0.457771
0.747158 0.232563 0.461158
0.807263 0.228595 0.469047
0.00015259 0.241062 0.379095
0.002121 0.278202 0.412802
0.138277 0.325582 0.439979
0.338537 0.366598 0.444114
0.460441 0.392142 0.466484
0.58674 0.390143 0.480613
0.708232 0.388037 0.484581
0.808392 0.392584 0.488182
0.869337 0.39968 0.496849
0.000137331 0.309209 0.400046
0.00135805 0.357763 0.434211
0.117159 0.417029 0.464225
0.354162 0.456001 0.473335
0.493233 0.493065 0.495369
0.609552 0.513741 0.510719
0.75079 0.517052 0.505547
0.856611 0.525063 0.506523
0.917906 0.534813 0.514458
0.000137331 0.377783 0.417517
0.000823987 0.436255 0.451118
0.0886244 0.507774 0.481163
0.334585 0.55378 0.49688
0.517372 0.581918 0.516945
0.644053 0.61236 0.531624
0.781369 0.631891 0.519051
0.895811 0.645045 0.516396
0.958312 0.656321 0.523735
0.000122072 0.447395 0.43508
0.000350958 0.515557 0.467948
0.0552071 0.598184 0.4972
0.313115 0.654765 0.511894
0.524269 0.694545 0.522515
0.679011 0.720699 0.528344
0.815564 0.744823 0.529015
0.92958 0.761547 0.527398
0.990463 0.773693 0.533715
0.000106813 0.514534 0.453376
0.000167849 0.590814 0.486137
0.0317998 0.681605 0.515282
0.288792 0.745495 0.529686
0.524956 0.791409 0.537896
0.695155 0.824918 0.540459
0.838819 0.850721 0.542184
0.956725 0.870085 0.542718
0.999786 0.881315 0.549249
0.000106813 0.562661 0.489067
0.000167849 0.644602 0.525933
0.0209049 0.73727 0.55346
0.265751 0.802609 0.566339
0.522011 0.849073 0.575509
0.696849 0.883818 0.578027
0.843198 0.912016 0.580056
0.964965 0.932723 0.58143
1 0.94342 0.587411
0.00015259 0.0222477 0.318715
0.00717174 0.0194553 0.344015
0.102617 0.00999466 0.371313
0.205127 0.00370794 0.387976
0.295598 0.000534066 0.397116
0.386404 0.000106813 0.403555
0.474022 0.000106813 0.406607
0.559533 9.15541e-05 0.40943
0.622858 7.62951e-05 0.41355
0.00015259 0.100877 0.378958
0.00297551 0.111772 0.41236
0.114641 0.122301 0.446983
0.254215 0.12015 0.467521
0.367071 0.102327 0.479271
0.472938 0.0782025 0.487892
0.571069 0.0505684 0.49163
0.658228 0.0222324 0.496315
0.717159 0.0190738 0.501656
0.00015259 0.183291 0.427787
0.00151064 0.208865 0.46479
0.108446 0.241062 0.502174
0.287022 0.25977 0.524712
0.42121 0.267033 0.537987
0.542336 0.265934 0.548424
0.651225 0.258137 0.55317
0.747234 0.246509 0.55967
0.808026 0.243275 0.566445
0.00015259 0.25568 0.458122
0.00117494 0.293507 0.496895
0.0988937 0.340963 0.535363
0.306783 0.374075 0.554696
0.458183 0.395743 0.567727
0.588586 0.404883 0.581796
0.705165 0.404929 0.58732
0.807416 0.410651 0.594141
0.869017 0.417472 0.601694
0.000137331 0.325505 0.482094
0.000671397 0.374563 0.521538
0.0779889 0.434653 0.559838
0.314382 0.477119 0.577951
0.495308 0.514382 0.586084
0.617319 0.539483 0.605905
0.743755 0.537331 0.613611
0.85362 0.543297 0.617197
0.915877 0.553124 0.624887
0.000137331 0.396643 0.504631
0.000183108 0.455817 0.543725
0.0418402 0.528267 0.581521
0.30013 0.577234 0.602258
0.516411 0.608682 0.613474
0.64416 0.642084 0.640864
0.762631 0.659815 0.644724
0.89131 0.666087 0.636011
0.954681 0.67686 0.642588
0.000122072 0.466407 0.524346
0.000167849 0.53434 0.561929
0.0260166 0.616602 0.598352
0.275395 0.673136 0.61915
0.507851 0.710765 0.632929
0.673182 0.733425 0.652949
0.793896 0.759411 0.664881
0.921447 0.779095 0.649622
0.986496 0.791348 0.655207
0.000122072 0.53431 0.545174
0.000167849 0.609888 0.582193
0.0188754 0.699779 0.618341
0.252506 0.7635 0.638621
0.501991 0.808133 0.650401
0.68304 0.842008 0.659449
0.82652 0.866224 0.663432
0.948119 0.886259 0.666667
0.999512 0.897215 0.67248
0.000106813 0.580468 0.577829
0.000167849 0.661448 0.618509
0.0170748 0.753338 0.652277
0.243015 0.818509 0.670741
0.500008 0.864057 0.683345
0.684215 0.899092 0.691951
0.831327 0.926116 0.69572
0.95613 0.947158 0.700267
1 0.957702 0.706355
0.000137331 0.0161593 0.373526
0.0021973 0.0122683 0.402197
0.0834058 0.00541695 0.433814
0.200763 0.00209049 0.453407
0.295888 0.000381476 0.465644
0.387182 0.000106813 0.473045
0.476524 9.15541e-05 0.478721
0.561563 9.15541e-05 0.482429
0.624598 7.62951e-05 0.486595
0.00015259 0.104189 0.442557
0.00149538 0.114794 0.479912
0.0960555 0.124163 0.519295
0.247562 0.121004 0.543282
0.36701 0.104936 0.55874
0.473091 0.0826581 0.567575
0.574212 0.0572824 0.57554
0.660487 0.0241398 0.580224
0.720012 0.0206455 0.586038
0.00015259 0.1944 0.499382
0.00120546 0.220081 0.540505
0.0906539 0.252995 0.58352
0.275731 0.271901 0.609979
0.419715 0.280293 0.62771
0.541192 0.279744 0.638132
0.653971 0.27303 0.647532
0.74902 0.262196 0.653605
0.810819 0.261631 0.662089
0.00015259 0.270405 0.53492
0.000701915 0.30811 0.577554
0.0711223 0.356359 0.62182
0.284489 0.387228 0.648295
0.449973 0.406012 0.666285
0.584848 0.416724 0.677272
0.705119 0.4224 0.686961
0.806653 0.428153 0.693645
0.869459 0.436133 0.702052
0.000137331 0.342931 0.562829
0.000167849 0.392081 0.606256
0.0352789 0.452766 0.650477
0.274113 0.494255 0.677485
0.47335 0.524071 0.694377
0.618616 0.543221 0.704479
0.744656 0.555108 0.715923
0.851225 0.562646 0.721706
0.914488 0.572351 0.72874
0.000137331 0.41352 0.58613
0.000167849 0.472297 0.629648
0.0212558 0.544793 0.67332
0.259007 0.593973 0.699428
0.485878 0.629053 0.714717
0.650675 0.661189 0.724392
0.766613 0.682506 0.740215
0.885191 0.683162 0.742504
0.950881 0.693507 0.748867
0.000122072 0.484733 0.609308
0.000167849 0.553246 0.652735
0.0177462 0.635859 0.695201
0.244038 0.69221 0.720394
0.490303 0.732158 0.736934
0.671244 0.756359 0.748974
0.785977 0.783246 0.779339
0.909331 0.79968 0.767452
0.982086 0.809339 0.767544
0.000122072 0.551659 0.631235
0.000167849 0.626978 0.673472
0.0163424 0.716213 0.71516
0.229953 0.779293 0.739239
0.483497 0.824338 0.755718
0.667842 0.856214 0.76582
0.817029 0.879149 0.779095
0.935485 0.89987 0.784146
0.998505 0.911589 0.783688
0.000106813 0.595697 0.658305
0.000167849 0.676097 0.703395
0.0156252 0.767193 0.742962
0.224765 0.831815 0.765896
0.481895 0.877409 0.78262
0.669551 0.911345 0.79292
0.822339 0.938842 0.800931
0.947646 0.959243 0.805997
0.999985 0.969696 0.812085
0.000137331 0.00991836 0.431373
0.00114443 0.00491341 0.463539
0.0688487 0.00291447 0.499565
0.195193 0.00198367 0.522896
0.295644 0.000396735 0.537102
0.390082 0.000106813 0.547036
0.480476 9.15541e-05 0.554086
0.567239 7.62951e-05 0.560357
0.629374 6.10361e-05 0.56434
0.000137331 0.108141 0.508492
0.00114443 0.117891 0.549905
0.0811322 0.126864 0.593423
0.237339 0.125399 0.621317
0.363592 0.108843 0.638529
0.474327 0.0879377 0.650339
0.575616 0.0664683 0.658595
0.664973 0.0310826 0.665507
0.725567 0.0240787 0.671153
0.00015259 0.207568 0.572961
0.000762951 0.233722 0.618997
0.0653239 0.267933 0.667643
0.258976 0.288014 0.698497
0.414176 0.296559 0.718608
0.541665 0.296773 0.732082
0.654322 0.291188 0.741451
0.752422 0.281758 0.750271
0.815778 0.283085 0.75848
0.000137331 0.288441 0.614084
0.000198367 0.326757 0.662028
0.032105 0.375769 0.711513
0.257206 0.408164 0.742672
0.440726 0.427268 0.763714
0.583642 0.438941 0.778088
0.704082 0.444526 0.788006
0.808118 0.451484 0.797284
0.872129 0.460136 0.804623
0.000137331 0.362432 0.645014
0.000167849 0.411673 0.693355
0.0209659 0.472663 0.742962
0.240543 0.514778 0.774472
0.456153 0.54287 0.795621
0.610346 0.55964 0.809796
0.740169 0.57258 0.820264
0.848615 0.58352 0.828473
0.913573 0.593927 0.834455
0.000137331 0.433707 0.67068
0.000167849 0.492088 0.718517
0.0173495 0.564584 0.767452
0.231373 0.614038 0.798657
0.461219 0.647059 0.819226
0.631632 0.671962 0.833646
0.766339 0.687816 0.843412
0.880812 0.702144 0.851606
0.947265 0.713222 0.857282
0.000122072 0.502159 0.692836
0.000167849 0.569512 0.740108
0.0158999 0.651576 0.788327
0.220233 0.708217 0.818784
0.463859 0.748486 0.839841
0.64445 0.775845 0.853437
0.79118 0.799878 0.864149
0.905516 0.816388 0.87303
0.976104 0.825086 0.876493
0.000106813 0.567864 0.714656
0.000167849 0.642496 0.761334
0.0145266 0.731472 0.808301
0.206882 0.794476 0.837827
0.458152 0.83888 0.857694
0.651972 0.871611 0.871839
0.806622 0.89514 0.882673
0.918807 0.913512 0.903624
0.995483 0.925261 0.893248
0.000106813 0.609461 0.73434
0.000167849 0.68925 0.783001
0.0141451 0.779889 0.828428
0.204273 0.8439 0.85655
0.458518 0.889113 0.87599
0.654917 0.923323 0.889754
0.809277 0.950347 0.899016
0.937972 0.970733 0.906401
0.999481 0.980789 0.911574
0.000122072 0.00885023 0.481819
0.000961318 0.00352483 0.516808
0.0585184 0.00317388 0.556741
0.183948 0.002533 0.583658
0.291127 0.00102235 0.601694
0.388922 0.000183108 0.614374
0.482094 9.15541e-05 0.623957
0.571252 7.62951e-05 0.631922
0.636164 6.10361e-05 0.637797
0.000137331 0.117433 0.565988
0.000549325 0.127123 0.610132
0.0601816 0.139467 0.658579
0.218845 0.141253 0.690608
0.35642 0.126497 0.711498
0.471336 0.104982 0.726192
0.576974 0.0872663 0.737346
0.670695 0.0697642 0.746471
0.734981 0.0607462 0.753429
0.000137331 0.225467 0.635416
0.000198367 0.253193 0.684382
0.0248722 0.289647 0.736858
0.226001 0.311986 0.771649
0.400916 0.322683 0.795117
0.536233 0.324987 0.811734
0.654673 0.322164 0.824628
0.755673 0.317678 0.834836
0.822492 0.319387 0.843458
0.000137331 0.30779 0.678813
0.000167849 0.34699 0.728908
0.0165866 0.396933 0.78233
0.215579 0.431205 0.817075
0.420737 0.451148 0.841337
0.572259 0.464408 0.858579
0.698756 0.471427 0.871611
0.806653 0.478447 0.882521
0.874861 0.487037 0.890257
0.000137331 0.381537 0.710719
0.000167849 0.430137 0.761334
0.0159609 0.491753 0.814832
0.212512 0.534905 0.849836
0.432898 0.563378 0.873884
0.595483 0.581384 0.890944
0.730938 0.595529 0.904418
0.84416 0.606638 0.914351
0.91368 0.618433 0.920989
0.000122072 0.451713 0.73669
0.000167849 0.508659 0.787213
0.0149844 0.580987 0.840009
0.205142 0.631281 0.874647
0.435706 0.664652 0.898192
0.614206 0.689982 0.915496
0.754986 0.706218 0.928054
0.87425 0.721874 0.937957
0.945312 0.734417 0.943832
0.000122072 0.518853 0.759121
0.000167849 0.584482 0.809201
0.0135348 0.665095 0.860578
0.191409 0.721874 0.894392
0.434516 0.761532 0.917891
0.623529 0.789059 0.934401
0.775464 0.811444 0.947204
0.898512 0.827863 0.956588
0.971389 0.839872 0.961852
0.000106813 0.58088 0.778241
0.000167849 0.653422 0.82768
0.0119478 0.740734 0.877974
0.174838 0.803525 0.911116
0.425391 0.847654 0.933745
0.630091 0.880491 0.950362
0.788434 0.905165 0.962707
0.917998 0.924407 0.971771
0.991043 0.934798 0.97612
0.000106813 0.619776 0.79237
0.000167849 0.697368 0.842023
0.0117342 0.786282 0.890593
0.172457 0.850278 0.922759
0.425635 0.895354 0.944518
0.633539 0.929427 0.960342
0.793896 0.956573 0.972549
0.92668 0.977462 0.981369
0.992767 0.990417 0.989944
