src/assets/luts/Alen Palander - Vancouver.cube
TITLE "Generated by Resolve"
LUT_3D_SIZE 9
0.00172427 0.00276188 0.00207523
0.090074 0.00587472 0.00311284
0.183276 0.0100252 0.00207523
0.288563 0.0183261 0.0037995
0.416342 0.0276493 0
0.54168 0.0349126 0.00622568
0.649744 0.0369879 0
0.741207 0.0387121 0.00622568
0.829908 0.0404517 0.00518807
0.0037995 0.0911116 0.00830091
0.090425 0.0928359 0.00656138
0.188464 0.0969863 0
0.297902 0.105287 0.00415045
0.432929 0.117037 0.00450141
0.56347 0.125338 0
0.668757 0.127413 0
0.760922 0.130175 0
0.849622 0.132601 0
0.00450141 0.181537 0.013138
0.0879988 0.184649 0.0121004
0.190539 0.191562 0
0.31104 0.201251 0
0.456092 0.217502 0.00794995
0.584894 0.225788 0.0107118
0.692607 0.228901 0
0.784421 0.232364 0
0.872435 0.23859 0.000350958
0 0.279927 0.0217746
0.0807355 0.285801 0.0214389
0.185 0.300328 0
0.327977 0.317266 0.00207523
0.480995 0.335592 0.00898756
0.615656 0.344915 0.00483711
0.721996 0.351141 0.0107118
0.812772 0.355642 0.00967422
0.902159 0.363592 0
0 0.392477 0.0366522
0.0807355 0.403555 0.0376898
0.175662 0.427756 0.0221256
0.346654 0.455055 0
0.511757 0.479606 0
0.65127 0.492744 0
0.757946 0.496208 0
0.848722 0.502068 0.00726329
0.937087 0.512444 0.00898756
0.0100252 0.503655 0.0504768
0.0931868 0.520592 0.0522011
0.161501 0.551369 0.0325017
0.362554 0.589044 0
0.535607 0.618769 0
0.680644 0.636744 0
0.790097 0.643305 0
0.880186 0.64712 0
0.965423 0.652644 0.0172885
0 0.601343 0.0570382
0.0921492 0.622095 0.0584268
0.179477 0.655619 0.0366522
0.372229 0.693645 0
0.548745 0.728557 0.00518807
0.695171 0.748959 0.0169375
0.804273 0.755871 0.0248875
0.894362 0.758633 0.0283513
0.978561 0.761059 0.0255894
0 0.690394 0.0611887
0.0807355 0.72047 0.0584268
0.185702 0.752621 0.0114137
0.38088 0.785458 0
0.55462 0.818647 0
0.699321 0.838697 0.0193637
0.809796 0.847349 0.0273136
0.900236 0.850111 0.0304265
0.983749 0.851148 0.0325017
0 0.802609 0.0705272
0.103899 0.836484 0.0508125
0.247913 0.858946 0.000350958
0.409918 0.883848 0.00863661
0.566369 0.908385 0.000350958
0.703822 0.924987 0.0221256
0.813947 0.932937 0.0314641
0.905425 0.936049 0.0317998
0.989288 0.937423 0.0335393
0.00242618 0.00656138 0.0890364
0.0907607 0.00691234 0.0911116
0.185351 0.0100252 0.090425
0.29514 0.0148623 0.0807355
0.42153 0.0238499 0.0807355
0.548257 0.0321508 0.0886854
0.656657 0.0317998 0.0807355
0.749859 0.0335393 0.0807355
0.83682 0.0345769 0.0845502
0.00242618 0.0928359 0.0928359
0.0897231 0.0949111 0.0935378
0.1888 0.098024 0.0921492
0.305867 0.102174 0.0807355
0.441581 0.114626 0.0807355
0.570718 0.122911 0.0841993
0.677058 0.123613 0.0807355
0.768521 0.125338 0.0807355
0.857572 0.128099 0.0807355
0.00518807 0.183963 0.0983749
0.0869612 0.187076 0.098024
0.189837 0.19295 0.0942245
0.317266 0.201602 0.0807355
0.461982 0.215763 0.0890364
0.59527 0.223377 0.0807355
0.700557 0.226825 0.0807355
0.792721 0.230289 0.0807355
0.880735 0.236851 0.0810864
0.00242618 0.282689 0.107012
0.0807355 0.288228 0.107012
0.175662 0.304479 0.0845502
0.333516 0.321065 0.0807355
0.488945 0.337667 0.0807355
0.625681 0.347692 0.0807355
0.729946 0.351492 0.0911116
0.820722 0.356329 0.0890364
0.909422 0.366018 0.0931868
0 0.396979 0.122911
0.0807355 0.408743 0.123949
0.171176 0.431556 0.114275
0.346303 0.460243 0.0807355
0.516945 0.484443 0.0873121
0.658183 0.49723 0.0807355
0.766934 0.502419 0.0807355
0.857023 0.507256 0.090074
0.944686 0.517281 0.090425
0.00863661 0.508843 0.137087
0.0807355 0.526131 0.138476
0.176013 0.556207 0.127749
0.36083 0.594568 0.0807355
0.540795 0.625681 0.0807355
0.687221 0.642969 0.0893873
0.795972 0.648157 0.0807355
0.886748 0.652644 0.090425
0.972 0.658183 0.100786
0.0103761 0.604456 0.145388
0.0876631 0.626581 0.147112
0.161501 0.660121 0.129137
0.368093 0.699184 0.0921492
0.551507 0.73341 0.0807355
0.69897 0.752758 0.0994125
0.809796 0.760372 0.108049
0.900236 0.763134 0.107012
0.9841 0.76556 0.1084
0 0.694545 0.152651
0.0945754 0.723583 0.154726
0.161486 0.75642 0.13225
0.376043 0.793072 0.0917983
0.555657 0.824186 0.0807355
0.702785 0.843198 0.102525
0.815335 0.851835 0.110124
0.906111 0.854597 0.113588
0.989975 0.855985 0.115312
0.00450141 0.809873 0.179614
0.0938735 0.84271 0.17615
0.161501 0.875898 0.132937
0.393317 0.902159 0.0807355
0.570184 0.924987 0.0807355
0.716258 0.93846 0.0814374
0.829511 0.944335 0.0817731
0.918563 0.947112 0.0817731
0.998611 0.947448 0.153338
0 0.0110628 0.179812
0.0807355 0.00863661 0.186725
0.183612 0.00967422 0.188113
0.297215 0.00794995 0.186725
0.431205 0 0.185351
0.558618 0.00311284 0.188113
0.664958 0.0124514 0.190875
0.758495 0.0127871 0.193301
0.84651 0.00552377 0.196063
0.00450141 0.0966506 0.183612
0.0852369 0.0973373 0.188113
0.186725 0.0983749 0.191913
0.308278 0.101137 0.190875
0.455406 0.0807355 0.185351
0.588342 0.0807355 0.186725
0.692256 0.0807355 0.1888
0.783032 0.0807355 0.190188
0.872435 0.0807355 0.194339
0.00794995 0.187076 0.189502
0.0893873 0.189151 0.191562
0.185 0.195026 0.195712
0.320378 0.204013 0.19675
0.478569 0.205737 0.190188
0.620493 0.188113 0.161501
0.730983 0.161501 0.161501
0.823148 0.161501 0.161501
0.912886 0.189151 0.161501
0.00276188 0.287526 0.200565
0.0845502 0.293065 0.203326
0.161486 0.307591 0.204364
0.333165 0.325917 0.200565
0.504494 0.338018 0.187427
0.650919 0.33904 0.161501
0.760021 0.338354 0.161501
0.852186 0.343191 0.161501
0.941222 0.354955 0.161501
0 0.404578 0.219226
0.0807355 0.415656 0.22269
0.165301 0.437079 0.223026
0.340078 0.472694 0.191562
0.530419 0.493782 0.161501
0.67892 0.502068 0.161486
0.788373 0.50518 0.161486
0.879149 0.510719 0.161486
0.970275 0.520745 0.161486
0 0.517143 0.235477
0.0848859 0.53373 0.239963
0.161486 0.563119 0.239277
0.337667 0.610819 0.161501
0.545281 0.638483 0.161486
0.69897 0.652308 0.161486
0.810498 0.657832 0.161486
0.901625 0.660258 0.161486
0.988937 0.667521 0.161486
0.0100252 0.613108 0.247227
0.0807355 0.635233 0.252766
0.161486 0.667369 0.251026
0.331792 0.717494 0.161501
0.553933 0.74931 0.161501
0.71107 0.764858 0.161501
0.824323 0.771084 0.161486
0.915785 0.773846 0.161501
0.999649 0.776959 0.161501
0 0.705608 0.261753
0.0952621 0.734646 0.271077
0.185687 0.76437 0.271077
0.338018 0.812085 0.225101
0.55462 0.843198 0.194339
0.71902 0.860136 0.161501
0.836774 0.866697 0.161501
0.918898 0.867399 0.218189
0.999649 0.868086 0.243076
0 0.822995 0.299092
0.0928359 0.854109 0.307729
0.161486 0.881422 0.302892
0.370504 0.913573 0.289754
0.560494 0.936736 0.283528
0.71487 0.951263 0.277317
0.834348 0.957824 0.271778
0.918898 0.958511 0.289403
0.999649 0.959899 0.303578
0 0.0200504 0.277501
0.0807355 0.0200504 0.282002
0.180163 0 0.300328
0.296529 0 0.30309
0.434318 0 0.307576
0.562768 0.0100252 0.311727
0.67013 0.0110628 0.31519
0.760922 0.00587472 0.317266
0.851347 0.00450141 0.321416
0 0.105974 0.284413
0.0841993 0.106325 0.287877
0.18085 0.0938735 0.310353
0.308629 0.0959487 0.316579
0.458167 0.0807355 0.319341
0.58938 0.0807355 0.321416
0.697444 0.0807355 0.323842
0.788922 0.0807355 0.327291
0.880735 0.0807355 0.33109
0 0.197101 0.293751
0.0807355 0.199176 0.299626
0.161486 0.200214 0.322454
0.319692 0.207126 0.330404
0.480995 0.209552 0.333516
0.623606 0.195026 0.334203
0.734096 0.161501 0.33283
0.826261 0.161501 0.335592
0.914611 0.198138 0.342153
0.00276188 0.300328 0.31104
0.0807355 0.306203 0.317266
0.161486 0.31693 0.330755
0.328328 0.333867 0.344579
0.503105 0.344579 0.347005
0.652644 0.346303 0.346654
0.762783 0.342855 0.344228
0.855299 0.348379 0.349081
0.944686 0.362905 0.354253
0 0.418067 0.333516
0.0807355 0.430518 0.341817
0.161486 0.450568 0.353567
0.324529 0.485832 0.358404
0.526619 0.50518 0.357031
0.684794 0.514168 0.353918
0.797711 0.513481 0.351141
0.890211 0.519707 0.354253
0.977874 0.531456 0.358404
0 0.532006 0.352865
0.0807355 0.54963 0.362554
0.173938 0.576608 0.372229
0.291341 0.625681 0.363943
0.539757 0.654719 0.361868
0.707271 0.668208 0.354604
0.823972 0.67097 0.351141
0.916136 0.674434 0.351843
0.999649 0.681346 0.358755
0 0.630381 0.366705
0.0807355 0.651133 0.378454
0.161486 0.680858 0.389166
0.242252 0.732021 0.377417
0.542519 0.764523 0.373968
0.714183 0.782147 0.368093
0.83331 0.787335 0.362905
0.918898 0.789059 0.37258
0.999649 0.791135 0.386069
0 0.722896 0.383642
0.0807355 0.751232 0.399893
0.161486 0.779232 0.40853
0.242252 0.826947 0.403342
0.542519 0.857374 0.401968
0.711421 0.874311 0.396429
0.832959 0.881224 0.394354
0.918898 0.88191 0.404379
0.999649 0.882948 0.414069
0 0.837858 0.417868
0.0810864 0.867597 0.432731
0.170474 0.891447 0.439292
0.340429 0.924987 0.436881
0.551156 0.948837 0.438254
0.708995 0.962661 0.43653
0.82916 0.969238 0.434806
0.918898 0.971313 0.437919
0.999649 0.971313 0.450019
0.00311284 0.0311131 0.380041
0.0807355 0.0321508 0.385229
0.177401 0 0.414603
0.29929 0 0.424979
0.438117 0.0117494 0.432578
0.566232 0.013489 0.437766
0.674983 0 0.440879
0.766796 0.00830091 0.444343
0.856535 0.00967422 0.449866
0 0.119814 0.39144
0.0807355 0.121187 0.396979
0.178439 0.0807355 0.439857
0.311391 0.0807355 0.450568
0.461631 0.0807355 0.455756
0.595605 0.0807355 0.458167
0.700557 0.090425 0.459907
0.793759 0.0807355 0.463355
0.884535 0.0807355 0.470619
0 0.213687 0.407691
0.0807355 0.216464 0.414954
0.161486 0.217502 0.436393
0.31899 0.208164 0.471656
0.482033 0.209552 0.479606
0.626383 0.193988 0.482719
0.736858 0.161501 0.48307
0.829023 0.161501 0.485145
0.917723 0.202991 0.492744
0 0.31899 0.429129
0.0807355 0.323842 0.43743
0.161486 0.333867 0.458518
0.318654 0.342504 0.493431
0.504143 0.354253 0.502068
0.652644 0.353216 0.503456
0.764858 0.351843 0.503456
0.85771 0.357717 0.506569
0.945373 0.370169 0.512444
0.00830091 0.437781 0.456092
0.0807355 0.448844 0.467155
0.172213 0.468193 0.485832
0.280629 0.49897 0.514519
0.520043 0.517968 0.521431
0.682033 0.526619 0.522118
0.796674 0.526268 0.522469
0.889174 0.531106 0.523857
0.97615 0.543908 0.530068
0 0.552743 0.478218
0.0807355 0.568994 0.490669
0.161486 0.595605 0.50898
0.242252 0.639521 0.527657
0.530068 0.670283 0.533532
0.699321 0.682383 0.533532
0.819837 0.68687 0.533532
0.911986 0.689647 0.534218
0.997238 0.695521 0.538033
0 0.650095 0.491707
0.0807355 0.670832 0.506554
0.161486 0.699519 0.524193
0.242252 0.745846 0.541482
0.529381 0.779721 0.543557
0.706233 0.797009 0.545983
0.826749 0.801846 0.543206
0.918898 0.804623 0.545281
0.999649 0.806348 0.552895
0 0.741558 0.504829
0.0807355 0.769207 0.52488
0.161486 0.79617 0.542168
0.242252 0.838346 0.557046
0.528695 0.871199 0.561532
0.704158 0.887785 0.56257
0.827085 0.894697 0.560845
0.918898 0.896437 0.563958
0.999649 0.896437 0.573632
0 0.853773 0.535943
0.0807355 0.881422 0.554955
0.161486 0.903548 0.56672
0.290654 0.936736 0.578134
0.539757 0.959548 0.58262
0.70277 0.974075 0.583658
0.824674 0.980636 0.584009
0.918898 0.982712 0.584344
0.999649 0.982712 0.591608
0 0.0414893 0.482567
0.0807355 0.0428626 0.488792
0.161501 0.0228122 0.523018
0.300328 0 0.538918
0.440543 0.00863661 0.547219
0.57142 0.0103761 0.554482
0.67982 0.013489 0.557931
0.773007 0.0172885 0.56173
0.861723 0.0179751 0.567605
0 0.13225 0.498466
0.0807355 0.134676 0.503655
0.161501 0.132937 0.524742
0.311742 0.0807355 0.571756
0.463355 0.0807355 0.580056
0.598367 0.0807355 0.581094
0.705058 0.0917983 0.582467
0.797208 0.0931868 0.586969
0.889372 0.0807355 0.595605
0 0.228565 0.516106
0.0807355 0.23064 0.523354
0.161486 0.233402 0.544106
0.317617 0.207126 0.60148
0.484794 0.205051 0.612543
0.628794 0.184665 0.616358
0.739971 0.161501 0.617395
0.832471 0.161501 0.620157
0.921523 0.200214 0.62742
0 0.334203 0.540642
0.0807355 0.33904 0.550668
0.161486 0.348379 0.573144
0.308965 0.347692 0.628107
0.502419 0.357717 0.638819
0.653346 0.358404 0.642618
0.766583 0.35668 0.643656
0.859785 0.362905 0.646433
0.94815 0.37673 0.652308
0 0.453666 0.570031
0.0921492 0.464042 0.582132
0.161486 0.48307 0.605295
0.242252 0.506905 0.650919
0.51487 0.527306 0.664057
0.679622 0.534569 0.667857
0.795636 0.535256 0.668208
0.888487 0.540093 0.669932
0.97615 0.553582 0.674434
0.0127871 0.568643 0.593194
0.0807355 0.58558 0.608408
0.161486 0.61117 0.631556
0.242252 0.649195 0.663371
0.516243 0.679622 0.678569
0.695171 0.693782 0.68307
0.815686 0.696895 0.682383
0.909224 0.700008 0.683757
0.994476 0.705547 0.686183
0 0.665995 0.606332
0.0807355 0.687419 0.624308
0.161486 0.713695 0.645045
0.242252 0.754833 0.674769
0.516243 0.791485 0.689632
0.698283 0.807736 0.691707
0.822599 0.813611 0.692744
0.916823 0.815686 0.692058
0.999649 0.817761 0.695506
0 0.75642 0.616693
0.0807355 0.782345 0.638483
0.161486 0.807935 0.658534
0.242252 0.846647 0.686183
0.517281 0.881559 0.700359
0.697246 0.898161 0.70312
0.822599 0.905074 0.703471
0.918212 0.907149 0.704509
0.999649 0.9075 0.709346
0 0.864134 0.642618
0.0807355 0.891798 0.665446
0.161486 0.913222 0.681697
0.242252 0.944335 0.70312
0.53077 0.9682 0.710735
0.696208 0.982376 0.71281
0.820859 0.989288 0.714183
0.916823 0.991699 0.714885
0.999649 0.991363 0.721096
0 0.0487373 0.578531
0.0807355 0.0497749 0.585092
0.161486 0.0138247 0.62797
0.301015 0.00863661 0.640757
0.443992 0.0110628 0.652171
0.575906 0.0183261 0.658732
0.683619 0.0138247 0.662181
0.777859 0.00933852 0.666682
0.86656 0.013138 0.672557
0 0.140902 0.595468
0.0807355 0.143313 0.601343
0.161486 0.142275 0.622782
0.313466 0.0807355 0.680507
0.466117 0.0807355 0.689158
0.601144 0.0807355 0.690883
0.710246 0.102861 0.692958
0.803098 0.0969863 0.697108
0.892485 0.0807355 0.705394
0 0.237888 0.613443
0.0807355 0.241001 0.622782
0.161486 0.243427 0.644221
0.316228 0.203662 0.712306
0.483757 0.2009 0.724407
0.631556 0.161501 0.731334
0.742046 0.161501 0.73167
0.835584 0.161501 0.735821
0.924285 0.198138 0.742046
0 0.343542 0.638682
0.0807355 0.349416 0.651133
0.161486 0.35668 0.672557
0.296529 0.350805 0.740658
0.499306 0.360128 0.75346
0.653681 0.361166 0.75967
0.767971 0.358755 0.761059
0.860136 0.364279 0.763134
0.948837 0.379492 0.769009
0.0110628 0.462318 0.669093
0.0807355 0.473045 0.682933
0.168414 0.491707 0.70782
0.242252 0.512093 0.760372
0.508644 0.530068 0.78146
0.677195 0.539055 0.786984
0.794598 0.538369 0.787686
0.888136 0.543557 0.789746
0.975113 0.556344 0.79321
0.00450141 0.578332 0.694331
0.0807355 0.59527 0.711284
0.161486 0.61912 0.734783
0.257801 0.654383 0.772122
0.509331 0.686534 0.798749
0.690669 0.69897 0.803922
0.812909 0.702083 0.804623
0.907149 0.704845 0.805661
0.992737 0.712108 0.807736
0.0145266 0.67602 0.706432
0.090425 0.696071 0.725109
0.180514 0.721645 0.747921
0.242252 0.761059 0.782834
0.504845 0.796674 0.806348
0.693446 0.813947 0.811185
0.819486 0.819837 0.812909
0.914412 0.821897 0.813611
0.998962 0.823972 0.814298
0 0.76437 0.713695
0.0807355 0.790997 0.737896
0.161486 0.814847 0.758633
0.242252 0.852522 0.791135
0.506218 0.886412 0.811872
0.692744 0.903685 0.81706
0.819486 0.910948 0.818448
0.915785 0.913024 0.819135
0.999649 0.91371 0.820523
0 0.871046 0.737896
0.0893873 0.898009 0.761746
0.161486 0.91841 0.779721
0.242252 0.948837 0.806699
0.52108 0.972 0.815686
0.692409 0.986862 0.820172
0.817761 0.993774 0.821897
0.915099 0.996201 0.822599
0.999649 0.996887 0.824323
0 0.0528878 0.667231
0.0807355 0.0542763 0.674495
0.161486 0.0542763 0.690394
0.304128 0.0107118 0.735683
0.447105 0.0114137 0.746395
0.579705 0.0183261 0.752956
0.689494 0.0193637 0.758144
0.782696 0.0183261 0.761944
0.870008 0.0200504 0.767132
0 0.146777 0.683833
0.0807355 0.148852 0.692119
0.161486 0.150912 0.709758
0.314504 0.0807355 0.77612
0.470268 0.0807355 0.78822
0.607019 0.0807355 0.78996
0.715419 0.0990616 0.790646
0.807935 0.0928359 0.794797
0.900435 0.0807355 0.805508
0 0.242741 0.702495
0.0807355 0.245838 0.712169
0.161486 0.248615 0.734997
0.314504 0.206439 0.806897
0.485832 0.205737 0.821073
0.632258 0.180865 0.827634
0.745495 0.161501 0.83006
0.83801 0.161501 0.833173
0.926024 0.201251 0.838346
0 0.347692 0.728771
0.0807355 0.353567 0.739147
0.161486 0.361852 0.762295
0.293065 0.353216 0.835584
0.499306 0.362905 0.849409
0.653346 0.363592 0.855985
0.76762 0.360128 0.857374
0.86186 0.366354 0.860471
0.949874 0.381918 0.86566
0 0.466804 0.758495
0.0807355 0.477531 0.772671
0.161486 0.495171 0.798947
0.242252 0.515206 0.850462
0.507256 0.532845 0.877424
0.674769 0.539055 0.883299
0.793896 0.540444 0.885374
0.887449 0.544945 0.887098
0.974762 0.558083 0.890211
0 0.582467 0.783383
0.0807355 0.598718 0.80032
0.161486 0.622232 0.824186
0.242252 0.657145 0.864973
0.503105 0.68687 0.894362
0.688258 0.700359 0.901274
0.811536 0.703807 0.902647
0.906462 0.707271 0.903685
0.991699 0.712795 0.904723
0 0.679133 0.794095
0.0807355 0.699519 0.813809
0.161486 0.725109 0.83801
0.242237 0.762783 0.87361
0.498619 0.798749 0.901274
0.689982 0.815686 0.9075
0.817411 0.821561 0.909575
0.913375 0.824323 0.910262
0.998276 0.826398 0.910948
0 0.76817 0.801022
0.0807355 0.794095 0.825223
0.161486 0.818296 0.847684
0.242252 0.85391 0.879835
0.502419 0.888487 0.904387
0.689982 0.90576 0.910262
0.817761 0.912688 0.912337
0.914412 0.915099 0.913024
0.999649 0.916136 0.913375
0.0114137 0.873121 0.823835
0.0807355 0.899748 0.848371
0.167712 0.919799 0.866361
0.242252 0.949874 0.895399
0.516243 0.973037 0.906111
0.688258 0.988251 0.910948
0.816373 0.995499 0.913375
0.914061 0.997925 0.914061
0.999649 0.998962 0.91545
0 0.0608377 0.759396
0.0807355 0.0629129 0.768032
0.161486 0.0629129 0.787396
0.309667 0.000350958 0.842008
0.459556 0.000350958 0.853422
0.594919 0.0190127 0.857221
0.702983 0.0242008 0.859297
0.796872 0.0245518 0.864134
0.885573 0.0255894 0.871397
0 0.155413 0.776333
0.0807355 0.158175 0.786007
0.161486 0.160601 0.803647
0.317617 0.0807355 0.879347
0.478218 0.0807355 0.892485
0.62153 0.0807355 0.897322
0.730632 0.0807355 0.896284
0.824872 0.0807355 0.900786
0.915297 0.0807355 0.909773
0 0.249653 0.794308
0.0807355 0.25449 0.803296
0.161486 0.257603 0.825757
0.311391 0.227176 0.899748
0.487907 0.228901 0.913924
0.636744 0.220615 0.920485
0.751385 0.213703 0.923949
0.844572 0.217151 0.92636
0.932235 0.236164 0.931548
0 0.353902 0.815747
0.0807355 0.360128 0.82887
0.161486 0.36878 0.853086
0.278889 0.363943 0.924636
0.498619 0.374304 0.938811
0.655756 0.376379 0.945373
0.771771 0.375692 0.94815
0.864622 0.377768 0.949874
0.953323 0.394018 0.955062
0 0.470619 0.843732
0.0807355 0.481682 0.85861
0.176013 0.497581 0.881422
0.242252 0.520043 0.937438
0.505531 0.538033 0.96405
0.674083 0.544594 0.970611
0.793561 0.544594 0.972351
0.888487 0.549432 0.974075
0.975448 0.562219 0.977188
0.013138 0.583856 0.86656
0.0807355 0.601144 0.884535
0.161837 0.624643 0.909773
0.242588 0.656107 0.947448
0.497581 0.686534 0.97995
0.684794 0.700694 0.986862
0.810147 0.704509 0.988937
0.905425 0.707271 0.989975
0.991363 0.712795 0.991012
0 0.681193 0.87866
0.098024 0.702281 0.89836
0.174624 0.726833 0.921874
0.242237 0.763485 0.957473
0.494133 0.799084 0.986175
0.687907 0.815686 0.992737
0.816373 0.822248 0.995499
0.912337 0.824323 0.996201
0.997925 0.826749 0.996887
0.00726329 0.769909 0.884886
0.0810864 0.795834 0.909072
0.180163 0.819684 0.930861
0.242252 0.854261 0.963699
0.497932 0.888487 0.988251
0.686519 0.90576 0.994812
0.816022 0.913024 0.997238
0.914061 0.915785 0.998276
0.999313 0.916823 0.998611
0 0.875196 0.907698
0.0897231 0.900786 0.930861
0.161486 0.920134 0.949187
0.242252 0.949523 0.977874
0.510018 0.972686 0.989624
0.686183 0.988251 0.995163
0.814298 0.99585 0.997925
0.913375 0.998611 0.998611
0.999649 0.999649 0.999313
