src/assets/luts/Alen Palander - Austria.cube
TITLE "Generated by Resolve"
LUT_3D_SIZE 33
0.0246891 0.024918 0.0250858
0.0313573 0.0267643 0.0278477
0.0382086 0.0285191 0.0305333
0.0485389 0.0304723 0.0315709
0.0598917 0.0323033 0.0319219
0.0750744 0.0327153 0.0313115
0.0918441 0.0323949 0.0301366
0.108858 0.0313573 0.0283665
0.126162 0.0301061 0.026566
0.142992 0.0270237 0.0242771
0.159838 0.0234073 0.021912
0.177905 0.018265 0.0186618
0.196063 0.0130312 0.0153658
0.21384 0.00933852 0.0122072
0.231952 0.00604257 0.00923171
0.25156 0.00387579 0.00633249
0.27097 0.00210575 0.00402838
0.289876 0.0010071 0.00267033
0.31046 0.000457771 0.00170901
0.33228 0.000274662 0.00103761
0.354681 0.000183108 0.000656138
0.37705 0.000122072 0.000350958
0.397925 0.000122072 0.000289921
0.418891 0.000106813 0.000213626
0.439979 0.000106813 0.000137331
0.461585 0.000106813 0.000106813
0.483497 0.000106813 0.000106813
0.506386 9.15541e-05 9.15541e-05
0.528801 9.15541e-05 9.15541e-05
0.54847 9.15541e-05 9.15541e-05
0.566613 9.15541e-05 9.15541e-05
0.583917 7.62951e-05 7.62951e-05
0.595956 7.62951e-05 7.62951e-05
0.0226444 0.0319677 0.0290379
0.0312657 0.0339208 0.030869
0.0401923 0.0358892 0.0325933
0.0514839 0.0383154 0.0335546
0.0635233 0.0408484 0.0343175
0.0795605 0.0422217 0.0335393
0.0973373 0.043183 0.0321202
0.115434 0.0433204 0.0300908
0.133974 0.0431525 0.0276951
0.151873 0.041001 0.024979
0.169604 0.0383001 0.0221256
0.188968 0.0333104 0.0187076
0.208591 0.027985 0.0152132
0.227161 0.0227054 0.0121462
0.246326 0.0175326 0.00915541
0.267079 0.0127108 0.00630198
0.287587 0.00862135 0.00402838
0.307378 0.00550851 0.00262455
0.328573 0.00341802 0.00166323
0.350988 0.00199893 0.000961318
0.373617 0.00129702 0.000564584
0.396277 0.00077821 0.000259403
0.417762 0.000549325 0.000213626
0.439521 0.000396735 0.000167849
0.461357 0.00030518 0.000122072
0.48304 0.000274662 0.000106813
0.504982 0.000244144 0.000106813
0.52752 0.000213626 0.000106813
0.549355 0.000198367 0.000106813
0.569314 0.000183108 9.15541e-05
0.586694 0.000167849 9.15541e-05
0.603189 0.000167849 9.15541e-05
0.615 0.000167849 9.15541e-05
0.0204776 0.0392767 0.0331579
0.0311742 0.0413672 0.0339361
0.0421759 0.0434119 0.0346227
0.0544594 0.0464332 0.0355993
0.0671092 0.0496071 0.0365606
0.084123 0.052079 0.0357061
0.1028 0.0543984 0.0341192
0.122133 0.0556802 0.0315099
0.141894 0.0567636 0.0284886
0.160815 0.0558175 0.0252689
0.179568 0.0544137 0.0219272
0.200412 0.0507057 0.0182498
0.221454 0.0465858 0.0145724
0.241215 0.0402991 0.0115969
0.261585 0.0334783 0.00868238
0.283436 0.0256504 0.00598154
0.304952 0.0188449 0.00387579
0.325902 0.0132296 0.0024567
0.348058 0.00900282 0.00155642
0.370962 0.00534066 0.000869764
0.394476 0.00369268 0.000488289
0.417655 0.00234989 0.000198367
0.440269 0.00164797 0.000183108
0.462776 0.00115969 0.00015259
0.485496 0.000854505 0.000122072
0.507424 0.000717174 0.000122072
0.529274 0.00062562 0.000122072
0.552087 0.000579843 0.000106813
0.573602 0.000534066 0.000106813
0.594003 0.000488289 0.000106813
0.611063 0.000457771 0.000106813
0.626627 0.000427253 9.15541e-05
0.63798 0.000411994 9.15541e-05
0.016083 0.0500649 0.0363317
0.0281834 0.0525063 0.0367895
0.0408789 0.0548257 0.0370794
0.055314 0.0582589 0.0375372
0.0702678 0.061738 0.0379339
0.088777 0.0649424 0.036759
0.108751 0.0680858 0.0347753
0.129274 0.070222 0.0315862
0.150332 0.0720989 0.027863
0.17026 0.0723888 0.0237888
0.190417 0.0723583 0.0197452
0.212589 0.0700084 0.0159609
0.234775 0.0672465 0.0123598
0.25594 0.0622263 0.00972
0.277638 0.05626 0.00720226
0.300313 0.0481117 0.00502022
0.322927 0.0405432 0.00328069
0.344793 0.0333257 0.00209049
0.367941 0.0264134 0.00134279
0.391653 0.0197299 0.000747692
0.415915 0.0150759 0.000396735
0.440009 0.0110781 0.00015259
0.463172 0.00843824 0.00015259
0.486427 0.0062562 0.000137331
0.50988 0.00469978 0.000122072
0.532067 0.00369268 0.000122072
0.554147 0.00289921 0.000122072
0.576761 0.00236515 0.000122072
0.598444 0.00189212 0.000122072
0.618891 0.00146487 0.000106813
0.635493 0.00109865 0.000106813
0.650416 0.000808728 0.000106813
0.661524 0.000701915 0.000106813
0.0111849 0.0619364 0.0393378
0.0245212 0.064622 0.0395056
0.0387732 0.0674449 0.0395514
0.0555734 0.0710307 0.0394141
0.0731518 0.074876 0.0391394
0.0934005 0.0788128 0.0374609
0.114672 0.0826734 0.0351568
0.136538 0.0856641 0.0311589
0.158724 0.0882887 0.0265507
0.180194 0.0898909 0.0216068
0.201694 0.0911421 0.0166323
0.225132 0.0903639 0.0128023
0.248524 0.0894942 0.00924697
0.271199 0.0873426 0.00703441
0.294148 0.0840467 0.00502022
0.317845 0.0783703 0.0034638
0.341115 0.0722972 0.00230411
0.364157 0.0656138 0.00151064
0.388434 0.0572518 0.0010071
0.413016 0.048127 0.000595102
0.438407 0.0391852 0.000335698
0.463462 0.0315099 0.00015259
0.487358 0.025803 0.00015259
0.510964 0.0209354 0.000137331
0.534722 0.016907 0.000137331
0.557443 0.0145418 0.000137331
0.580072 0.0125429 0.000122072
0.603372 0.0113375 0.000122072
0.624964 0.0102693 0.000122072
0.645274 0.00935378 0.000122072
0.661906 0.00827039 0.000106813
0.676463 0.00737011 0.000106813
0.687388 0.00700389 0.000106813
0.00732433 0.0747387 0.0407111
0.0213016 0.0778515 0.0407568
0.0364233 0.0811322 0.0406806
0.0552377 0.0853895 0.0399023
0.0750744 0.0899367 0.0388342
0.0973678 0.0946975 0.0364538
0.120424 0.0994125 0.0336461
0.143938 0.10338 0.0290379
0.167529 0.10695 0.0239872
0.190311 0.109346 0.0190127
0.213001 0.111543 0.0139925
0.237705 0.112413 0.0103151
0.262226 0.112749 0.00695811
0.286 0.112444 0.005066
0.310033 0.111025 0.0034638
0.334783 0.107866 0.00228885
0.359152 0.103655 0.00149538
0.383169 0.0987259 0.000961318
0.408331 0.0911116 0.000671397
0.433799 0.0822766 0.000427253
0.460075 0.0725872 0.000259403
0.485664 0.0631418 0.000137331
0.510216 0.055024 0.000137331
0.534737 0.0478065 0.000137331
0.559152 0.0415503 0.000137331
0.582101 0.0364538 0.000137331
0.60557 0.032166 0.000137331
0.62916 0.0288396 0.000122072
0.651011 0.0258793 0.000122072
0.671565 0.0229496 0.000122072
0.687861 0.0200198 0.000122072
0.702205 0.0173953 0.000122072
0.713054 0.0158389 0.000106813
0.00386053 0.0880293 0.0414435
0.0181582 0.0916915 0.0413519
0.0339666 0.0954604 0.0412146
0.05449 0.100343 0.0397955
0.0766308 0.105638 0.0380255
0.100954 0.111391 0.0349126
0.126207 0.117205 0.031342
0.151232 0.121935 0.0263676
0.176287 0.126513 0.0208591
0.200305 0.129931 0.0161135
0.224338 0.133043 0.0114748
0.250156 0.135195 0.00813306
0.275807 0.13695 0.00512703
0.300526 0.137682 0.00357061
0.325734 0.137835 0.00227359
0.351598 0.136721 0.00140383
0.377081 0.13489 0.000808728
0.402167 0.132113 0.000442512
0.427848 0.127764 0.000320439
0.453742 0.122744 0.000244144
0.480415 0.116396 0.000183108
0.506401 0.10927 0.00015259
0.531853 0.101839 0.000137331
0.55726 0.0949416 0.000137331
0.58265 0.0888228 0.000137331
0.605859 0.0826276 0.000137331
0.629328 0.0766613 0.000137331
0.652995 0.0711833 0.000137331
0.67509 0.0658427 0.000122072
0.695933 0.0607004 0.000122072
0.712016 0.0554971 0.000122072
0.726223 0.0514992 0.000122072
0.736965 0.048661 0.000122072
0.00230411 0.100908 0.0412757
0.0155184 0.104967 0.0409247
0.0305486 0.109316 0.0402533
0.0525216 0.114916 0.0381323
0.0772869 0.120928 0.0353552
0.103441 0.127535 0.0315709
0.130343 0.13431 0.0272526
0.157 0.140261 0.0222782
0.183841 0.145998 0.0170291
0.208774 0.150072 0.0127413
0.233738 0.153948 0.00856031
0.261067 0.157275 0.00610361
0.287938 0.160128 0.00386053
0.313268 0.161639 0.00251774
0.339208 0.162814 0.00146487
0.366278 0.163424 0.000885023
0.392569 0.163088 0.000488289
0.418616 0.162158 0.000228885
0.44509 0.160052 0.000183108
0.471748 0.15758 0.000167849
0.498924 0.153735 0.00015259
0.525704 0.149172 0.00015259
0.551614 0.143481 0.00015259
0.577783 0.138201 0.00015259
0.603769 0.132815 0.000137331
0.627649 0.126909 0.000137331
0.651438 0.120607 0.000137331
0.675334 0.11426 0.000137331
0.697643 0.107698 0.000137331
0.718807 0.101091 0.000137331
0.735134 0.0950179 0.000122072
0.749279 0.0898299 0.000122072
0.76022 0.0859846 0.000122072
0.00154116 0.113603 0.0406958
0.0131533 0.118181 0.0399481
0.0267338 0.123018 0.0389105
0.0501106 0.129335 0.0359655
0.077409 0.136019 0.0322118
0.105364 0.143496 0.0276341
0.134081 0.151415 0.0225834
0.162325 0.158495 0.0177615
0.190784 0.165438 0.0129549
0.216861 0.170336 0.00915541
0.242557 0.174716 0.00552377
0.271183 0.179095 0.00411994
0.299504 0.183139 0.00277714
0.325429 0.185306 0.00161746
0.352255 0.187472 0.000808728
0.379858 0.189197 0.000579843
0.40705 0.190005 0.000381476
0.433707 0.190173 0.000198367
0.46096 0.189548 0.000167849
0.48835 0.188769 0.00015259
0.516274 0.186389 0.00015259
0.54345 0.183688 0.00015259
0.569757 0.180728 0.00015259
0.596002 0.176944 0.00015259
0.62237 0.173236 0.00015259
0.646937 0.168826 0.000137331
0.671366 0.164096 0.000137331
0.695521 0.158511 0.000137331
0.717937 0.152972 0.000137331
0.739193 0.147814 0.000137331
0.75552 0.143282 0.000137331
0.769482 0.139254 0.000122072
0.780468 0.135927 0.000122072
0.00106813 0.12575 0.0391241
0.0114137 0.130709 0.0379034
0.0238499 0.13611 0.0363928
0.0477455 0.142931 0.0327153
0.0766155 0.1505 0.0281224
0.106447 0.158953 0.0233005
0.136858 0.167742 0.0182956
0.166445 0.17557 0.0137789
0.195834 0.183139 0.00946059
0.223224 0.18909 0.00657664
0.250584 0.194827 0.00392157
0.279591 0.199496 0.00282292
0.308431 0.203952 0.00178531
0.335714 0.207279 0.00102235
0.363256 0.210254 0.000503548
0.391531 0.212543 0.000396735
0.419272 0.214176 0.000274662
0.446799 0.215396 0.000167849
0.474678 0.215946 0.00015259
0.502724 0.216236 0.00015259
0.531319 0.215259 0.00015259
0.559106 0.213947 0.00015259
0.585733 0.212482 0.00015259
0.612543 0.210636 0.00015259
0.639155 0.208286 0.00015259
0.664179 0.205478 0.00015259
0.689006 0.201953 0.000137331
0.713664 0.198093 0.000137331
0.736385 0.194385 0.000137331
0.757687 0.190509 0.000137331
0.774289 0.187991 0.000137331
0.78819 0.185428 0.000137331
0.799283 0.183169 0.000122072
0.000701915 0.137697 0.0372625
0.00976577 0.143145 0.0357214
0.0212253 0.149035 0.0336614
0.0453498 0.156497 0.0292668
0.0758831 0.165057 0.0238193
0.107301 0.174182 0.0187839
0.139452 0.183948 0.0139773
0.170169 0.192569 0.0099031
0.200595 0.200748 0.00604257
0.229404 0.207828 0.0041352
0.258259 0.214801 0.00257877
0.287556 0.219821 0.00163272
0.316945 0.224598 0.000793469
0.345434 0.228946 0.000488289
0.374075 0.232731 0.000289921
0.402853 0.235569 0.000228885
0.431083 0.237903 0.000198367
0.459266 0.240208 0.000167849
0.487724 0.241581 0.00015259
0.516442 0.242649 0.00015259
0.545357 0.242405 0.00015259
0.573663 0.242329 0.00015259
0.600931 0.242298 0.00015259
0.62797 0.241199 0.00015259
0.654688 0.239796 0.00015259
0.680095 0.238575 0.00015259
0.705333 0.236698 0.00015259
0.73019 0.233997 0.000137331
0.753124 0.231861 0.000137331
0.774441 0.229938 0.000137331
0.79115 0.228809 0.000137331
0.804944 0.227634 0.000137331
0.816297 0.227085 0.000137331
0.00047303 0.150195 0.0340581
0.00737011 0.156222 0.0318151
0.0162814 0.16289 0.0290227
0.040116 0.171191 0.0247196
0.072282 0.180453 0.0193484
0.106157 0.1906 0.0146944
0.140841 0.20116 0.0104372
0.17351 0.210803 0.00730907
0.205661 0.220188 0.00462348
0.235233 0.227802 0.00302129
0.264332 0.234913 0.00163272
0.295354 0.241215 0.00115969
0.325917 0.247059 0.000717174
0.354604 0.251682 0.000427253
0.383856 0.255879 0.000228885
0.413504 0.259571 0.000198367
0.442405 0.262501 0.000183108
0.471153 0.265232 0.000167849
0.500114 0.267308 0.00015259
0.52929 0.269093 0.00015259
0.558923 0.270161 0.00015259
0.587549 0.270634 0.00015259
0.615167 0.271046 0.00015259
0.642573 0.270939 0.00015259
0.669612 0.270451 0.00015259
0.695369 0.270085 0.00015259
0.720821 0.269123 0.00015259
0.746044 0.267689 0.00015259
0.769085 0.266636 0.000137331
0.790524 0.265797 0.000137331
0.807218 0.26566 0.000137331
0.821057 0.265461 0.000137331
0.832395 0.265705 0.000137331
0.000259403 0.162753 0.030518
0.00494392 0.169482 0.027863
0.0113832 0.176959 0.0243992
0.0348211 0.185885 0.0200046
0.068574 0.195895 0.0150454
0.104555 0.206836 0.0108339
0.141985 0.218448 0.00708019
0.176577 0.229084 0.00483711
0.210605 0.239628 0.00320439
0.240574 0.247456 0.00196841
0.27039 0.255085 0.000808728
0.302724 0.262455 0.000717174
0.334752 0.269474 0.00062562
0.363699 0.274205 0.000350958
0.393347 0.279026 0.000183108
0.423987 0.283497 0.000183108
0.453559 0.287175 0.000167849
0.482795 0.290257 0.000167849
0.512184 0.293111 0.00015259
0.542062 0.295689 0.00015259
0.572244 0.297673 0.00015259
0.601526 0.299046 0.00015259
0.629313 0.299855 0.00015259
0.657038 0.300511 0.00015259
0.684382 0.300923 0.00015259
0.710353 0.30132 0.00015259
0.736095 0.301228 0.00015259
0.761791 0.300801 0.00015259
0.784726 0.300496 0.00015259
0.806271 0.300374 0.000137331
0.823056 0.300893 0.000137331
0.836896 0.301396 0.000137331
0.848173 0.301869 0.000137331
0.000198367 0.175143 0.0262913
0.00419623 0.182116 0.0234531
0.00996414 0.190158 0.0197452
0.0323796 0.200046 0.0158541
0.0658274 0.211109 0.0118105
0.102663 0.222843 0.00830091
0.141787 0.23505 0.00509651
0.178042 0.246387 0.00317388
0.21326 0.257313 0.00190738
0.245014 0.266285 0.00114443
0.276081 0.2748 0.000503548
0.308614 0.282368 0.000427253
0.341009 0.289677 0.000366217
0.371695 0.295827 0.000244144
0.402411 0.301411 0.000167849
0.432959 0.305928 0.000167849
0.463233 0.31014 0.000167849
0.493324 0.314153 0.000167849
0.523247 0.317418 0.00015259
0.55314 0.320424 0.00015259
0.583856 0.32285 0.00015259
0.613565 0.32491 0.00015259
0.642039 0.326772 0.00015259
0.669993 0.327901 0.00015259
0.697704 0.328862 0.00015259
0.723568 0.329564 0.00015259
0.749783 0.330358 0.00015259
0.775769 0.330785 0.00015259
0.7991 0.331411 0.00015259
0.820584 0.331975 0.00015259
0.837537 0.332982 0.000137331
0.851316 0.333928 0.000137331
0.862608 0.334813 0.000137331
0.000137331 0.187686 0.0219272
0.00354009 0.195331 0.0189059
0.00856031 0.2038 0.0152895
0.0297093 0.21445 0.0118715
0.0624704 0.22652 0.00869764
0.100099 0.239033 0.0059205
0.141619 0.252232 0.00334173
0.179614 0.264134 0.00187686
0.215976 0.2757 0.000976577
0.249271 0.285512 0.000564584
0.281773 0.294911 0.000289921
0.314794 0.302968 0.000228885
0.347738 0.310719 0.000183108
0.37937 0.317662 0.000167849
0.410925 0.323964 0.000167849
0.442176 0.328939 0.000167849
0.47303 0.333791 0.000167849
0.503716 0.338369 0.000167849
0.533898 0.341985 0.00015259
0.564218 0.345357 0.00015259
0.595087 0.348394 0.00015259
0.625299 0.35111 0.00015259
0.654475 0.353582 0.00015259
0.682826 0.355398 0.00015259
0.71075 0.356802 0.00015259
0.736919 0.358068 0.00015259
0.763134 0.359442 0.00015259
0.789654 0.360754 0.00015259
0.813123 0.362036 0.00015259
0.834714 0.363165 0.00015259
0.851759 0.364767 0.000137331
0.865522 0.366171 0.000137331
0.876921 0.367453 0.000137331
0.000137331 0.201236 0.0170748
0.00283818 0.209354 0.0141299
0.00715648 0.218753 0.0109407
0.0261845 0.22977 0.00822461
0.0576486 0.24239 0.00590524
0.0960861 0.255787 0.00392157
0.140673 0.269886 0.00218204
0.181033 0.282826 0.00123598
0.219486 0.295232 0.000717174
0.253697 0.305577 0.000442512
0.286702 0.315312 0.000244144
0.320775 0.324208 0.000198367
0.355047 0.332982 0.000183108
0.38674 0.339971 0.000167849
0.418814 0.346716 0.000167849
0.451408 0.353002 0.000167849
0.482811 0.358206 0.000167849
0.513512 0.362951 0.00015259
0.543908 0.366918 0.00015259
0.574762 0.370764 0.00015259
0.606012 0.374121 0.00015259
0.636408 0.377401 0.00015259
0.666072 0.380423 0.00015259
0.695232 0.382925 0.00015259
0.723613 0.384894 0.00015259
0.74963 0.386297 0.00015259
0.775952 0.387854 0.00015259
0.802441 0.389563 0.00015259
0.826246 0.391379 0.00015259
0.848173 0.392981 0.00015259
0.865156 0.39469 0.00015259
0.87892 0.396292 0.000137331
0.890364 0.398032 0.000137331
0.000137331 0.214618 0.0128023
0.00238041 0.223194 0.00999466
0.00614939 0.233219 0.00743114
0.0233158 0.244739 0.00538643
0.0535286 0.257954 0.00376898
0.092195 0.272084 0.00242618
0.138979 0.28719 0.00129702
0.181369 0.300954 0.000717174
0.221439 0.314015 0.00047303
0.256962 0.325032 0.000320439
0.291066 0.335332 0.000198367
0.326146 0.344884 0.000183108
0.361212 0.354269 0.000167849
0.393561 0.361776 0.000167849
0.426215 0.369009 0.00015259
0.459571 0.375814 0.00015259
0.491722 0.381796 0.00015259
0.523384 0.387213 0.00015259
0.55407 0.391501 0.00015259
0.584833 0.395529 0.00015259
0.616342 0.399298 0.00015259
0.647227 0.403006 0.00015259
0.677348 0.406683 0.00015259
0.707012 0.409781 0.00015259
0.736019 0.412482 0.00015259
0.762387 0.414374 0.00015259
0.788724 0.416175 0.00015259
0.815137 0.418082 0.00015259
0.839261 0.420417 0.00015259
0.86154 0.422721 0.00015259
0.878538 0.42443 0.00015259
0.892195 0.426368 0.00015259
0.9037 0.428214 0.000137331
0.000137331 0.22771 0.00929274
0.002121 0.236744 0.00674449
0.0056611 0.247135 0.00483711
0.0214084 0.259327 0.00332647
0.0498665 0.273167 0.00228885
0.0884108 0.288151 0.00140383
0.136706 0.30396 0.000671397
0.180758 0.318563 0.000320439
0.222675 0.332311 0.000228885
0.259815 0.344045 0.000183108
0.295323 0.354925 0.000167849
0.33109 0.365118 0.00015259
0.366781 0.374975 0.00015259
0.400092 0.383261 0.00015259
0.433661 0.391211 0.00015259
0.466911 0.398077 0.00015259
0.500038 0.404761 0.00015259
0.532967 0.411276 0.00015259
0.563836 0.415732 0.00015259
0.594934 0.42005 0.00015259
0.626825 0.424338 0.00015259
0.657969 0.428443 0.00015259
0.688304 0.43241 0.00015259
0.718502 0.436179 0.00015259
0.748272 0.439597 0.00015259
0.774884 0.441962 0.00015259
0.801282 0.444038 0.00015259
0.827649 0.446097 0.00015259
0.852201 0.44918 0.00015259
0.874891 0.452018 0.00015259
0.891752 0.453834 0.00015259
0.905486 0.456016 0.00015259
0.917037 0.458228 0.00015259
0.000137331 0.241657 0.00671397
0.00157168 0.251179 0.004654
0.00424201 0.262119 0.00323491
0.0178225 0.274861 0.00213626
0.0443732 0.289464 0.00146487
0.0826886 0.30518 0.000900282
0.133898 0.321782 0.000442512
0.180789 0.33727 0.000213626
0.224475 0.351766 0.000183108
0.262974 0.364157 0.000167849
0.299794 0.37583 0.00015259
0.336309 0.386328 0.00015259
0.372747 0.396612 0.00015259
0.406729 0.405432 0.00015259
0.440543 0.413779 0.00015259
0.474311 0.420951 0.00015259
0.507774 0.428016 0.00015259
0.540917 0.434623 0.00015259
0.572946 0.440192 0.00015259
0.605173 0.445487 0.00015259
0.637034 0.449775 0.00015259
0.668421 0.454154 0.00015259
0.698619 0.458167 0.00015259
0.728939 0.462165 0.00015259
0.758938 0.465873 0.00015259
0.786343 0.468986 0.00015259
0.813367 0.471672 0.00015259
0.839673 0.473838 0.00015259
0.864134 0.476921 0.00015259
0.88687 0.479988 0.00015259
0.904143 0.482521 0.00015259
0.917647 0.484565 0.00015259
0.929137 0.486686 0.00015259
0.000122072 0.256245 0.00466926
0.0009308 0.266011 0.00320439
0.00241093 0.277623 0.00210575
0.0137331 0.290883 0.00128176
0.0384222 0.306432 0.000869764
0.0766155 0.322805 0.000549325
0.131228 0.340093 0.00030518
0.180819 0.356344 0.000183108
0.226307 0.371603 0.000167849
0.266148 0.384756 0.000167849
0.303838 0.396735 0.00015259
0.341268 0.407904 0.00015259
0.378775 0.418708 0.00015259
0.412879 0.427756 0.00015259
0.447288 0.436484 0.00015259
0.481529 0.44419 0.00015259
0.515236 0.451392 0.00015259
0.548516 0.458213 0.00015259
0.581827 0.464744 0.00015259
0.615152 0.471 0.00015259
0.647517 0.47567 0.00015259
0.678737 0.480003 0.00015259
0.708965 0.484047 0.00015259
0.739208 0.488106 0.00015259
0.76936 0.492149 0.00015259
0.797574 0.49601 0.00015259
0.825071 0.499199 0.00015259
0.851331 0.501396 0.00015259
0.875975 0.504784 0.00015259
0.898497 0.507927 0.00015259
0.915877 0.510643 0.00015259
0.929595 0.513054 0.00015259
0.940948 0.514961 0.00015259
0.000122072 0.271107 0.00317388
0.000656138 0.281086 0.00215152
0.00172427 0.293187 0.00132753
0.0107118 0.306996 0.000717174
0.0317388 0.323323 0.000488289
0.0684367 0.340368 0.00030518
0.126955 0.358541 0.000213626
0.17937 0.375494 0.000167849
0.226612 0.39144 0.00015259
0.267948 0.405173 0.00015259
0.306737 0.417777 0.00015259
0.34551 0.429587 0.00015259
0.383932 0.44097 0.00015259
0.418891 0.450416 0.00015259
0.453849 0.45948 0.00015259
0.488411 0.467491 0.00015259
0.522728 0.475181 0.00015259
0.556435 0.482414 0.00015259
0.589914 0.489082 0.00015259
0.623453 0.495537 0.00015259
0.657313 0.501488 0.00015259
0.689357 0.506539 0.00015259
0.719646 0.510781 0.00015259
0.749752 0.51487 0.00015259
0.77969 0.518914 0.00015259
0.808255 0.522988 0.00015259
0.836286 0.526696 0.00015259
0.863554 0.529931 0.00015259
0.887968 0.533211 0.00015259
0.910475 0.536568 0.00015259
0.928023 0.53959 0.00015259
0.941604 0.541924 0.00015259
0.952926 0.544076 0.00015259
0.000122072 0.286 0.0018616
0.000488289 0.296223 0.00123598
0.00125124 0.308797 0.000686656
0.00822461 0.32311 0.00030518
0.0260929 0.340154 0.000198367
0.0608682 0.357855 0.000137331
0.121965 0.376745 0.000137331
0.176989 0.394369 0.00015259
0.226612 0.411124 0.00015259
0.269642 0.425483 0.00015259
0.309972 0.438758 0.00015259
0.349325 0.450935 0.00015259
0.38883 0.462928 0.00015259
0.424628 0.472877 0.00015259
0.460288 0.482383 0.00015259
0.495308 0.490745 0.00015259
0.530037 0.498787 0.00015259
0.564202 0.506416 0.00015259
0.597696 0.513268 0.00015259
0.631312 0.519829 0.00015259
0.66627 0.526589 0.00015259
0.699123 0.53228 0.00015259
0.730083 0.537087 0.00015259
0.760388 0.541314 0.00015259
0.790249 0.545525 0.00015259
0.818708 0.54963 0.00015259
0.847089 0.553719 0.00015259
0.875196 0.557733 0.00015259
0.899702 0.561334 0.00015259
0.922057 0.56466 0.00015259
0.939529 0.567895 0.00015259
0.952941 0.570413 0.00015259
0.963989 0.572534 0.00015259
0.000122072 0.30013 0.00131228
0.000411994 0.310811 0.000823987
0.00109865 0.324224 0.000503548
0.00672923 0.338964 0.000274662
0.0228122 0.356832 0.000198367
0.0556649 0.375402 0.000137331
0.11667 0.394751 0.000137331
0.173831 0.413123 0.000137331
0.225696 0.43032 0.00015259
0.271183 0.445457 0.00015259
0.312932 0.459419 0.00015259
0.352865 0.471916 0.00015259
0.392889 0.48423 0.00015259
0.429908 0.494942 0.00015259
0.466499 0.505028 0.00015259
0.502174 0.513863 0.00015259
0.537469 0.522347 0.00015259
0.572 0.530404 0.00015259
0.605646 0.537209 0.00015259
0.6392 0.543847 0.00015259
0.673945 0.550576 0.00015259
0.707759 0.557015 0.00015259
0.740261 0.563027 0.00015259
0.770962 0.567697 0.00015259
0.800656 0.57171 0.00015259
0.828748 0.575723 0.00015259
0.857252 0.580118 0.00015259
0.886137 0.584649 0.00015259
0.910826 0.58851 0.00015259
0.933165 0.591959 0.00015259
0.950271 0.595026 0.00015259
0.963134 0.597818 0.00015259
0.973495 0.600168 0.00015259
0.000122072 0.314534 0.000854505
0.000366217 0.325673 0.00047303
0.000991836 0.339742 0.000335698
0.00576791 0.3552 0.000228885
0.0206607 0.373724 0.000167849
0.0515145 0.392935 0.000137331
0.113176 0.41326 0.000137331
0.171145 0.432425 0.000137331
0.225254 0.450095 0.000137331
0.272404 0.465797 0.000137331
0.315236 0.48014 0.00015259
0.356085 0.493263 0.00015259
0.397238 0.506142 0.00015259
0.434592 0.517052 0.00015259
0.471855 0.527718 0.00015259
0.508507 0.537133 0.00015259
0.544579 0.546166 0.00015259
0.579843 0.554803 0.00015259
0.613764 0.561868 0.00015259
0.647334 0.568643 0.00015259
0.682139 0.575402 0.00015259
0.71603 0.581964 0.00015259
0.748898 0.588312 0.00015259
0.780652 0.59382 0.00015259
0.811521 0.598733 0.00015259
0.839597 0.602777 0.00015259
0.867811 0.606912 0.00015259
0.896269 0.611399 0.00015259
0.921569 0.615656 0.00015259
0.944244 0.619501 0.00015259
0.960967 0.622553 0.00015259
0.973114 0.62533 0.00015259
0.982391 0.62771 0.00015259
0.000106813 0.329 0.000503548
0.000350958 0.340795 0.000213626
0.000961318 0.355673 0.000183108
0.00511177 0.371756 0.000167849
0.0193179 0.390738 0.000137331
0.0483558 0.41062 0.000137331
0.110048 0.431907 0.000137331
0.169299 0.452003 0.000137331
0.224491 0.469993 0.000137331
0.273457 0.486183 0.000137331
0.316884 0.500725 0.000137331
0.35906 0.514382 0.00015259
0.401251 0.527962 0.00015259
0.439124 0.539284 0.00015259
0.477104 0.550195 0.00015259
0.514565 0.560342 0.00015259
0.551171 0.569894 0.00015259
0.587533 0.579187 0.00015259
0.62182 0.586542 0.00015259
