src/assets/luts/Alen Palander - Vancouver.cube
TITLE "Generated by Resolve"
LUT_3D_SIZE 33
0.00172427 0.00276188 0.00207523
0.024155 0.00363165 0.00242618
0.0465858 0.00450141 0.00276188
0.0683299 0.00518807 0.00294499
0.090074 0.00587472 0.00311284
0.113207 0.00656138 0.00155642
0.136324 0.00726329 0
0.159808 0.00863661 0.00103761
0.183276 0.0100252 0.00207523
0.20795 0.0119326 0.00242618
0.232639 0.0138247 0.00276188
0.260609 0.016083 0.00328069
0.288563 0.0183261 0.0037995
0.319295 0.0209201 0.00415045
0.350042 0.0235142 0.00450141
0.383185 0.0255894 0.00224308
0.416342 0.0276493 0
0.448798 0.0293889 0
0.481254 0.0311131 0
0.511467 0.0330205 0.00311284
0.54168 0.0349126 0.00622568
0.57052 0.0350958 0.00311284
0.599344 0.0352636 0
0.624552 0.0361334 0
0.649744 0.0369879 0
0.672694 0.0373388 0.00259403
0.695659 0.0376898 0.00518807
0.718441 0.0381933 0.00570687
0.741207 0.0387121 0.00622568
0.763638 0.0392309 0.00604257
0.786084 0.0397498 0.00587472
0.807996 0.0401007 0.00552377
0.829908 0.0404517 0.00518807
0.000869764 0.0250248 0.0034638
0.024155 0.0253605 0.0034638
0.0465858 0.0262303 0.0037995
0.0684977 0.0265812 0.0037995
0.0902419 0.0272679 0.0039826
0.113725 0.0281224 0.0034638
0.136843 0.0288243 0.00190738
0.161349 0.0300298 0
0.184833 0.0314183 0.00103761
0.209689 0.0333104 0.00259403
0.234363 0.0352178 0.00294499
0.262852 0.0374609 0.00294499
0.290822 0.039704 0.0034638
0.322408 0.0421302 0.00190738
0.353155 0.0447242 0.00224308
0.386999 0.0476692 0.0043183
0.420142 0.0497292 0.00207523
0.453452 0.0519875 0.00259403
0.485924 0.0537118 0.00259403
0.517174 0.0549172 0
0.547387 0.0568246 0.00311284
0.574319 0.0580301 0.00708019
0.603143 0.0582132 0.0039826
0.629038 0.0575113 0
0.654246 0.058381 0
0.677882 0.0590677 0
0.700832 0.0594186 0.00259403
0.723613 0.0599374 0.00259403
0.746395 0.0604562 0.00311284
0.768307 0.0607919 0.00311284
0.790753 0.0613107 0.00294499
0.812497 0.0616617 0.00294499
0.834409 0.0620127 0.00259403
0 0.0472877 0.00483711
0.0232853 0.0476234 0.00483711
0.0465858 0.0479744 0.00483711
0.0684977 0.0483101 0.00483711
0.090425 0.048661 0.00483711
0.113893 0.0495308 0.0043183
0.137362 0.0503853 0.0037995
0.161868 0.051606 0.00190738
0.186389 0.0528115 0
0.211246 0.0547189 0.00155642
0.236088 0.056611 0.00311284
0.264576 0.058854 0.00311284
0.293065 0.0611124 0.00311284
0.324666 0.0635233 0.00155642
0.356268 0.0659495 0
0.390097 0.0688792 0.00207523
0.423941 0.0718242 0.00415045
0.457267 0.0740673 0.00466926
0.490593 0.0763256 0.00518807
0.521843 0.0775311 0.00259403
0.553094 0.0787366 0
0.580026 0.079942 0.0039826
0.606958 0.0811627 0.00794995
0.632837 0.0804608 0.0039826
0.658732 0.0797742 0
0.682368 0.0804608 0
0.70602 0.0811627 0
0.728801 0.0816815 0
0.751583 0.0822003 0
0.773495 0.082536 0
0.795407 0.082887 0
0.817151 0.083238 0
0.838895 0.0835737 0
0.00190738 0.0691997 0.00656138
0.0224308 0.0697185 0.00587472
0.0457313 0.0700542 0.00587472
0.0684977 0.0704051 0.00570687
0.090425 0.0707561 0.00570687
0.114244 0.0716106 0.00518807
0.137713 0.0724804 0.00466926
0.162905 0.0736858 0.00190738
0.187427 0.0749065 0
0.213138 0.0766308 0
0.237995 0.0785229 0.00155642
0.267002 0.0809491 0.00363165
0.295476 0.0831922 0.00363165
0.328283 0.0859693 0.0034638
0.359884 0.0883803 0.00190738
0.394598 0.0914931 0.00224308
0.428443 0.0944381 0.0043183
0.462104 0.0970321 0.00535592
0.49543 0.0992752 0.00587472
0.527031 0.100832 0.00259403
0.558282 0.102037 0
0.58555 0.103593 0.00502022
0.612482 0.104799 0.00898756
0.637858 0.10428 0.0039826
0.663737 0.103593 0
0.68687 0.104112 0
0.710506 0.104799 0
0.733471 0.105669 0
0.756252 0.106188 0
0.778851 0.106874 0
0.800778 0.107225 0
0.822522 0.107744 0
0.844251 0.108095 0
0.0037995 0.0911116 0.00830091
0.0243229 0.0916304 0.00759899
0.0448615 0.0921492 0.00691234
0.0676432 0.0925002 0.00674449
0.090425 0.0928359 0.00656138
0.114244 0.0937057 0.00604257
0.138064 0.0945754 0.00552377
0.163256 0.0957809 0.00276188
0.188464 0.0969863 0
0.214176 0.0987106 0
0.239902 0.10045 0
0.268894 0.102861 0.00207523
0.297902 0.105287 0.00415045
0.330709 0.108049 0.0039826
0.363516 0.110811 0.0037995
0.39823 0.113924 0.00415045
0.432929 0.117037 0.00450141
0.46659 0.119631 0.00552377
0.500267 0.122225 0.00656138
0.531868 0.123781 0.00328069
0.56347 0.125338 0
0.590738 0.126894 0.00502022
0.618006 0.12845 0.0100252
0.643381 0.127932 0.00502022
0.668757 0.127413 0
0.691875 0.127932 0
0.715007 0.12845 0
0.737957 0.12932 0
0.760922 0.130175 0
0.78352 0.130877 0
0.806134 0.131563 0
0.827878 0.132082 0
0.849622 0.132601 0
0.0037995 0.113375 0.00933852
0.0239872 0.114061 0.00898756
0.0445106 0.11458 0.00830091
0.0664378 0.115282 0.00743114
0.0892042 0.115618 0.00726329
0.114244 0.116487 0.00691234
0.138064 0.117357 0.00639353
0.163943 0.11873 0.00276188
0.189151 0.119936 0
0.2159 0.121675 0
0.241627 0.1234 0
0.27219 0.125826 0
0.301198 0.128237 0.00207523
0.335378 0.131868 0.00466926
0.368185 0.13463 0.00450141
0.403937 0.138094 0.00190738
0.438636 0.141207 0.00224308
0.472816 0.14345 0.00224308
0.506493 0.146044 0.00328069
0.537575 0.147601 0.00328069
0.569162 0.149157 0
0.596445 0.150881 0.0037995
0.623713 0.152438 0.00881971
0.649424 0.15227 0.00502022
0.6748 0.151751 0
0.697414 0.152438 0
0.720546 0.152956 0
0.742626 0.155032 0.00604257
0.765576 0.155901 0.00604257
0.78854 0.156939 0.00415045
0.811139 0.157626 0.00415045
0.833234 0.158312 0.000167849
0.854978 0.158831 0.000167849
0.0037995 0.135637 0.0103761
0.0239872 0.136324 0.0100252
0.0441749 0.137026 0.00967422
0.0660868 0.137713 0.00881971
0.0879988 0.138399 0.00794995
0.113024 0.139269 0.00759899
0.138064 0.140124 0.00726329
0.163943 0.141512 0.00363165
0.189837 0.142901 0
0.216602 0.144625 0
0.243351 0.146349 0
0.273915 0.148775 0
0.304479 0.151186 0
0.338659 0.154818 0.00259403
0.372854 0.15845 0.00518807
0.408606 0.161913 0.00259403
0.444343 0.165362 0
0.478523 0.16762 0
0.512718 0.169863 0
0.543801 0.17142 0
0.574868 0.172976 0
0.602136 0.174701 0.0037995
0.629419 0.176425 0.00759899
0.655131 0.176257 0.0037995
0.680858 0.176089 0
0.703456 0.176776 0
0.72607 0.177462 0
0.748165 0.179538 0.00604257
0.770245 0.181613 0.0121004
0.793194 0.18265 0.010193
0.816159 0.183688 0.00830091
0.838239 0.184375 0.0043183
0.860334 0.185077 0.000350958
0.00415045 0.158587 0.0117494
0.0250248 0.159106 0.0117494
0.0452125 0.159808 0.0114137
0.0660868 0.16083 0.0108949
0.0879988 0.161532 0.0100252
0.111986 0.163256 0.00759899
0.137026 0.164126 0.00726329
0.164294 0.16585 0.00363165
0.190188 0.167239 0
0.218158 0.169131 0
0.244907 0.170855 0
0.277195 0.1738 0
0.307759 0.176226 0
0.343847 0.180377 0.00276188
0.378042 0.183993 0.00535592
0.414481 0.187976 0.00656138
0.450217 0.19144 0.0039826
0.484581 0.193851 0
0.518761 0.196094 0
0.548806 0.197833 0.00535592
0.579873 0.19939 0.00535592
0.607843 0.200427 0.00466926
0.635126 0.202152 0.00846876
0.661006 0.20267 0.0037995
0.686732 0.202502 0
0.710033 0.203357 0
0.732631 0.204044 0
0.755245 0.204913 0
0.77734 0.206989 0.00604257
0.798901 0.209064 0.00967422
0.821866 0.210101 0.0077821
0.844297 0.211139 0.0043183
0.866377 0.211826 0.000350958
0.00450141 0.181537 0.013138
0.0253605 0.182055 0.013138
0.0462501 0.182574 0.013138
0.0671244 0.183612 0.0126192
0.0879988 0.184649 0.0121004
0.111986 0.186389 0.00967422
0.135988 0.188113 0.00726329
0.163256 0.189837 0.00363165
0.190539 0.191562 0
0.218494 0.193469 0
0.246464 0.195377 0
0.278752 0.198306 0
0.31104 0.201251 0
0.347143 0.205402 0.00276188
0.38323 0.209552 0.00552377
0.419669 0.213519 0.00674449
0.456092 0.217502 0.00794995
0.490455 0.219913 0.0039826
0.524819 0.222339 0
0.554849 0.224063 0.00535592
0.584894 0.225788 0.0107118
0.612863 0.226825 0.0100252
0.640818 0.227863 0.00933852
0.666712 0.228382 0.00466926
0.692607 0.228901 0
0.715908 0.22977 0
0.739208 0.23064 0
0.761822 0.231495 0
0.784421 0.232364 0
0.805997 0.23444 0.00363165
0.827558 0.236515 0.00726329
0.850004 0.237552 0.0037995
0.872435 0.23859 0.000350958
0.00535592 0.205356 0.0150454
0.0257115 0.206058 0.0152132
0.0465858 0.206577 0.0152132
0.0662547 0.208133 0.0146944
0.0871443 0.209171 0.0141756
0.104555 0.211933 0.00950637
0.128542 0.213657 0.00708019
0.16257 0.215732 0.00363165
0.189837 0.217456 0
0.220752 0.220233 0
0.248707 0.222126 0
0.28307 0.226108 0
0.315373 0.229038 0
0.352499 0.233021 0.00155642
0.388586 0.237171 0.0043183
0.425711 0.241138 0.00276188
0.46215 0.245121 0.0039826
0.496498 0.248402 0.00898756
0.530861 0.250828 0.00502022
0.562631 0.252201 0
0.592676 0.253941 0.00535592
0.620295 0.255146 0.00674449
0.648264 0.256184 0.00604257
0.673808 0.25687 0.00466926
0.699702 0.257389 0
0.722133 0.259297 0.00656138
0.745434 0.260151 0.00656138
0.767865 0.261021 0.00587472
0.790478 0.261891 0.00587472
0.812741 0.263096 0
0.834302 0.265171 0.00363165
0.856046 0.267247 0.00950637
0.878477 0.268284 0.00604257
0.00622568 0.229175 0.0169375
0.0265812 0.229877 0.0171054
0.0469368 0.230564 0.0172885
0.0666056 0.23212 0.0167697
0.0862745 0.233677 0.0162509
0.1037 0.236439 0.0115816
0.121111 0.2392 0.00691234
0.155138 0.241276 0.0034638
0.189151 0.243351 0
0.22005 0.246113 0
0.250965 0.24889 0
0.285328 0.252857 0
0.319692 0.25684 0
0.356817 0.260807 0.00155642
0.393942 0.26479 0.00311284
0.431067 0.268757 0.00155642
0.468193 0.27274 0
0.502556 0.27602 0.00502022
0.536919 0.279301 0.0100252
0.568673 0.28069 0.00502022
0.600443 0.282078 0
0.628077 0.283284 0.00138857
0.655695 0.284489 0.00276188
0.681239 0.285191 0.00138857
0.706783 0.285878 0
0.729213 0.28777 0.00656138
0.751659 0.289677 0.013138
0.77409 0.290547 0.0124514
0.796521 0.291402 0.0117494
0.818784 0.292622 0.00587472
0.841047 0.293828 0
0.862791 0.295903 0.00587472
0.884535 0.297978 0.0117494
0.00311284 0.254551 0.0193637
0.0232853 0.255756 0.0193637
0.0436561 0.256458 0.0195315
0.0638437 0.258183 0.0193637
0.0835126 0.259739 0.0188449
0.106111 0.262501 0.0172885
0.123537 0.265263 0.0126192
0.153063 0.269764 0.0034638
0.187076 0.271839 0
0.222126 0.275639 0
0.25304 0.278401 0
0.289479 0.28307 0.00103761
0.323842 0.287053 0.00103761
0.362341 0.29189 0.00190738
0.399481 0.295872 0.0034638
0.437461 0.300191 0.00604257
0.474586 0.304158 0.00450141
0.510506 0.30692 0
0.544869 0.310216 0.00502022
0.576288 0.312108 0.00743114
0.608057 0.313497 0.00242618
0.636545 0.314885 0
0.664164 0.316091 0.00138857
0.688838 0.317815 0.00674449
0.714382 0.318502 0.00535592
0.737514 0.319722 0.00639353
0.759945 0.321614 0.0129702
0.782208 0.322652 0.0114137
0.804654 0.323522 0.0107118
0.827253 0.325078 0.00587472
0.849515 0.326284 0
0.871611 0.32871 0
0.893355 0.330785 0.00587472
0 0.279927 0.0217746
0.0201724 0.281132 0.0217746
0.0403601 0.282353 0.0217746
0.0605478 0.284077 0.0216068
0.0807355 0.285801 0.0214389
0.103349 0.288563 0.0198825
0.125963 0.291341 0.0183261
0.155474 0.295827 0.00915541
0.185 0.300328 0
0.22005 0.304128 0
0.255116 0.307927 0
0.291554 0.312596 0.00103761
0.327977 0.317266 0.00207523
0.366491 0.322103 0.00294499
0.405005 0.326955 0.0037995
0.443 0.331273 0.00639353
0.480995 0.335592 0.00898756
0.516899 0.338354 0.00450141
0.552819 0.341115 0
0.584237 0.343023 0.00242618
0.615656 0.344915 0.00483711
0.644144 0.346303 0.00242618
0.672633 0.347692 0
0.697307 0.349416 0.00535592
0.721996 0.351141 0.0107118
0.745113 0.352346 0.0117494
0.768246 0.353567 0.0127871
0.790509 0.354604 0.0112306
0.812772 0.355642 0.00967422
0.835386 0.357198 0.00483711
0.857984 0.358755 0
0.880079 0.361166 0
0.902159 0.363592 0
0.00311284 0.307027 0.0252384
0.0201724 0.308934 0.0254063
0.0403601 0.31014 0.0254063
0.062623 0.312566 0.0255894
0.0828107 0.31429 0.0254063
0.104555 0.31809 0.0242008
0.127169 0.320851 0.0226444
0.145281 0.327428 0.00915541
0.174807 0.33193 0
0.22179 0.336416 0
0.25684 0.340215 0
0.295872 0.345922 0
0.332311 0.350591 0.00103761
0.372885 0.356649 0.00103761
0.411399 0.361486 0.00190738
0.450782 0.366323 0.00587472
0.488762 0.370642 0.00846876
0.525017 0.373571 0.00450141
0.560937 0.376349 0
0.592538 0.378241 0.00502022
0.623957 0.380148 0.00743114
0.652781 0.381704 0.00242618
0.68127 0.383093 0
0.706477 0.384466 0
0.731151 0.386206 0.00535592
0.753933 0.387411 0.00967422
0.777066 0.388617 0.0107118
0.799664 0.390173 0.00639353
0.821927 0.391211 0.00483711
0.844022 0.393637 0.00483711
0.866636 0.395193 0
0.889067 0.397955 0
0.911147 0.400381 0
0.00622568 0.334127 0.028687
0.0232853 0.336034 0.0288701
0.0403601 0.337926 0.0290379
0.062623 0.340352 0.0292058
0.0848859 0.342779 0.0293889
0.10663 0.346578 0.0281682
0.128374 0.350378 0.0269627
0.146487 0.356954 0.013489
0.164614 0.363516 0
0.211597 0.368017 0
0.258564 0.372503 0
0.297597 0.37821 0
0.336629 0.383917 0
0.377218 0.389975 0
0.417792 0.396017 0
0.457176 0.400854 0.0039826
0.496544 0.405692 0.00794995
0.532799 0.408637 0.0039826
0.569055 0.411582 0
0.600656 0.413474 0.00502022
0.632258 0.415381 0.0100252
0.661082 0.416938 0.00502022
0.689921 0.418494 0
0.715114 0.419867 0
0.740322 0.421256 0
0.763104 0.422461 0.0043183
0.78587 0.423667 0.00863661
0.808484 0.425223 0.0043183
0.831098 0.42678 0
0.853178 0.429206 0
0.875273 0.431632 0
0.897704 0.434394 0
0.920134 0.437156 0
0.00311284 0.363302 0.0326696
0.0232853 0.365209 0.0330205
0.0403601 0.367102 0.0331884
0.0605478 0.370733 0.0333562
0.0828107 0.373159 0.0335393
0.102998 0.378515 0.0319829
0.124743 0.38233 0.0307622
0.152026 0.389059 0.0245518
0.170138 0.395636 0.0110628
0.213657 0.40238 0
0.260639 0.406867 0
0.302617 0.413779 0
0.341634 0.419486 0
0.383948 0.42623 0
0.424536 0.432273 0
0.464775 0.437812 0
0.504158 0.442649 0.0039826
0.540917 0.446448 0.00691234
0.577188 0.449393 0.00294499
0.610162 0.452155 0
0.641764 0.454063 0.00502022
0.669902 0.455268 0.00502022
0.698726 0.456825 0
0.723934 0.457343 0
0.749126 0.458732 0
0.771908 0.459937 0.00691234
0.79469 0.461143 0.0112306
0.817304 0.462867 0.00794995
0.839902 0.464424 0.00363165
0.861997 0.46685 0.00570687
0.884092 0.469261 0.00570687
0.906172 0.472038 0.00450141
0.928618 0.4748 0.00450141
0 0.392477 0.0366522
0.0201724 0.394385 0.0369879
0.0403601 0.396292 0.0373388
0.0605478 0.399908 0.0375067
0.0807355 0.403555 0.0376898
0.100923 0.408911 0.0361334
0.121111 0.414267 0.0345769
0.148394 0.421012 0.0283513
0.175662 0.427756 0.0221256
0.219196 0.434485 0.0110628
0.262715 0.44123 0
0.304692 0.448142 0
0.346654 0.455055 0
0.388968 0.461799 0
0.431281 0.468544 0
0.471519 0.474083 0
0.511757 0.479606 0
0.548531 0.483406 0.00294499
0.585306 0.487205 0.00587472
0.618296 0.489982 0.00294499
0.65127 0.492744 0
0.679408 0.49395 0
0.707546 0.495171 0
0.732754 0.495689 0
0.757946 0.496208 0
0.780728 0.497414 0.00691234
0.80351 0.498619 0.0138247
0.826123 0.500343 0.010544
0.848722 0.502068 0.00726329
0.870817 0.504494 0.00933852
0.892897 0.506905 0.0114137
0.914992 0.509682 0.010193
0.937087 0.512444 0.00898756
0 0.421134 0.0402686
0.0201724 0.423911 0.0407874
0.0403601 0.425803 0.0411383
0.0605478 0.430304 0.0413062
0.0807355 0.433936 0.0414893
0.100923 0.439979 0.0401007
0.121111 0.445335 0.0385443
0.141299 0.453117 0.031281
0.168582 0.459861 0.0250706
0.221607 0.46833 0.0110628
0.265141 0.475074 0
0.309346 0.483192 0.00415045
0.351324 0.490105 0.00415045
0.394491 0.497368 0.00242618
0.436805 0.504112 0.00242618
0.47808 0.510323 0.000518807
0.518318 0.515862 0.000518807
0.556298 0.520699 0.00172427
0.593088 0.524498 0.00466926
0.626581 0.527611 0.00294499
0.659556 0.530373 0
0.688045 0.531929 0.00363165
0.716182 0.53315 0.00363165
0.741222 0.533837 0.0034638
0.766415 0.534356 0.0034638
0.789715 0.535561 0
0.812497 0.536767 0.00691234
0.83476 0.538155 0.00691234
0.857374 0.539879 0.00363165
0.879118 0.541787 0.010193
0.901198 0.544198 0.0122683
0.92311 0.546456 0.00587472
0.945205 0.549218 0.00466926
0 0.44979 0.0439002
0.0201724 0.452567 0.044419
0.0403601 0.455329 0.0449378
0.0605478 0.459831 0.0451209
0.0807355 0.464317 0.0452888
0.100923 0.470375 0.0439002
0.121111 0.476417 0.0425269
0.141299 0.484199 0.0352636
0.161501 0.491981 0.0280003
0.214527 0.50045 0.0140078
0.267552 0.508919 0
0.311772 0.517037 0.00415045
0.355993 0.52517 0.00830091
0.399161 0.532418 0.00656138
0.442344 0.539681 0.00483711
0.483619 0.545907 0.00294499
0.524895 0.552117 0.00103761
0.562875 0.556954 0.00224308
0.600855 0.561791 0.0034638
0.634363 0.564904 0.00172427
0.667857 0.568017 0
0.696345 0.569574 0.00363165
0.724819 0.57113 0.00726329
0.749859 0.571817 0.00708019
0.774884 0.572519 0.00691234
0.798184 0.573724 0.0034638
0.821485 0.574929 0
0.843748 0.576318 0
0.866011 0.577707 0
0.887755 0.579599 0.00656138
0.909499 0.581506 0.013138
0.931411 0.583749 0.00674449
0.953323 0.585992 0.000350958
0.00502022 0.476722 0.0471962
0.0201724 0.480705 0.047364
0.0403601 0.483467 0.0478828
0.0667735 0.487968 0.0485695
0.0869612 0.492454 0.0487373
0.100923 0.498848 0.047013
0.121111 0.504906 0.0456397
0.141299 0.513893 0.0375067
0.161501 0.521675 0.0302434
0.21677 0.53135 0.0191806
0.26981 0.539818 0.00518807
0.315053 0.548974 0
0.359274 0.557092 0.00415045
0.403311 0.564874 0.00846876
0.446494 0.572137 0.00674449
0.488975 0.579217 0.00242618
0.530251 0.585443 0.000518807
0.569085 0.590967 0.00294499
0.60708 0.595819 0.00415045
0.640757 0.599268 0.00172427
0.67425 0.60238 0
0.703258 0.604456 0
0.731746 0.606012 0.00363165
0.757458 0.607217 0.00363165
0.782498 0.607919 0.0034638
0.805615 0.608957 0.0034638
0.828916 0.610162 0
0.850828 0.611017 0
0.873091 0.612406 0
0.894499 0.613611 0
0.916243 0.615518 0.00656138
0.937469 0.617075 0.0152132
0.959381 0.619333 0.00881971
0.0100252 0.503655 0.0504768
0.0251926 0.507637 0.0506447
0.0403601 0.511604 0.0508125
0.0667735 0.516106 0.0515145
0.0931868 0.520592 0.0522011
0.107149 0.526986 0.0504768
0.121111 0.533394 0.0487373
0.141299 0.542382 0.0406195
0.161501 0.551369 0.0325017
0.21677 0.561044 0.0214389
0.272053 0.570718 0.0103761
0.317311 0.579873 0.00518807
0.362554 0.589044 0
0.406592 0.596826 0.0043183
0.450645 0.604593 0.00863661
0.493126 0.611688 0.0043183
0.535607 0.618769 0
0.574456 0.624292 0.00242618
0.613306 0.629831 0.00483711
0.646983 0.63328 0.00242618
0.680644 0.636744 0
0.709651 0.638819 0
0.738659 0.640894 0
0.764385 0.6421 0
0.790097 0.643305 0
0.81323 0.644343 0
0.836347 0.64538 0
0.858274 0.64625 0
0.880186 0.64712 0
0.901579 0.648325 0
0.922972 0.649546 0
0.944198 0.651102 0.00863661
0.965423 0.652644 0.0172885
0.00502022 0.528862 0.0522011
0.0251926 0.53283 0.0528878
0.0403601 0.536812 0.0530709
0.0605478 0.542 0.0528878
0.0869612 0.546487 0.0535897
0.113542 0.553231 0.0525521
0.12752 0.559625 0.0508125
0.141299 0.569299 0.0420081
0.161501 0.578286 0.033875
0.217807 0.588312 0.0162509
0.273091 0.598001 0.00518807
0.31989 0.607507 0.00518807
0.365148 0.616663 0
0.410056 0.625483 0.00328069
0.454093 0.633249 0.00759899
0.497093 0.641032 0.0043183
0.539574 0.648127 0
0.578607 0.653986 0
0.617456 0.659525 0.00242618
0.651652 0.663325 0.00656138
0.685313 0.666789 0.00415045
0.714321 0.668864 0.00898756
0.743328 0.670939 0.00898756
0.768704 0.672145 0.00967422
0.794415 0.67335 0.00967422
0.817548 0.67422 0.010193
0.840665 0.675258 0.010193
0.862409 0.675944 0.0117494
0.884337 0.676814 0.0117494
0.905562 0.677684 0.0122683
0.926955 0.678889 0.0122683
0.94818 0.679759 0.0124514
0.969406 0.681315 0.021088
0 0.554055 0.0539254
0.0201724 0.558038 0.0546273
0.0403601 0.562005 0.055314
0.0605478 0.567193 0.0551461
0.0807355 0.572381 0.054963
0.107332 0.579126 0.0539254
0.133913 0.585855 0.0528878
0.147707 0.595544 0.0440833
0.161501 0.605219 0.0352636
0.217807 0.615244 0.0176242
0.274128 0.625269 0
0.320928 0.634775 0
0.367742 0.644282 0
0.41265 0.653101 0.00328069
0.457557 0.661906 0.00656138
0.500557 0.669688 0.00328069
0.543557 0.67747 0
0.582574 0.683345 0
0.621607 0.689219 0
0.655787 0.693019 0.00415045
0.689982 0.696834 0.00830091
0.71899 0.698909 0.013138
0.747997 0.700984 0.0179751
0.773373 0.70219 0.0186618
0.798749 0.703395 0.0193637
0.821866 0.704265 0.0198825
0.844999 0.705119 0.0204013
0.866743 0.705821 0.0219577
0.888487 0.706508 0.0235142
0.909712 0.707378 0.024033
0.930938 0.708232 0.0245518
0.952163 0.709102 0.0247196
0.973388 0.709972 0.0248875
0 0.577707 0.0554818
0.0263981 0.582193 0.0563516
0.0465858 0.586175 0.0570382
0.0662547 0.59205 0.0568704
0.0864424 0.597238 0.0567025
0.100923 0.604669 0.0539254
0.12752 0.611414 0.0528878
0.156695 0.620737 0.04477
0.170474 0.630426 0.0359503
0.220066 0.640101 0.0176242
0.276371 0.650126 0
0.323186 0.659464 0
0.369985 0.668971 0
0.415412 0.678294 0
0.460319 0.687114 0.00328069
0.503151 0.695232 0.00587472
0.546151 0.703014 0.00259403
0.585168 0.709072 0
0.624201 0.714946 0
0.658381 0.719097 0.00846876
0.692576 0.722896 0.0126192
0.721752 0.725139 0.0158999
0.750759 0.727214 0.020737
0.776135 0.72842 0.0214389
0.801511 0.729641 0.0221256
0.824628 0.730495 0.0226444
0.847761 0.731365 0.0231632
0.869673 0.731884 0.0243687
0.891417 0.73257 0.0259251
0.912642 0.733272 0.024033
0.933867 0.734127 0.0245518
0.954742 0.734646 0.0250706
0.975967 0.735515 0.0252384
0 0.601343 0.0570382
0.0263981 0.605844 0.057908
0.0528115 0.61033 0.0587778
0.0724804 0.616205 0.0585946
0.0921492 0.622095 0.0584268
0.10663 0.629526 0.0556649
0.121111 0.636957 0.0528878
0.150286 0.646296 0.04477
0.179477 0.655619 0.0366522
0.229053 0.665309 0.0183261
0.278614 0.674983 0
0.325429 0.684306 0
0.372229 0.693645 0
0.417655 0.702983 0
0.463081 0.712306 0
0.505913 0.720439 0.00259403
0.548745 0.728557 0.00518807
0.587762 0.734615 0.00259403
0.626795 0.740658 0
0.660975 0.744808 0.00846876
0.695171 0.748959 0.0169375
0.724346 0.751202 0.0202182
0.753521 0.75346 0.0235142
0.778897 0.754665 0.0242008
0.804273 0.755871 0.0248875
0.827405 0.756741 0.0254063
0.850523 0.757595 0.0259251
0.872435 0.758114 0.0271305
0.894362 0.758633 0.0283513
0.915587 0.759335 0.0264439
0.936812 0.760021 0.0245518
0.957687 0.76054 0.0250706
0.978561 0.761059 0.0255894
0 0.623438 0.0580758
0.0201724 0.62948 0.0584268
0.0465858 0.633982 0.0592966
0.0667735 0.640726 0.0587778
0.0864424 0.646601 0.0585946
0.11632 0.653681 0.0565194
0.1308 0.661112 0.0537575
0.141299 0.67097 0.0392309
0.170489 0.680308 0.0311131
0.231815 0.688609 0.0248875
0.281392 0.698283 0.00656138
0.327337 0.707439 0
0.374136 0.716777 0
0.419379 0.726101 0.00311284
0.464805 0.735439 0.00311284
0.507469 0.743389 0
0.550301 0.751522 0.00259403
0.588968 0.757733 0.00691234
0.628 0.76379 0.0043183
0.662364 0.767941 0.00950637
0.696544 0.772091 0.0179751
0.725902 0.774685 0.0212558
0.755077 0.776928 0.0245518
0.780621 0.778302 0.0255894
0.805997 0.779522 0.026276
0.829297 0.780377 0.026627
0.85243 0.781247 0.0271305
0.874174 0.781765 0.0283513
0.896086 0.782284 0.0295567
0.917311 0.782803 0.0280003
0.938537 0.78349 0.0261082
0.959243 0.783673 0.026627
0.980117 0.784192 0.0271305
0 0.645533 0.0591135
0.0201724 0.651576 0.0594644
0.0403601 0.657618 0.0598001
0.0605478 0.664363 0.0592966
0.0807355 0.671107 0.0587778
0.110613 0.678187 0.0567025
0.140475 0.685283 0.0546273
0.150988 0.69514 0.0401007
0.161501 0.704982 0.0255894
0.222827 0.713283 0.0193637
0.284153 0.721569 0.013138
0.330098 0.730739 0.00656138
0.376043 0.739895 0
0.421286 0.749233 0.00311284
0.466529 0.758572 0.00622568
0.509194 0.766522 0.00311284
0.551858 0.774472 0
0.590524 0.780697 0.0043183
0.629206 0.786908 0.00863661
0.663569 0.791058 0.0138247
0.697932 0.795209 0.0190127
0.727291 0.797803 0.0222934
0.756634 0.800397 0.0255894
0.782177 0.801785 0.026627
0.807736 0.803159 0.0276493
0.831022 0.804028 0.0280003
0.854322 0.804898 0.0283513
0.876066 0.805417 0.0295567
0.89781 0.805936 0.0307622
0.919036 0.806455 0.0292058
0.940261 0.806973 0.0276493
0.960967 0.807141 0.0281682
0.981674 0.807309 0.028687
0 0.667964 0.0601511
0.0270848 0.675227 0.0606699
0.0472877 0.68127 0.0610208
0.0605478 0.689052 0.0591135
0.0807355 0.695796 0.0585946
0.110948 0.703044 0.0554818
0.140826 0.71014 0.0534066
0.163088 0.718959 0.0330205
0.173602 0.728801 0.0184939
