src/assets/luts/Alen Palander - Alaska.cube
TITLE "Generated by Resolve"
LUT_3D_SIZE 9
0 0 0
0.0514992 0.00749218 0.00244144
0.126589 0.00598154 0.00422675
0.21355 0.00201419 0.00296025
0.313085 0.00015259 0.00062562
0.417319 6.10361e-05 0.000137331
0.519219 6.10361e-05 7.62951e-05
0.592355 6.10361e-05 7.62951e-05
0.62501 7.62951e-05 9.15541e-05
0 0.0596323 0.0193942
0.0652018 0.0762188 0.0164645
0.173236 0.0959793 0.00523384
0.284367 0.0982834 0.000991836
0.394018 0.0692454 0.000122072
0.502937 0.0251774 0
0.601053 0.0142061 0
0.677607 0.00813306 0
0.715419 0.00889601 0
4.57771e-05 0.123308 0.0179751
0.0618143 0.146258 0.00546273
0.197787 0.180682 3.0518e-05
0.321233 0.198657 0
0.440009 0.203464 0
0.561288 0.19559 0
0.664836 0.178454 0
0.750301 0.152514 0
0.791943 0.147189 0
0 0.170901 0.00123598
0.0272679 0.198001 0.000411994
0.194629 0.246784 0
0.333501 0.277821 0
0.460685 0.293767 0
0.590234 0.30071 0
0.698909 0.29865 0
0.795682 0.292592 0
0.844877 0.29424 0
0 0.218143 3.0518e-05
0.00657664 0.242298 0
0.172213 0.301503 0
0.331762 0.345876 0
0.469535 0.371374 0
0.605692 0.387701 0
0.72221 0.39472 0
0.829465 0.398627 0
0.888716 0.405432 0
0 0.270069 0
0.000747692 0.290761 0
0.135271 0.360311 0
0.32784 0.418509 0
0.480125 0.453574 0
0.624765 0.478752 0
0.749584 0.492363 0
0.864179 0.502754 0
0.930236 0.511437 0
0 0.32018 0
0.000167849 0.335866 0
0.0900893 0.413779 0
0.321263 0.48603 0
0.487449 0.531044 0
0.63798 0.562676 0
0.774166 0.584604 0
0.894865 0.600259 0
0.967102 0.611215 0
0 0.374182 0
0.000122072 0.387732 0
0.0555581 0.470008 0
0.308583 0.553826 0
0.493751 0.609247 0
0.652628 0.647639 0
0.799237 0.676493 0
0.925582 0.697566 0
0.99324 0.710353 0
0 0.410941 0
9.15541e-05 0.423011 0
0.035172 0.51223 0
0.308568 0.605249 0
0.504479 0.667872 0
0.670314 0.712657 0
0.823285 0.747433 0
0.956634 0.774029 0
0.999649 0.790921 0
0 0.0123598 0.0797742
0.0437934 0.0179599 0.0913863
0.136614 0.0106661 0.10428
0.232547 0.00233463 0.111543
0.334493 0.000167849 0.114549
0.437537 6.10361e-05 0.112413
0.534707 6.10361e-05 0.106767
0.604791 4.57771e-05 0.101732
0.637278 6.10361e-05 0.112016
0 0.0759289 0.110903
0.0599985 0.0924697 0.113634
0.182742 0.113436 0.132815
0.306416 0.111772 0.132311
0.419059 0.0830243 0.120668
0.524727 0.0429694 0.10164
0.6177 0.0192874 0.0819867
0.690684 0.0144198 0.0655375
0.727077 0.0148623 0.0706951
0 0.14612 0.127367
0.0302892 0.168688 0.129854
0.202777 0.203891 0.126345
0.339818 0.221683 0.104448
0.464302 0.222614 0.0745251
0.578195 0.212619 0.0466621
0.680232 0.192538 0.027039
0.763561 0.168826 0.014725
0.803693 0.165286 0.0131991
0 0.198871 0.117052
0.00622568 0.223453 0.111223
0.189837 0.273838 0.0867323
0.349142 0.303487 0.0506447
0.482933 0.314839 0.0206912
0.603952 0.316609 0.00863661
0.714992 0.312428 0.00177005
0.807462 0.305989 0.0009308
0.854749 0.308019 0.0009308
0 0.244724 0.0934768
0.000976577 0.267918 0.0749218
0.161944 0.329976 0.0329595
0.34612 0.372457 0.00468452
0.49247 0.396185 0.00144961
0.61973 0.406134 0.000671397
0.740337 0.412253 0.000396735
0.839231 0.414633 0.000259403
0.897581 0.420401 0.000259403
0 0.293736 0.0528115
0.000411994 0.309636 0.0317235
0.120623 0.379278 0.00621042
0.333639 0.436484 0.000946059
0.492714 0.470436 0.000381476
0.634424 0.492195 0.000213626
0.760754 0.504173 0.000167849
0.867613 0.511543 0.00015259
0.934279 0.518547 0.000122072
0 0.338369 0.0179904
0.00015259 0.352865 0.00779736
0.0768902 0.431296 0.00135805
0.323964 0.502525 0.000213626
0.49572 0.545251 0.00015259
0.642344 0.572061 0.000122072
0.777081 0.590982 9.15541e-05
0.893095 0.603265 7.62951e-05
0.966842 0.613016 6.10361e-05
0 0.387228 0.00228885
0.000106813 0.396796 0.000167849
0.0427253 0.478477 0.000137331
0.305333 0.561379 0.000106813
0.493278 0.61445 9.15541e-05
0.650767 0.649668 6.10361e-05
0.796353 0.676539 4.57771e-05
0.92166 0.696498 3.0518e-05
0.992554 0.71017 3.0518e-05
0 0.421027 0.000808728
7.62951e-05 0.429313 0.000396735
0.0283665 0.516991 9.15541e-05
0.30219 0.609766 7.62951e-05
0.502113 0.671717 6.10361e-05
0.669367 0.716121 4.57771e-05
0.82298 0.751034 4.57771e-05
0.957366 0.779934 6.10361e-05
0.999741 0.802731 0.000106813
0 0.0127718 0.156146
0.0255741 0.0136416 0.176623
0.137362 0.00570687 0.200488
0.239628 0.00164797 0.214832
0.343801 0.000122072 0.224109
0.446113 6.10361e-05 0.229099
0.541268 6.10361e-05 0.231754
0.609567 4.57771e-05 0.234653
0.641062 6.10361e-05 0.244648
0 0.0894636 0.204822
0.0190433 0.105486 0.229557
0.177813 0.125658 0.251987
0.307179 0.122469 0.263737
0.422583 0.0924849 0.26424
0.529122 0.0519265 0.261036
0.62208 0.021561 0.255726
0.694926 0.0164797 0.254383
0.730434 0.0167697 0.264103
0 0.167987 0.234775
0.00975052 0.192294 0.251896
0.206058 0.232044 0.250156
0.327153 0.253193 0.271916
0.466926 0.248249 0.268864
0.586587 0.238483 0.261036
0.688167 0.218219 0.250614
0.769665 0.197574 0.242329
0.809628 0.19472 0.247776
0 0.227451 0.238727
0.00117494 0.251057 0.247944
0.158541 0.297002 0.259037
0.333303 0.328969 0.267094
0.477043 0.345907 0.251835
0.609903 0.348333 0.2318
0.720012 0.343938 0.211994
0.812863 0.337407 0.1935
0.861936 0.341527 0.194491
0 0.279667 0.232517
0.000167849 0.302358 0.235737
0.0827344 0.365103 0.241611
0.324697 0.406928 0.232181
0.486961 0.432944 0.208621
0.623758 0.443931 0.180041
0.746441 0.449317 0.150103
0.846082 0.451743 0.125704
0.905684 0.459312 0.121706
0 0.334051 0.221851
0.000183108 0.349828 0.218784
0.0483101 0.422034 0.216068
0.304814 0.481788 0.192493
0.489555 0.516991 0.159365
0.640543 0.538674 0.123049
0.769055 0.548913 0.0806287
0.876371 0.556481 0.0597696
0.943984 0.564752 0.0527199
0 0.385779 0.209964
0.000137331 0.400153 0.204562
0.0198978 0.481788 0.192187
0.282963 0.556725 0.15317
0.491341 0.600717 0.101228
0.650782 0.627054 0.0583963
0.788266 0.644083 0.0399634
0.902571 0.655375 0.0273136
0.976196 0.665904 0.024445
0 0.442054 0.202045
9.15541e-05 0.450278 0.1935
0.00502022 0.534966 0.168307
0.250294 0.622354 0.118471
0.486122 0.675776 0.0722972
0.658076 0.710201 0.0304112
0.805051 0.734401 0.0221408
0.929412 0.753201 0.0189822
0.996475 0.768597 0.0191958
0 0.479973 0.20914
6.10361e-05 0.486107 0.197803
0.00218204 0.578683 0.168475
0.229725 0.676783 0.116701
0.48838 0.739773 0.0814221
0.671809 0.78323 0.0431525
0.826856 0.816617 0.0302586
0.961074 0.846479 0.0338445
0.999908 0.872511 0.050782
0 0.00514229 0.21622
0.01149 0.00817884 0.243198
0.134249 0.00512703 0.274495
0.242176 0.00108339 0.2934
0.347738 6.10361e-05 0.305547
0.450126 6.10361e-05 0.313161
0.544213 4.57771e-05 0.317296
0.611719 4.57771e-05 0.322576
0.642664 4.57771e-05 0.333165
0 0.0993515 0.28191
0.00610361 0.115267 0.316716
0.166659 0.131914 0.348898
0.306523 0.128176 0.362341
0.424521 0.0982834 0.366979
0.531884 0.0597543 0.367666
0.624079 0.0237736 0.365988
0.696345 0.0179446 0.367666
0.731594 0.0182193 0.377157
0 0.18291 0.31928
0.00234989 0.207355 0.347295
0.169024 0.248585 0.362127
0.330037 0.272068 0.374853
0.463325 0.264363 0.388342
0.585306 0.251438 0.386404
0.687678 0.231205 0.38262
0.770459 0.212436 0.381125
0.810498 0.210407 0.389502
0 0.246448 0.331518
0.000274662 0.270756 0.350423
0.117815 0.320806 0.369223
0.340993 0.358495 0.370031
0.46038 0.376425 0.388708
0.605035 0.370291 0.38204
0.719097 0.364431 0.375174
0.813489 0.359792 0.370794
0.862348 0.3635 0.377127
0 0.302556 0.333318
0.000167849 0.325185 0.344976
0.0470741 0.388281 0.367758
0.311589 0.424048 0.375341
0.466438 0.453285 0.387228
0.611246 0.469261 0.37142
0.742657 0.473533 0.355901
0.84535 0.477638 0.349477
0.904692 0.484382 0.352087
0 0.361028 0.333562
0.000167849 0.376257 0.338354
0.0213626 0.44889 0.357809
0.265553 0.507897 0.362509
0.472175 0.541268 0.361715
0.627619 0.565072 0.351232
0.76112 0.576074 0.3337
0.872679 0.585122 0.322774
0.940673 0.591684 0.320607
0 0.414664 0.33283
0.000137331 0.429206 0.334737
0.00991836 0.510643 0.351141
0.226932 0.585824 0.352605
0.465721 0.630793 0.342428
0.635523 0.65713 0.326589
0.777462 0.674525 0.308965
0.895155 0.686687 0.294072
0.972671 0.696529 0.289921
0 0.474281 0.339788
9.15541e-05 0.482841 0.337346
0.00135805 0.568597 0.349615
0.182055 0.658289 0.347448
0.453498 0.712871 0.332692
0.640131 0.747799 0.310735
0.792035 0.771893 0.292424
0.91957 0.790478 0.278706
0.994873 0.805966 0.279591
0 0.515129 0.36144
4.57771e-05 0.521614 0.357763
0.000564584 0.616266 0.371862
0.145846 0.71632 0.370581
0.447349 0.780423 0.358465
0.649943 0.824125 0.340429
0.811399 0.85742 0.330159
0.952651 0.886534 0.33669
0.999863 0.910643 0.382239
1.5259e-05 0.00221256 0.274281
0.0080415 0.00444038 0.306035
0.132952 0.00300603 0.34316
0.245731 0.00077821 0.365362
0.351751 6.10361e-05 0.37908
0.45301 6.10361e-05 0.387503
0.546166 4.57771e-05 0.392615
0.612589 4.57771e-05 0.397772
0.643091 4.57771e-05 0.408911
1.5259e-05 0.108049 0.352834
0.0028687 0.122957 0.391546
0.152514 0.137484 0.430243
0.304509 0.133135 0.447318
0.425544 0.102739 0.454353
0.53225 0.0681468 0.455558
0.625376 0.0292058 0.456291
0.697246 0.0179599 0.457832
0.731914 0.0181888 0.465995
0 0.196017 0.395727
0.000946059 0.219593 0.428153
0.122423 0.256046 0.46331
0.320272 0.27393 0.476539
0.462104 0.273945 0.486519
0.581567 0.261982 0.487205
0.686397 0.243351 0.487678
0.770031 0.223438 0.487968
0.810483 0.22269 0.494987
0 0.261585 0.411093
0.000198367 0.285557 0.435752
0.0813611 0.337545 0.469673
0.32578 0.377111 0.469932
0.466346 0.398596 0.484413
0.598444 0.388327 0.4925
0.716457 0.379202 0.490532
0.811872 0.376013 0.489784
0.861448 0.380224 0.496925
0 0.319829 0.418143
0.000167849 0.343664 0.436454
0.0317235 0.407492 0.470497
0.29247 0.449012 0.476524
0.473014 0.483604 0.488334
0.592432 0.499413 0.500435
0.737362 0.495186 0.490379
0.842466 0.497902 0.48719
0.902754 0.505257 0.493019
0 0.380285 0.423621
0.000167849 0.395682 0.433143
0.0129397 0.468116 0.464256
0.227848 0.527718 0.47982
0.467002 0.556481 0.493278
0.606241 0.582849 0.504326
0.749157 0.597925 0.485832
0.867033 0.605509 0.476524
0.936721 0.61297 0.478981
0 0.4365 0.428717
0.000137331 0.451667 0.436088
0.00393683 0.531914 0.46479
0.167544 0.60795 0.480049
0.443626 0.651514 0.483803
0.620569 0.67599 0.483574
0.765194 0.695567 0.475853
0.886687 0.707988 0.466758
0.967361 0.718822 0.468345
0 0.496117 0.43946
7.62951e-05 0.504784 0.440742
0.000167849 0.59028 0.467338
0.113725 0.680156 0.482429
0.42237 0.734997 0.48423
0.623163 0.77023 0.479988
0.780941 0.795346 0.474342
0.910582 0.814069 0.469841
0.992157 0.829725 0.474571
0 0.537652 0.464683
4.57771e-05 0.544091 0.463691
0.000167849 0.638911 0.492042
0.0722515 0.739696 0.508156
0.409903 0.80383 0.51194
0.632013 0.847684 0.511727
0.800748 0.881605 0.513817
0.944595 0.910948 0.526284
0.999817 0.934462 0.56379
1.5259e-05 0.00283818 0.329335
0.00483711 0.00369268 0.366583
0.129274 0.00169375 0.408255
0.249897 0.00062562 0.433783
0.356664 6.10361e-05 0.448417
0.457588 6.10361e-05 0.457938
0.549264 4.57771e-05 0.463432
0.614313 3.0518e-05 0.467735
0.644617 4.57771e-05 0.478691
1.5259e-05 0.116442 0.421378
0.00128176 0.130526 0.462715
0.135439 0.142763 0.504738
0.302083 0.136995 0.525887
0.424964 0.10631 0.533364
0.534173 0.0733959 0.537865
0.625818 0.03299 0.537789
0.698039 0.0189059 0.539452
0.732876 0.0191196 0.548867
0 0.209155 0.469871
0.000671397 0.231113 0.50277
0.0995193 0.266789 0.544839
0.307134 0.281895 0.564874
0.455787 0.283268 0.5738
0.578805 0.273228 0.578363
0.683299 0.254856 0.578546
0.76878 0.234668 0.57995
0.809979 0.23415 0.58735
0 0.276844 0.489143
0.000167849 0.299382 0.512474
0.0558328 0.351415 0.555764
0.289754 0.38378 0.575601
0.461036 0.39939 0.582132
0.598657 0.401556 0.590692
0.712154 0.393866 0.589395
0.809491 0.391608 0.591424
0.860609 0.396002 0.59765
0 0.336538 0.499779
0.000167849 0.357916 0.515282
0.0163272 0.421836 0.557504
0.243763 0.467109 0.57641
0.469841 0.502586 0.577356
0.599298 0.522469 0.591699
0.73019 0.513588 0.595193
0.838865 0.514412 0.595193
0.900496 0.521752 0.601221
0 0.398611 0.510033
0.000167849 0.412848 0.517555
0.00448615 0.48603 0.557076
0.175097 0.548516 0.581689
0.459358 0.581598 0.588235
0.607828 0.611429 0.608652
0.729564 0.624964 0.610559
0.861402 0.624811 0.596536
0.933013 0.632746 0.600626
0 0.455543 0.516976
0.000122072 0.469368 0.52314
0.00143435 0.548943 0.558862
0.114809 0.625116 0.58378
0.421134 0.668116 0.593729
0.614359 0.688533 0.607477
0.743923 0.710735 0.614511
0.877546 0.726177 0.594781
0.961791 0.736843 0.596521
0 0.515312 0.528786
7.62951e-05 0.522988 0.530007
0.000167849 0.607706 0.563653
0.0666514 0.697444 0.589364
0.390494 0.752392 0.598825
0.608011 0.787366 0.602564
0.76817 0.811688 0.603891
0.901457 0.832135 0.603632
0.988251 0.848127 0.609171
0 0.555398 0.552392
4.57771e-05 0.561334 0.551598
0.000167849 0.655985 0.587747
0.0523995 0.756832 0.614298
0.379049 0.820768 0.625513
0.616724 0.86511 0.633768
0.790814 0.899199 0.641611
0.939971 0.930129 0.660716
1 0.953155 0.696086
3.0518e-05 0.00309758 0.3841
0.00167849 0.00213626 0.427802
0.122774 0.00132753 0.474586
0.254063 0.00062562 0.502144
0.363043 7.62951e-05 0.518578
0.463783 6.10361e-05 0.528588
0.555444 4.57771e-05 0.535286
0.618769 3.0518e-05 0.538811
0.649241 4.57771e-05 0.549386
1.5259e-05 0.124346 0.484428
0.00111391 0.138109 0.530724
0.123293 0.148775 0.576822
0.298329 0.141115 0.598947
0.426062 0.110567 0.608835
0.534951 0.0793469 0.612314
0.628458 0.0366064 0.61442
0.700923 0.0198672 0.616281
0.736126 0.0199893 0.623392
0 0.221973 0.536583
0.00047303 0.243977 0.575113
0.0793622 0.280156 0.622858
0.297475 0.295399 0.646372
0.455299 0.296727 0.659052
0.57821 0.286152 0.662669
0.684764 0.268238 0.665141
0.770947 0.248676 0.667567
0.812711 0.249332 0.674434
0 0.29221 0.559869
0.000167849 0.313954 0.587396
0.0358282 0.365774 0.635828
0.265538 0.396887 0.661326
0.452644 0.409522 0.673991
0.593317 0.412451 0.679026
0.710597 0.408881 0.682063
0.808377 0.407263 0.684794
0.860853 0.412406 0.691554
0 0.351888 0.572106
0.000167849 0.374197 0.592523
0.00523384 0.438117 0.640848
0.194141 0.483268 0.667475
0.443656 0.511254 0.680919
0.598932 0.525093 0.685557
0.730205 0.529747 0.692622
0.836255 0.532052 0.694591
0.89897 0.53901 0.699733
0 0.412604 0.582635
0.000167849 0.427756 0.594629
0.00202945 0.50074 0.640833
0.125933 0.56379 0.671962
0.425254 0.6009 0.685389
0.611582 0.629999 0.689509
0.732662 0.64654 0.701244
0.855482 0.640955 0.699031
0.92903 0.647654 0.701869
0 0.471504 0.594888
0.000122072 0.485878 0.603311
0.000900282 0.565621 0.646265
0.0789349 0.642145 0.67776
0.395346 0.687266 0.692653
0.610529 0.710521 0.698909
0.737285 0.734386 0.723827
0.863981 0.747509 0.711543
0.957 0.755306 0.70695
0 0.531701 0.60972
7.62951e-05 0.539391 0.612116
0.000167849 0.624094 0.652308
0.0542763 0.713771 0.684779
0.365927 0.768933 0.70013
0.593027 0.802777 0.706813
0.760479 0.824994 0.71986
0.888273 0.847333 0.723918
0.984192 0.864607 0.721431
0 0.570413 0.630426
4.57771e-05 0.576547 0.6309
0.000167849 0.67097 0.673045
0.0476997 0.771359 0.706828
0.357305 0.835599 0.724559
0.60145 0.879393 0.736797
0.785229 0.915099 0.751888
0.937438 0.946334 0.774456
1 0.968811 0.810269
3.0518e-05 0.00321965 0.439429
0.00134279 0.00144961 0.489281
0.116365 0.00154116 0.539925
0.253559 0.000823987 0.56968
0.365606 7.62951e-05 0.58793
0.467002 6.10361e-05 0.598657
0.559457 4.57771e-05 0.606088
0.624781 3.0518e-05 0.610941
0.655634 3.0518e-05 0.619715
3.0518e-05 0.137118 0.550973
0.000732433 0.148989 0.599954
0.104845 0.159609 0.650599
0.289738 0.152377 0.676051
0.424125 0.120745 0.687968
0.536431 0.0907149 0.693599
0.631556 0.0565042 0.696269
0.706249 0.0279698 0.698177
0.742519 0.0293126 0.705699
0 0.237858 0.606958
0.000259403 0.259998 0.649454
0.0487068 0.296834 0.702739
0.278096 0.312871 0.73106
0.450553 0.31368 0.746685
0.577722 0.3028 0.751766
0.684825 0.285313 0.754299
0.773693 0.265751 0.75761
0.81709 0.267109 0.763882
0 0.310048 0.634485
0.000167849 0.331792 0.665354
0.0145113 0.383658 0.719203
0.231861 0.415686 0.749172
0.442969 0.428595 0.764736
0.591241 0.431617 0.772183
0.709438 0.42829 0.775555
0.809201 0.427344 0.779461
0.863249 0.433524 0.785504
0 0.370871 0.650065
0.000167849 0.39176 0.670375
0.00309758 0.454932 0.723262
0.158434 0.500648 0.755718
0.42446 0.52665 0.773037
0.591699 0.537758 0.781857
0.725841 0.544488 0.787549
0.834134 0.549569 0.791852
0.897795 0.556329 0.795529
0 0.431952 0.662303
0.000167849 0.445319 0.672587
0.00164797 0.517968 0.7243
0.098497 0.581323 0.761593
0.397971 0.616602 0.780194
0.59176 0.638224 0.789273
0.73402 0.650553 0.794232
0.851026 0.657038 0.797711
0.925765 0.664652 0.800534
0 0.488167 0.673548
0.000122072 0.500755 0.680232
0.00077821 0.579538 0.728359
0.0675669 0.656413 0.766171
0.368597 0.701289 0.78526
0.584634 0.728389 0.793835
0.744396 0.751888 0.799832
0.859007 0.765499 0.807706
0.951614 0.769558 0.807294
0 0.546899 0.687495
7.62951e-05 0.553796 0.689311
0.000167849 0.637507 0.734417
0.0483864 0.727855 0.7738
0.340566 0.783154 0.793484
0.578408 0.818601 0.804852
0.754574 0.841474 0.814939
0.871534 0.862074 0.841093
0.978607 0.880491 0.827482
0 0.583627 0.701854
4.57771e-05 0.589868 0.703182
0.000167849 0.684535 0.752712
0.0444953 0.785061 0.794293
0.334768 0.849165 0.816556
0.591073 0.893828 0.834333
0.778958 0.929686 0.852354
0.935454 0.961517 0.879164
0.999634 0.982879 0.913558
4.57771e-05 0.0055848 0.479713
0.00134279 0.00202945 0.52958
0.110918 0.00204471 0.58114
0.252018 0.00161746 0.61239
0.367437 0.00047303 0.632166
0.471809 6.10361e-05 0.645609
0.566873 4.57771e-05 0.655711
0.633082 3.0518e-05 0.663554
0.664042 3.0518e-05 0.669596
3.0518e-05 0.151202 0.595651
0.000183108 0.16405 0.647517
0.0759136 0.178836 0.703716
0.277378 0.175235 0.73315
0.418418 0.147829 0.74757
0.53576 0.11162 0.75584
0.634165 0.0831159 0.760678
0.713542 0.0636606 0.764675
0.751888 0.0641642 0.771634
0 0.255833 0.656184
0.000167849 0.278965 0.70106
0.0184024 0.317311 0.758877
0.247135 0.336217 0.792081
0.437308 0.338277 0.8112
0.57319 0.32932 0.821317
0.684764 0.314717 0.827893
0.777508 0.301198 0.833753
0.823346 0.301823 0.839506
0 0.327276 0.687114
0.000167849 0.349004 0.719753
0.00881971 0.401511 0.77937
0.191791 0.43563 0.816037
0.423285 0.449989 0.837217
0.580499 0.454337 0.849378
0.705455 0.452461 0.857282
0.808392 0.451514 0.863615
0.865705 0.457771 0.869932
0 0.387549 0.706859
0.000167849 0.408148 0.729885
0.00248722 0.471244 0.789364
0.132647 0.519203 0.830167
0.40145 0.546578 0.852888
0.578988 0.55845 0.866606
0.718837 0.566476 0.876463
0.830243 0.571893 0.883207
0.897917 0.579522 0.888395
0 0.448218 0.723812
0.000167849 0.462058 0.737133
0.00148013 0.534463 0.796399
0.0851301 0.598749 0.841718
0.372107 0.634745 0.865553
0.576196 0.656886 0.880491
0.723552 0.666911 0.889052
0.844694 0.676265 0.894163
0.923522 0.686198 0.898528
0 0.504463 0.738766
0.000122072 0.517143 0.747997
0.000656138 0.594354 0.803616
0.0591287 0.671412 0.849668
0.337713 0.716915 0.874052
0.562997 0.744183 0.887999
0.726986 0.762707 0.896819
0.856291 0.775753 0.902678
0.946563 0.787701 0.907866
0 0.560021 0.753124
6.10361e-05 0.567025 0.757488
0.000167849 0.649577 0.809918
0.041474 0.740001 0.857023
0.305669 0.796094 0.882933
0.556542 0.832441 0.899016
0.735653 0.858335 0.910445
0.876493 0.879835 0.920638
0.972366 0.89688 0.929503
0 0.595529 0.76495
4.57771e-05 0.601907 0.767819
0.000167849 0.696132 0.823972
0.0393378 0.796155 0.873274
0.302846 0.860578 0.902144
0.575891 0.906035 0.924315
0.773175 0.942824 0.945083
0.933593 0.973877 0.967147
0.997086 0.993484 0.989227
