src/assets/luts/Alen Palander - Yosemite.cube
TITLE "Generated by Resolve"
LUT_3D_SIZE 33
0 0 0
0.00776684 0.000244144 0.000762951
0.0155032 0.000244144 0.00131228
0.0234073 1.5259e-05 0.00164797
0.0293584 1.5259e-05 0.00129702
0.0351415 0.000503548 0.000854505
0.0411078 0.00201419 0.000366217
0.0482948 0.00509651 0.000122072
0.0561227 0.00894179 0
0.0698558 0.00863661 0
0.0849928 0.00735485 0
0.103395 0.00416571 0
0.126162 0.0019379 0
0.151308 0.000198367 0
0.183246 4.57771e-05 0
0.216617 0 0
0.253605 0 0
0.293538 0 0
0.335637 0 0
0.371435 0 0
0.405753 0 0
0.436851 0 0
0.466377 0 0
0.493462 0 0
0.513313 0 1.5259e-05
0.528878 0 1.5259e-05
0.543267 0 1.5259e-05
0.556725 0 1.5259e-05
0.566903 0 1.5259e-05
0.575769 0 1.5259e-05
0.582498 0 1.5259e-05
0.588373 0 1.5259e-05
0.593652 1.5259e-05 1.5259e-05
0.000213626 0.00616464 0.000213626
0.00801099 0.00643931 0.000915541
0.01561 0.00686656 0.00125124
0.0227665 0.00720226 0.0011902
0.0288853 0.00788891 0.00138857
0.0349584 0.00900282 0.00163272
0.0412451 0.0110323 0.00190738
0.0487373 0.0138705 0.00158694
0.0568093 0.0169528 0.000915541
0.0709697 0.016434 0.000396735
0.0866102 0.0154269 4.57771e-05
0.105608 0.0134127 1.5259e-05
0.128679 0.0101167 0
0.154864 0.00602731 0
0.187076 0.00296025 0
0.220737 0.000579843 0
0.25835 0.000244144 0
0.298589 9.15541e-05 0
0.341146 9.15541e-05 0
0.378332 9.15541e-05 0
0.413367 9.15541e-05 0
0.444709 9.15541e-05 0
0.474723 9.15541e-05 0
0.502022 9.15541e-05 0
0.522942 9.15541e-05 0
0.538918 9.15541e-05 0
0.553094 9.15541e-05 0
0.566522 9.15541e-05 1.5259e-05
0.576638 9.15541e-05 1.5259e-05
0.585611 9.15541e-05 1.5259e-05
0.592355 9.15541e-05 1.5259e-05
0.598199 0.000106813 1.5259e-05
0.603296 0.000106813 1.5259e-05
0.000289921 0.0126497 0.000488289
0.00831617 0.0129091 0.000946059
0.0159152 0.0135042 0.00114443
0.022385 0.0143435 0.0009308
0.0285496 0.0157015 0.00161746
0.0347753 0.0174258 0.00256352
0.0414435 0.0200198 0.00381476
0.0491188 0.0224765 0.00361639
0.0575418 0.024918 0.0024567
0.0722057 0.0244297 0.0012665
0.088426 0.0237278 0.000335698
0.108141 0.0228733 0.000106813
0.132067 0.0192111 1.5259e-05
0.158679 0.0133516 0
0.191241 0.00743114 0
0.225788 0.00225834 0
0.264256 0.000976577 0
0.304997 0.000228885 0
0.348577 0.000167849 0
0.386496 0.00015259 0
0.42237 0.00015259 0
0.453956 0.00015259 0
0.484367 0.00015259 0
0.512062 0.00015259 0
0.533516 0.00015259 0
0.549661 0.00015259 0
0.563851 0.00015259 0
0.577279 0.00015259 0
0.587259 0.00015259 0
0.596368 0.00015259 0
0.603021 0.000167849 1.5259e-05
0.608896 0.000167849 1.5259e-05
0.613886 0.000167849 1.5259e-05
6.10361e-05 0.0194705 0.000839246
0.00862135 0.0191501 0.000732433
0.0167697 0.0192264 0.000823987
0.022797 0.0198367 0.00115969
0.0287633 0.0212406 0.00228885
0.0348821 0.0230259 0.00383001
0.0417334 0.0255283 0.00628672
0.0495918 0.0277714 0.00666819
0.0582284 0.0298314 0.00541695
0.0732891 0.0301823 0.00334173
0.0903639 0.0302586 0.00141909
0.110887 0.0301518 0.000503548
0.135317 0.027512 4.57771e-05
0.162982 0.0226291 0
0.196658 0.0147707 0
0.231983 0.0069276 0
0.272221 0.00297551 0
0.313619 0.000549325 0
0.358099 0.000259403 0
0.396704 0.000183108 0
0.433112 0.000183108 0
0.465278 0.000183108 0
0.496437 0.000183108 0
0.523873 0.000183108 0
0.545769 0.000183108 0
0.56202 0.000183108 0
0.576059 0.000183108 0
0.589593 0.000183108 0
0.599527 0.000183108 0
0.608423 0.000183108 0
0.615045 0.000183108 0
0.62089 0.000183108 0
0.625757 0.000183108 1.5259e-05
0 0.0257267 0.0034638
0.00831617 0.0254063 0.00265507
0.0168154 0.025391 0.00221256
0.0231327 0.0258183 0.00248722
0.0292515 0.026978 0.0037232
0.0354467 0.0285496 0.00546273
0.0425574 0.0309453 0.00833143
0.0505684 0.0332341 0.00924697
0.0594492 0.0352789 0.00822461
0.0748455 0.0365454 0.00578317
0.0923018 0.0375525 0.00320439
0.113832 0.0382696 0.00132753
0.138842 0.0368963 0.000259403
0.167742 0.0332647 4.57771e-05
0.202411 0.024445 0
0.239475 0.0144656 0
0.280446 0.00654612 0
0.322759 0.00123598 0
0.368399 0.000457771 0
0.408469 0.000183108 0
0.445624 0.000183108 0
0.478492 0.000183108 0
0.509682 0.000183108 0
0.537057 0.000183108 0
0.55967 0.000183108 0
0.57583 0.000183108 0
0.590295 0.000183108 0
0.60351 0.000183108 0
0.613306 0.000183108 0
0.622217 0.000183108 0
0.628672 0.000183108 0
0.634516 0.000183108 0
0.639643 0.000183108 0
0 0.0317845 0.00706493
0.00772107 0.031693 0.00570687
0.016434 0.031754 0.00454719
0.0233616 0.0320439 0.00447089
0.0298924 0.0328374 0.00563058
0.0363165 0.0339971 0.00737011
0.0437324 0.036347 0.0101472
0.0518959 0.0386969 0.0114137
0.0610208 0.0410925 0.0109102
0.0766003 0.0432288 0.00843824
0.0943465 0.045243 0.00549325
0.116762 0.0469368 0.00250248
0.142504 0.0469215 0.000610361
0.172961 0.0447089 0.000122072
0.208789 0.0356146 0
0.246754 0.0240787 0
0.289052 0.0113069 0
0.33283 0.00218204 0
0.379217 0.00077821 0
0.420981 0.000198367 0
0.459037 0.000183108 0
0.491936 0.000183108 0
0.523293 0.000183108 0
0.551141 0.000183108 0
0.574212 0.000183108 0
0.590631 0.000183108 0
0.604837 0.000183108 0
0.618143 0.000183108 0
0.627939 0.000183108 0
0.636988 0.000183108 0
0.643259 0.000183108 0
0.64918 0.000183108 0
0.654185 0.000183108 0
0 0.0386664 0.0113375
0.00701915 0.0388495 0.0105135
0.0154421 0.0392309 0.00972
0.0225986 0.0396887 0.00947585
0.0295109 0.040589 0.00981155
0.0364233 0.0417487 0.0104677
0.0449226 0.0439918 0.0117647
0.0539101 0.0464179 0.0123445
0.0634775 0.0491798 0.0119478
0.0793774 0.0519112 0.00927749
0.0976425 0.0546883 0.00596628
0.121004 0.0572671 0.00291447
0.147814 0.0586252 0.000823987
0.179461 0.0579995 0.000198367
0.216632 0.0518044 1.5259e-05
0.256107 0.0431678 0
0.299825 0.0264591 0
0.344778 0.0123598 0
0.392889 0.00495918 0
0.435508 0.00123598 0
0.474144 0.000442512 0
0.507851 0.000259403 0
0.539879 0.000198367 0
0.567498 0.000198367 0
0.591363 0.000198367 0
0.607614 0.000198367 0
0.62211 0.000198367 0
0.635386 0.000198367 0
0.645258 0.000183108 0
0.654521 0.000183108 0
0.660716 0.000183108 0
0.666423 0.000183108 0
0.671107 0.000183108 0
0 0.0464485 0.014786
0.00604257 0.0467231 0.0143893
0.0139162 0.047303 0.0139467
0.0211337 0.0479438 0.0137026
0.0284886 0.049012 0.0135195
0.0359045 0.0502937 0.0133516
0.0454261 0.0525673 0.0132906
0.0552377 0.0550546 0.0130312
0.0656748 0.0580301 0.0124971
0.0821241 0.061387 0.00952163
0.10103 0.0648356 0.00570687
0.125658 0.0683299 0.00283818
0.153185 0.0708019 0.000823987
0.186328 0.0716716 0.000228885
0.224826 0.0682841 1.5259e-05
0.266209 0.0628824 0
0.311238 0.0460212 0
0.357916 0.0295872 0
0.407065 0.0154574 0
0.450935 0.00682078 0
0.49015 0.0034638 0
0.524575 0.00248722 0
0.557671 0.00222782 0
0.585397 0.00207523 0
0.609491 0.00195315 0
0.625788 0.00183108 0
0.64036 0.00172427 0
0.653544 0.00158694 0
0.663706 0.00148013 0
0.672862 0.00140383 0
0.679026 0.00141909 0
0.684642 0.00146487 0
0.689342 0.00154116 0
0 0.0554818 0.0171206
0.00479133 0.055787 0.0168154
0.0116121 0.0565347 0.016495
0.0184482 0.0573892 0.0163119
0.0261082 0.058793 0.0159304
0.0342107 0.0604105 0.0153811
0.0443427 0.0630198 0.014435
0.0550546 0.0657359 0.0133974
0.0670939 0.0686809 0.0121309
0.0846113 0.0723888 0.00852979
0.104677 0.0764935 0.00386053
0.130297 0.0805371 0.00177005
0.159091 0.0840162 0.000274662
0.193988 0.0862287 7.62951e-05
0.234043 0.0856184 0
0.277394 0.0834821 0
0.324392 0.0734874 0
0.372091 0.0601663 0
0.422904 0.0378424 0
0.468452 0.0216068 0
0.508263 0.0120241 0
0.543557 0.00881971 0
0.576699 0.00776684 0
0.604837 0.0071107 0
0.629664 0.00653086 0
0.64535 0.00602731 0
0.659815 0.00549325 0
0.673274 0.00492866 0
0.683299 0.00448615 0
0.692485 0.0041352 0
0.698436 0.0041352 0
0.704005 0.00416571 0
0.70869 0.0043183 0
0 0.0675975 0.0179751
0.00271611 0.0677653 0.0177768
0.00704967 0.068574 0.0175174
0.0121309 0.069688 0.0173648
0.0198825 0.0710765 0.016907
0.0294652 0.0728771 0.0162203
0.0421607 0.0757763 0.0145876
0.0552224 0.0788128 0.012665
0.068925 0.0821241 0.010193
0.0876173 0.0863661 0.00674449
0.108782 0.0910658 0.00280766
0.135958 0.0959793 0.00117494
0.166033 0.100572 4.57771e-05
0.202686 0.10428 1.5259e-05
0.244633 0.106325 0
0.289815 0.10692 0
0.337819 0.101946 0
0.386969 0.0943465 0
0.438895 0.0762951 0
0.485893 0.061265 0
0.526986 0.0501717 0
0.562646 0.0444343 0
0.59646 0.0411536 0
0.624765 0.0377661 0
0.650309 0.0348363 0
0.666255 0.0328374 0
0.680903 0.0304723 0
0.694072 0.0277867 0
0.704448 0.0259861 0
0.713664 0.024506 0
0.719707 0.0243229 0
0.725353 0.0243534 0
0.730083 0.0254063 0
0 0.0809186 0.0182193
0.000671397 0.0811475 0.0180667
0.00190738 0.0820325 0.017792
0.00456245 0.0831617 0.0175937
0.0117647 0.0847639 0.0171359
0.0230411 0.086717 0.0164492
0.0391546 0.0898604 0.0142367
0.0556039 0.0933852 0.0113832
0.0710155 0.0972 0.00738537
0.090837 0.101946 0.0043946
0.11342 0.107424 0.00201419
0.142077 0.113298 0.000823987
0.173281 0.11902 0
0.212284 0.124498 0
0.255329 0.128588 0
0.302129 0.131411 0
0.351659 0.13109 0
0.402136 0.129274 0
0.454932 0.121309 0
0.503716 0.112261 0
0.545693 0.100999 0
0.582345 0.0931563 0
0.616236 0.0864271 0
0.645197 0.0794537 0
0.671443 0.0733806 0
0.687709 0.0698253 0
0.70248 0.0654917 0
0.715755 0.0606241 0
0.726085 0.0571145 0
0.735393 0.0547189 0
0.741939 0.0552377 0
0.747646 0.0554208 0
0.752132 0.0569772 0
0 0.0965591 0.0170901
0.000259403 0.0968185 0.0167544
0.00077821 0.0980392 0.0161288
0.00207523 0.0994125 0.0155642
0.00788891 0.101305 0.014374
0.0184329 0.103624 0.0125734
0.0363012 0.107271 0.0102388
0.0548409 0.111101 0.00769055
0.0724651 0.115557 0.00442512
0.0937667 0.121126 0.00225834
0.118074 0.127779 0.000900282
0.14815 0.135119 0.000366217
0.18146 0.142672 0
0.222263 0.149584 0
0.266911 0.155566 0
0.315312 0.160555 0
0.366476 0.162631 0
0.418784 0.163989 0
0.473136 0.160967 0
0.523018 0.156878 0
0.565515 0.151217 0
0.603006 0.145724 0
0.637629 0.140337 0
0.667765 0.134981 0
0.694804 0.129717 0
0.710857 0.126574 0
0.725719 0.123018 0
0.739071 0.119829 0
0.749798 0.117662 0
0.759457 0.116365 0
0.765881 0.116548 0
0.771618 0.116747 0
0.776242 0.11873 0
0 0.113924 0.0140993
6.10361e-05 0.114031 0.0138857
0.00015259 0.115557 0.013138
0.000518807 0.117205 0.0122988
0.00450141 0.119554 0.0108034
0.0131685 0.122301 0.00859083
0.0314946 0.126299 0.00642405
0.0518044 0.130663 0.00425727
0.0722362 0.135897 0.00199893
0.0956893 0.142306 0.000656138
0.122286 0.150393 0.000122072
0.154391 0.159289 1.5259e-05
0.189227 0.168505 0
0.232029 0.177111 0
0.278309 0.184848 0
0.329 0.191882 0
0.381918 0.196872 0
0.435187 0.200717 0
0.491264 0.201419 0
0.54284 0.201434 0
0.586023 0.199969 0
0.624659 0.19765 0
0.66038 0.194629 0
0.690898 0.190845 0
0.718959 0.187259 0
0.735164 0.185504 0
0.750103 0.183597 0
0.76376 0.182849 0
0.775082 0.182589 0
0.784634 0.182239 0
0.791028 0.182666 0
0.796841 0.183383 0
0.80148 0.185611 0
0 0.133074 0.00909438
4.57771e-05 0.13344 0.00888075
0.00015259 0.135302 0.00813306
0.000320439 0.137621 0.00697337
0.00225834 0.140368 0.00573739
0.00691234 0.143954 0.00433356
0.0238346 0.148562 0.00282292
0.0445411 0.153903 0.00134279
0.0689555 0.159976 0.000640879
0.0960861 0.167865 0.000183108
0.12546 0.176974 3.0518e-05
0.159731 0.187381 0
0.196414 0.198108 0
0.241794 0.208789 0
0.290532 0.21883 0
0.343877 0.228 0
0.398047 0.234882 0
0.452842 0.241032 0
0.51043 0.244434 0
0.563836 0.247059 0
0.608499 0.24831 0
0.647959 0.248432 0
0.684047 0.248508 0
0.71545 0.247395 0
0.744396 0.246647 0
0.760616 0.246983 0
0.776242 0.24799 0
0.789883 0.249042 0
0.801099 0.250233 0
0.810773 0.25156 0
0.817456 0.253437 0
0.823346 0.254932 0
0.82826 0.258137 0
0 0.155291 0.00447089
4.57771e-05 0.155612 0.00444038
0.00015259 0.158206 0.0039826
0.000213626 0.160906 0.00326543
0.0010071 0.164248 0.00251774
0.00309758 0.168399 0.00183108
0.0158236 0.17406 0.00103761
0.033341 0.18024 0.000274662
0.0618601 0.18793 0.000106813
0.0928664 0.196597 1.5259e-05
0.126619 0.207111 0
0.164019 0.218997 0
0.203342 0.231327 0
0.251667 0.24445 0
0.302632 0.256535 0
0.35787 0.267414 0
0.414145 0.276143 0
0.470832 0.28455 0
0.529686 0.290364 0
0.585245 0.295628 0
0.630518 0.298528 0
0.671 0.300435 0
0.707607 0.302098 0
0.740032 0.303349 0
0.770077 0.304158 0
0.786801 0.305989 0
0.802396 0.307332 0
0.816175 0.309148 0
0.82771 0.311025 0
0.837415 0.312932 0
0.844266 0.314992 0
0.850538 0.317418 0
0.854978 0.319356 0
0 0.178744 0.000640879
4.57771e-05 0.179065 0.00062562
0.000137331 0.181949 0.000549325
0.000167849 0.185245 0.000366217
0.000244144 0.189166 0.000198367
0.000457771 0.194141 0.000122072
0.00836194 0.200732 6.10361e-05
0.0208438 0.208209 1.5259e-05
0.0528725 0.216938 0
0.0877699 0.227039 0
0.126711 0.239063 0
0.167819 0.252445 0
0.210269 0.266606 0
0.261067 0.281331 0
0.314229 0.295369 0
0.37174 0.307942 0
0.429679 0.318853 0
0.488533 0.329152 0
0.549111 0.337499 0
0.605936 0.344854 0
0.652155 0.349172 0
0.693706 0.352575 0
0.731044 0.355398 0
0.76437 0.358511 0
0.79559 0.361242 0
0.812222 0.36286 0
0.828244 0.365057 0
0.84213 0.367376 0
0.853834 0.369726 0
0.863981 0.372793 0
0.87071 0.374731 0
0.876783 0.376898 0
0.881086 0.378714 0
0 0.204257 0.000198367
4.57771e-05 0.204623 0.000213626
0.000137331 0.207752 0.000198367
0.000167849 0.211582 0.000137331
0.000198367 0.216052 7.62951e-05
0.000289921 0.222187 4.57771e-05
0.00636301 0.229557 1.5259e-05
0.0158541 0.237598 0
0.0454108 0.247486 0
0.0800183 0.258427 0
0.124208 0.272267 0
0.169879 0.287449 0
0.216129 0.302922 0
0.269306 0.319203 0
0.324712 0.334951 0
0.384329 0.349462 0
0.44448 0.362188 0
0.505074 0.374121 0
0.5664 0.383978 0
0.624979 0.392645 0
0.672038 0.398627 0
0.714992 0.403326 0
0.753124 0.407507 0
0.78677 0.41117 0
0.818601 0.414725 0
0.836027 0.417502 0
0.852461 0.42002 0
0.866392 0.422705 0
0.87866 0.426093 0
0.888518 0.428733 0
0.895567 0.431281 0
0.901747 0.433707 0
0.90605 0.435676 0
0 0.231006 0
3.0518e-05 0.23125 0
0.000137331 0.234974 0
0.000167849 0.239338 0
0.000183108 0.244617 0
0.000198367 0.251057 0
0.00396735 0.259129 0
0.0099031 0.268269 0
0.0347906 0.279072 0
0.0684672 0.291676 0
0.119509 0.306996 0
0.170565 0.323522 0
0.221241 0.340658 0
0.277668 0.358755 0
0.335225 0.37612 0
0.397498 0.39234 0
0.459678 0.407004 0
0.522011 0.420478 0
0.584726 0.431724 0
0.645197 0.442359 0
0.692714 0.448997 0
0.737057 0.455436 0
0.775692 0.460334 0
0.80972 0.464927 0
0.84242 0.469795 0
0.860014 0.472724 0
0.876738 0.476051 0
0.891066 0.479576 0
0.903197 0.482933 0
0.913039 0.485756 0
0.920058 0.488304 0
0.926131 0.490654 0
0.93077 0.493462 0
0 0.25919 0
3.0518e-05 0.259419 0
0.000137331 0.263493 0
0.000167849 0.268894 0
0.000183108 0.274586 0
0.000183108 0.281758 0
0.00111391 0.290669 0
0.00263981 0.300725 0
0.0196078 0.313191 0
0.0508125 0.326802 0
0.112139 0.343465 0
0.169833 0.361547 0
0.226139 0.38088 0
0.285451 0.400595 0
0.346853 0.420188 0
0.411673 0.437873 0
0.475807 0.453696 0
0.53933 0.468101 0
0.604028 0.481468 0
0.66656 0.493858 0
0.715114 0.501717 0
0.759518 0.508522 0
0.798779 0.514412 0
0.833478 0.519997 0
0.86659 0.525536 0
0.884443 0.529015 0
0.901152 0.532921 0
0.915496 0.536629 0
0.927749 0.540307 0
0.937545 0.543359 0
0.94432 0.54551 0
0.950149 0.547372 0
0.954528 0.549874 0
0 0.283146 0
3.0518e-05 0.283909 0
0.000122072 0.28864 0
0.000167849 0.294514 0
0.000183108 0.300908 0
0.000183108 0.308843 0
0.000350958 0.318425 0
0.000656138 0.329534 0
0.0125277 0.34255 0
0.0399939 0.357046 0
0.104463 0.374929 0
0.167178 0.394446 0
0.228443 0.414527 0
0.291264 0.435996 0
0.354574 0.456565 0
0.421195 0.475746 0
0.487221 0.492958 0
0.552865 0.50898 0
0.618402 0.52314 0
0.682368 0.5364 0
0.731884 0.545098 0
0.777295 0.552758 0
0.816495 0.558862 0
0.851835 0.565164 0
0.885679 0.571771 0
0.903639 0.575174 0
0.920363 0.57879 0
0.934615 0.582498 0
0.946578 0.58555 0
0.956451 0.588815 0
0.963363 0.591363 0
0.969116 0.593393 0
0.973053 0.595361 0
0 0.306371 0
3.0518e-05 0.307012 0
0.000122072 0.312261 0
0.000167849 0.318715 0
0.000183108 0.325795 0
0.000183108 0.334462 0
0.000198367 0.345052 0
0.000213626 0.356435 0
0.00839246 0.370153 0
0.0320592 0.385367 0
0.0974746 0.404517 0
0.163958 0.425254 0
0.230488 0.446387 0
0.295537 0.468681 0
0.361166 0.490684 0
0.42974 0.510964 0
0.497536 0.529488 0
0.56524 0.547005 0
0.632029 0.562005 0
0.696559 0.575921 0
0.747341 0.585718 0
0.793729 0.594217 0
0.833265 0.600916 0
0.869078 0.607584 0
0.902693 0.614145 0
0.921202 0.618021 0
0.938201 0.621698 0
0.952193 0.625101 0
0.963943 0.628168 0
0.973312 0.631098 0
0.97937 0.633158 0
0.984283 0.635203 0
0.987243 0.636927 0
0 0.327916 0
1.5259e-05 0.328298 0
0.000122072 0.333898 0
0.000167849 0.340505 0
0.000183108 0.34815 0
0.000183108 0.357519 0
0.000198367 0.368383 0
0.000213626 0.380606 0
0.00810254 0.394873 0
0.030457 0.410574 0
0.0958267 0.430762 0
0.162493 0.451972 0
0.230442 0.474159 0
0.298268 0.497353 0
0.366354 0.52015 0
0.436942 0.541741 0
0.506706 0.561837 0
0.575051 0.579858 0
0.643153 0.59588 0
0.709087 0.610788 0
0.760021 0.621073 0
0.807065 0.630198 0
0.848432 0.638315 0
0.884169 0.645045 0
0.917571 0.651591 0
0.936278 0.655528 0
0.953353 0.65922 0
0.96733 0.66276 0
0.978744 0.665949 0
0.987121 0.668467 0
0.991806 0.670497 0
0.994965 0.671992 0
0.996719 0.674189 0
0 0.347372 0
1.5259e-05 0.347845 0
0.000122072 0.353826 0
0.000167849 0.360967 0
0.000183108 0.368887 0
0.000183108 0.378836 0
0.000198367 0.390127 0
0.000213626 0.40293 0
0.00790417 0.417838 0
0.0297398 0.434501 0
0.0946059 0.454963 0
0.161746 0.476829 0
0.230488 0.49958 0
0.300954 0.52372 0
0.371786 0.547845 0
0.444327 0.570443 0
0.515007 0.59089 0
0.584451 0.609766 0
0.653666 0.626566 0
0.720821 0.64242 0
0.772869 0.653193 0
0.820279 0.662852 0
0.861402 0.670756 0
0.89752 0.677943 0
0.931273 0.684749 0
0.949844 0.688411 0
0.966583 0.692195 0
0.978958 0.695262 0
0.988342 0.698192 0
0.994324 0.70074 0
0.996948 0.702525 0
0.998428 0.704051 0
0.999054 0.705867 0
0 0.365591 0
1.5259e-05 0.366186 0
0.000122072 0.372747 0
0.000167849 0.380087 0
0.000183108 0.388235 0
0.000183108 0.398459 0
0.000198367 0.410361 0
0.000213626 0.42385 0
0.0077821 0.439292 0
0.0290684 0.456382 0
0.0933547 0.477485 0
0.160845 0.499901 0
0.230686 0.523323 0
0.303426 0.548516 0
0.375708 0.573175 0
0.450599 0.596872 0
0.523415 0.618463 0
0.593774 0.637873 0
0.664012 0.65536 0
0.732464 0.672007 0
0.78468 0.682933 0
0.832532 0.692729 0
0.87335 0.700587 0
0.909636 0.707866 0
0.943847 0.71487 0
0.962203 0.718288 0
0.977905 0.721294 0
0.98854 0.724163 0
0.995529 0.72668 0
0.998856 0.728847 0
0.999786 0.73051 0
1 0.731716 0
1 0.732769 0
0 0.375998 0
1.5259e-05 0.377035 0
0.000122072 0.384298 0
0.000167849 0.392279 0
0.000183108 0.400931 0
0.000183108 0.411673 0
0.000198367 0.423926 0
0.000213626 0.437766 0
0.00775158 0.453574 0
0.0285649 0.470771 0
0.0927138 0.492149 0
0.160464 0.514809 0
0.231922 0.538811 0
0.305028 0.563958 0
0.378531 0.588861 0
0.453681 0.612634 0
0.526528 0.63447 0
0.598123 0.654597 0
0.668498 0.672099 0
0.736202 0.688182 0
0.789075 0.699641 0
0.837079 0.709728 0
0.878676 0.717906 0
0.915236 0.725368 0
0.949615 0.732296 0
0.96791 0.735714 0
0.98352 0.738918 0
0.992737 0.741909 0
0.997925 0.744381 0
0.999603 0.7467 0
0.999954 0.748318 0
1 0.749767 0
1 0.750866 0
0 0.38587 0
1.5259e-05 0.386877 0
0.000122072 0.394705 0
0.000167849 0.403128 0
0.000183108 0.412192 0
0.000183108 0.423453 0
0.000198367 0.435966 0
0.000213626 0.45008 0
0.00775158 0.466209 0
0.0285954 0.48365 0
0.0932784 0.505516 0
0.161959 0.52871 0
0.233539 0.552651 0
0.307469 0.577966 0
0.38117 0.602899 0
0.457176 0.627161 0
0.530907 0.649409 0
0.603479 0.670024 0
0.673304 0.687358 0
0.740719 0.703441 0
0.794293 0.715145 0
0.84271 0.725444 0
0.884657 0.733867 0
0.921294 0.741207 0
0.955474 0.747936 0
0.973419 0.751293 0
0.988266 0.754559 0
0.995483 0.757321 0
0.999084 0.75993 0
0.999878 0.761944 0
1 0.763516 0
1 0.764858 0
1 0.766018 0
0 0.394995 0
1.5259e-05 0.396002 0
0.000122072 0.40383 0
0.000167849 0.412497 0
0.000183108 0.422019 0
0.000183108 0.43331 0
0.000198367 0.446174 0
0.000213626 0.460548 0
0.00784314 0.476875 0
0.0293278 0.494804 0
0.0946822 0.517174 0
0.163958 0.540551 0
0.236027 0.564584 0
0.310796 0.590188 0
0.385824 0.615564 0
0.462898 0.640421 0
0.537209 0.662882 0
0.609171 0.683406 0
0.679759 0.701106 0
0.747051 0.717296 0
0.800488 0.72903 0
0.849165 0.739467 0
0.890944 0.747967 0
0.927291 0.75523 0
0.960922 0.761975 0
0.978576 0.765438 0
0.992203 0.768597 0
0.997299 0.771344 0
0.999496 0.773617 0
0.999954 0.775631 0
1 0.776989 0
1 0.778195 0
1 0.779385 0
0 0.401801 0
1.5259e-05 0.402975 0
0.000122072 0.411246 0
0.000167849 0.420264 0
0.000183108 0.429831 0
0.000183108 0.441428 0
0.000198367 0.454627 0
0.000213626 0.469306 0
0.00814832 0.486091 0
