src/assets/luts/Alen Palander - Toronto.cube
TITLE "Generated by Resolve"
LUT_3D_SIZE 33
0.000274662 0.00802625 0.0183566
0.000274662 0.00642405 0.0165103
0.000274662 0.00491341 0.014786
0.0120394 0.00390631 0.0137179
0.0245365 0.00323491 0.0128786
0.0350805 0.00402838 0.0119173
0.0476081 0.00694286 0.0103151
0.0617227 0.00943008 0.00860609
0.0796368 0.00833143 0.00694286
0.0984207 0.00582895 0.00550851
0.117449 0.00294499 0.00434882
0.136553 0.00102235 0.00341802
0.157336 0.000350958 0.0024567
0.178729 0.000167849 0.00164797
0.200031 3.0518e-05 0.0010071
0.223072 0 0.000549325
0.246143 0 0.000244144
0.269368 0 0.000106813
0.296193 0 3.0518e-05
0.323796 0 0
0.35172 0 0
0.377234 0 0
0.402304 0 0
0.428122 0 0
0.456046 0 0
0.485588 0 0
0.512108 0 0
0.535485 0 0
0.557916 0 0
0.575448 0 0
0.5906 0 0
0.605371 0 0
0.606989 0 0
7.62951e-05 0.0162356 0.0167239
9.15541e-05 0.0148165 0.0150607
0.000106813 0.01355 0.0135195
0.0091249 0.0126955 0.0119478
0.0231174 0.0122225 0.0108797
0.0339666 0.0132906 0.0113832
0.0466316 0.0149844 0.0105135
0.0612039 0.0175174 0.00917067
0.0811475 0.0164187 0.00743114
0.101518 0.0141299 0.00607309
0.12192 0.0112001 0.005066
0.141833 0.00830091 0.00415045
0.163149 0.00584421 0.00309758
0.185275 0.00395209 0.0021973
0.206775 0.00234989 0.00143435
0.229969 0.00129702 0.000839246
0.253162 0.000579843 0.000427253
0.276524 0.000183108 0.000213626
0.3037 0.000106813 0.000106813
0.331655 4.57771e-05 6.10361e-05
0.358968 3.0518e-05 3.0518e-05
0.384039 3.0518e-05 1.5259e-05
0.408804 1.5259e-05 0
0.434821 1.5259e-05 0
0.462562 1.5259e-05 0
0.492149 1.5259e-05 0
0.517586 1.5259e-05 0
0.540597 1.5259e-05 0
0.562554 1.5259e-05 0
0.579095 1.5259e-05 0
0.594034 1.5259e-05 0
0.608515 1.5259e-05 0
0.60827 0 0
0 0.0248264 0.0168765
0 0.0237278 0.015198
0 0.0226139 0.0134127
0.00675975 0.0222019 0.0116732
0.0222934 0.0225223 0.010071
0.0342107 0.0250858 0.0125887
0.0482032 0.0280613 0.0136721
0.0644999 0.0306096 0.0126802
0.0865797 0.0304875 0.00991836
0.108904 0.0294957 0.0078584
0.130922 0.0275578 0.00630198
0.152514 0.0238041 0.00514229
0.175906 0.0181735 0.00399786
0.198932 0.0127413 0.00282292
0.221622 0.0081178 0.00189212
0.246601 0.00462348 0.00111391
0.271107 0.0021973 0.000610361
0.295613 0.000732433 0.00030518
0.324269 0.000411994 0.000167849
0.352895 0.000228885 7.62951e-05
0.380926 0.000137331 3.0518e-05
0.406882 0.000137331 3.0518e-05
0.432731 0.000137331 1.5259e-05
0.460044 0.000137331 1.5259e-05
0.487907 0.000122072 0
0.517327 0.000122072 0
0.542657 0.000122072 0
0.565713 0.000122072 0
0.58703 0.000122072 0
0.602853 0.000122072 0
0.617151 0.000122072 0
0.629831 0.000122072 0
0.629572 0.000122072 0
0 0.033875 0.0196536
0 0.0333867 0.0187533
0 0.032929 0.0180667
0.0065156 0.0328832 0.016907
0.0218967 0.0335241 0.0154574
0.0365606 0.0362249 0.0165408
0.0522621 0.0395972 0.0170748
0.0700389 0.0431678 0.0165255
0.0940261 0.0451209 0.0131991
0.118166 0.0460822 0.0102541
0.142428 0.0458076 0.00776684
0.165774 0.0435035 0.00605783
0.191226 0.0384222 0.00453193
0.216144 0.0323033 0.00325017
0.240391 0.0255741 0.0021973
0.267109 0.0177615 0.00131228
0.293446 0.0116121 0.000762951
0.319722 0.00683604 0.000396735
0.349187 0.00363165 0.000198367
0.379034 0.00202945 9.15541e-05
0.407752 0.00111391 4.57771e-05
0.434684 0.000732433 3.0518e-05
0.462089 0.000610361 1.5259e-05
0.489494 0.000518807 1.5259e-05
0.517662 0.000457771 1.5259e-05
0.546822 0.000427253 1.5259e-05
0.571908 0.000381476 1.5259e-05
0.594675 0.000350958 1.5259e-05
0.615702 0.000320439 1.5259e-05
0.63006 0.000320439 0
0.643595 0.000320439 0
0.654475 0.000320439 0
0.654078 0.000320439 0
0 0.0462654 0.0242161
0 0.0458839 0.023743
0 0.0453956 0.0231479
0.00627146 0.0456397 0.0223239
0.0201572 0.0466773 0.0211185
0.0374456 0.0494545 0.0205997
0.0558785 0.053315 0.0202792
0.0763256 0.0576638 0.0193179
0.102342 0.0614023 0.0153964
0.128893 0.0641947 0.0118257
0.15494 0.0654917 0.00875868
0.179934 0.0648508 0.00637827
0.208042 0.0616007 0.00469978
0.235096 0.05626 0.00329595
0.261448 0.0487984 0.00224308
0.290288 0.0381323 0.00135805
0.317678 0.0290227 0.000793469
0.345907 0.0205539 0.000411994
0.376608 0.0132601 0.000213626
0.407675 0.00857557 9.15541e-05
0.437201 0.00549325 3.0518e-05
0.466011 0.00393683 3.0518e-05
0.493523 0.00309758 3.0518e-05
0.52137 0.00242618 3.0518e-05
0.549935 0.00201419 3.0518e-05
0.579095 0.00164797 3.0518e-05
0.604257 0.00143435 1.5259e-05
0.626368 0.00117494 1.5259e-05
0.646036 0.000915541 1.5259e-05
0.659754 0.000839246 1.5259e-05
0.672831 0.000732433 1.5259e-05
0.68191 0.00062562 1.5259e-05
0.681895 0.00062562 1.5259e-05
0 0.0602121 0.0285954
0 0.0598154 0.0281376
0 0.0594339 0.0277714
0.00518807 0.0601968 0.0271611
0.016434 0.0620432 0.026276
0.036347 0.0655528 0.0249027
0.058854 0.070222 0.0230564
0.083711 0.075288 0.0203861
0.112215 0.0806287 0.0157931
0.140856 0.0844282 0.0119936
0.168963 0.0871595 0.00866712
0.196612 0.0886854 0.00572213
0.226749 0.0877852 0.00387579
0.256321 0.0860761 0.00256352
0.285405 0.0825666 0.00166323
0.315206 0.0758526 0.000976577
0.343984 0.0681773 0.000595102
0.374258 0.0588846 0.000335698
0.406317 0.0471504 0.000183108
0.439429 0.0355993 7.62951e-05
0.470161 0.0270542 4.57771e-05
0.498909 0.0211185 4.57771e-05
0.526925 0.0176089 3.0518e-05
0.555428 0.0149844 3.0518e-05
0.584588 0.013077 3.0518e-05
0.614572 0.011841 3.0518e-05
0.63827 0.0107576 3.0518e-05
0.659937 0.0093843 3.0518e-05
0.678676 0.00799573 3.0518e-05
0.691844 0.00779736 3.0518e-05
0.704448 0.00779736 1.5259e-05
0.712489 0.00787366 1.5259e-05
0.711864 0.00773632 1.5259e-05
0 0.0761273 0.0304112
0 0.0758984 0.0301213
0 0.0755474 0.0297246
0.00331121 0.0766918 0.029221
0.0121157 0.0792706 0.0283055
0.0348516 0.0836347 0.0265507
0.0616617 0.0895247 0.0234684
0.0910353 0.0960403 0.0197757
0.12256 0.102678 0.0155032
0.153735 0.107637 0.0113527
0.183856 0.111589 0.00790417
0.213825 0.114672 0.00503548
0.246082 0.116121 0.00314336
0.277226 0.116609 0.00195315
0.307942 0.115526 0.00115969
0.339361 0.112551 0.00062562
0.369726 0.10753 0.000381476
0.401328 0.100557 0.000213626
0.434714 0.09131 0.000137331
0.468635 0.0803693 6.10361e-05
0.499794 0.0710918 4.57771e-05
0.529519 0.063035 4.57771e-05
0.558221 0.057435 4.57771e-05
0.587304 0.0519722 4.57771e-05
0.617227 0.0475624 4.57771e-05
0.646387 0.0430152 4.57771e-05
0.670024 0.0389868 4.57771e-05
0.691341 0.0348058 3.0518e-05
0.709392 0.0309758 3.0518e-05
0.722667 0.0295567 3.0518e-05
0.734722 0.0290227 3.0518e-05
0.741131 0.0286564 3.0518e-05
0.740719 0.0281834 3.0518e-05
0 0.0920119 0.0317388
0 0.091783 0.0314488
0 0.091371 0.0311742
0.00158694 0.0932479 0.0304723
0.00955215 0.0968185 0.0293431
0.033402 0.102144 0.0271763
0.0646982 0.109361 0.0230411
0.0982223 0.117159 0.018616
0.133013 0.125521 0.0144656
0.166751 0.13196 0.0101778
0.199039 0.137301 0.00675975
0.231296 0.141711 0.00415045
0.265431 0.14519 0.00234989
0.297444 0.146975 0.00135805
0.329702 0.148058 0.000701915
0.362707 0.148318 0.00030518
0.39472 0.14667 0.000137331
0.427771 0.14403 7.62951e-05
0.461677 0.140291 7.62951e-05
0.49601 0.13463 6.10361e-05
0.527474 0.127001 6.10361e-05
0.558053 0.119829 6.10361e-05
0.588388 0.113817 6.10361e-05
0.61767 0.106264 6.10361e-05
0.647257 0.0987564 4.57771e-05
0.676112 0.0907149 4.57771e-05
0.700206 0.0830701 4.57771e-05
0.720745 0.0750896 4.57771e-05
0.738293 0.0690623 4.57771e-05
0.751186 0.0656291 4.57771e-05
0.763073 0.0655222 3.0518e-05
0.768246 0.0651102 3.0518e-05
0.767666 0.0643778 3.0518e-05
0 0.107347 0.0323949
0 0.107118 0.0320897
0 0.106783 0.0317845
0.00106813 0.109468 0.030869
0.00972 0.11426 0.0291142
0.0314183 0.120409 0.0260014
0.067628 0.128771 0.0211795
0.104967 0.13814 0.0164034
0.142275 0.147799 0.0119173
0.179095 0.156527 0.00801099
0.213123 0.163043 0.00497444
0.246906 0.168246 0.00282292
0.283009 0.173388 0.00170901
0.315938 0.176059 0.000900282
0.349172 0.178332 0.000427253
0.383474 0.180133 0.000244144
0.416403 0.180209 0.000122072
0.450324 0.179614 7.62951e-05
0.485039 0.177905 7.62951e-05
0.519829 0.17464 7.62951e-05
0.5514 0.17026 6.10361e-05
0.582452 0.166003 6.10361e-05
0.61294 0.161837 6.10361e-05
0.642649 0.156069 6.10361e-05
0.672526 0.149722 6.10361e-05
0.700984 0.143053 6.10361e-05
0.725231 0.136812 6.10361e-05
0.745892 0.131121 4.57771e-05
0.762478 0.126101 4.57771e-05
0.775189 0.122408 4.57771e-05
0.787015 0.122286 4.57771e-05
0.791485 0.12137 4.57771e-05
0.790982 0.120226 4.57771e-05
0 0.121553 0.0325322
0 0.12134 0.0323339
0 0.121126 0.0320134
0.000747692 0.125048 0.0308232
0.00996414 0.130678 0.0283665
0.0303655 0.137819 0.0246128
0.0706951 0.147768 0.0188907
0.111208 0.158663 0.0138094
0.151293 0.169635 0.00936904
0.190066 0.179767 0.00576791
0.225559 0.187335 0.00341802
0.26128 0.193759 0.00187686
0.298299 0.199603 0.00106813
0.332555 0.20351 0.000518807
0.367575 0.207095 0.000259403
0.40206 0.209613 0.000167849
0.43563 0.211002 9.15541e-05
0.470405 0.21178 7.62951e-05
0.505913 0.211841 7.62951e-05
0.541421 0.210559 7.62951e-05
0.573556 0.20882 7.62951e-05
0.604532 0.206516 7.62951e-05
0.634989 0.203708 7.62951e-05
0.665354 0.200168 7.62951e-05
0.695445 0.195682 6.10361e-05
0.723705 0.190692 6.10361e-05
0.748272 0.186419 6.10361e-05
0.768261 0.182834 6.10361e-05
0.784558 0.179858 6.10361e-05
0.797131 0.177234 4.57771e-05
0.80882 0.17734 4.57771e-05
0.812757 0.176669 4.57771e-05
0.812192 0.175341 4.57771e-05
0 0.135927 0.0322881
0 0.135805 0.0320592
0 0.135592 0.0318608
0.00047303 0.140581 0.0300908
0.0096437 0.147311 0.0269932
0.0299382 0.155749 0.0225071
0.0733501 0.167056 0.0159762
0.117708 0.179782 0.0108492
0.160388 0.191836 0.00672923
0.20032 0.20264 0.00354009
0.237537 0.211414 0.00210575
0.274922 0.218906 0.00111391
0.312352 0.224964 0.00047303
0.348394 0.230411 0.000244144
0.384085 0.234379 0.00015259
0.419242 0.237705 0.000122072
0.453346 0.240116 9.15541e-05
0.488869 0.241932 9.15541e-05
0.524666 0.242847 9.15541e-05
0.5608 0.243153 9.15541e-05
0.593072 0.242939 9.15541e-05
0.624323 0.241749 7.62951e-05
0.654765 0.239994 7.62951e-05
0.6851 0.238132 7.62951e-05
0.715724 0.235615 7.62951e-05
0.743801 0.232822 7.62951e-05
0.767971 0.230091 6.10361e-05
0.787625 0.228534 6.10361e-05
0.803479 0.2271 6.10361e-05
0.815869 0.225803 6.10361e-05
0.827787 0.226596 6.10361e-05
0.830976 0.225544 4.57771e-05
0.830137 0.223529 4.57771e-05
0 0.150866 0.0309148
0 0.150652 0.0307012
1.5259e-05 0.150683 0.0302892
0.000289921 0.156588 0.0280613
0.00753796 0.164828 0.0241398
0.0273594 0.175036 0.0189975
0.0744335 0.187839 0.012604
0.122744 0.20177 0.00796521
0.168658 0.215259 0.00463874
0.21149 0.227588 0.00254826
0.248692 0.236347 0.00132753
0.287694 0.244678 0.000701915
0.327321 0.252598 0.000442512
0.363119 0.257771 0.000198367
0.399481 0.262531 0.000137331
0.435462 0.26659 0.000106813
0.470253 0.269612 0.000106813
0.506676 0.272511 9.15541e-05
0.542763 0.274266 9.15541e-05
0.578546 0.275288 9.15541e-05
0.610971 0.275471 9.15541e-05
0.642405 0.275135 9.15541e-05
0.672969 0.274281 9.15541e-05
0.70396 0.273823 7.62951e-05
0.734203 0.271946 7.62951e-05
0.761944 0.27013 7.62951e-05
0.786175 0.268559 7.62951e-05
0.805508 0.267765 6.10361e-05
0.820996 0.267384 6.10361e-05
0.833524 0.267292 6.10361e-05
0.844999 0.267948 6.10361e-05
0.847822 0.266728 6.10361e-05
0.846998 0.265019 4.57771e-05
0 0.165454 0.0293584
0 0.16524 0.02916
3.0518e-05 0.165942 0.0284276
0.000198367 0.172503 0.0252842
0.00675975 0.182147 0.0205386
0.028397 0.193927 0.0151064
0.0759899 0.208072 0.00958267
0.127398 0.223346 0.00556954
0.175952 0.237751 0.00296025
0.22034 0.250782 0.00155642
0.259419 0.260655 0.000717174
0.299763 0.269825 0.000411994
0.339635 0.278004 0.000320439
0.376745 0.284245 0.00015259
0.41387 0.28957 0.000122072
0.450233 0.294087 0.000106813
0.486213 0.298161 0.000106813
0.522255 0.30132 0.000106813
0.558862 0.30396 0.000106813
0.594675 0.305776 9.15541e-05
0.627283 0.306523 9.15541e-05
0.658793 0.306828 9.15541e-05
0.690242 0.307164 9.15541e-05
0.720668 0.307149 9.15541e-05
0.750927 0.306188 7.62951e-05
0.778637 0.30544 7.62951e-05
0.802823 0.304555 7.62951e-05
0.822095 0.304692 7.62951e-05
0.837552 0.304753 6.10361e-05
0.849607 0.30454 6.10361e-05
0.861036 0.305287 6.10361e-05
0.863905 0.30425 6.10361e-05
0.863081 0.302556 4.57771e-05
0 0.180163 0.0273747
0 0.179934 0.0271916
3.0518e-05 0.181323 0.0260014
0.00015259 0.188785 0.0217136
0.00642405 0.199603 0.0162966
0.0301823 0.212665 0.0111391
0.0771496 0.228428 0.00682078
0.131823 0.244541 0.00358587
0.182116 0.259571 0.0016022
0.228397 0.273381 0.00062562
0.269429 0.28452 0.00030518
0.310399 0.293873 0.000183108
0.35082 0.302388 0.000137331
0.389487 0.310018 0.000122072
0.42681 0.315282 0.000122072
0.463966 0.320455 0.000122072
0.500175 0.325154 0.000106813
0.536278 0.328511 0.000106813
0.572961 0.331533 0.000106813
0.609064 0.334081 0.000106813
0.642405 0.335882 0.000106813
0.674128 0.336706 9.15541e-05
0.704982 0.337118 9.15541e-05
0.735225 0.337453 9.15541e-05
0.765881 0.337636 9.15541e-05
0.79324 0.337316 7.62951e-05
0.817594 0.337102 7.62951e-05
0.836789 0.337514 7.62951e-05
0.851835 0.337697 6.10361e-05
0.863783 0.337606 6.10361e-05
0.874907 0.338064 6.10361e-05
0.877943 0.336873 4.57771e-05
0.877043 0.335012 4.57771e-05
0 0.195544 0.0247654
0 0.195285 0.0245212
3.0518e-05 0.197864 0.0225376
0.00015259 0.206256 0.0166323
0.00575265 0.218204 0.0116426
0.0308995 0.232624 0.0075227
0.0761425 0.248981 0.00440986
0.136049 0.266972 0.0021973
0.189288 0.282948 0.00102235
0.236896 0.297032 0.000488289
0.278477 0.308415 0.000244144
0.320912 0.3187 0.000167849
0.361868 0.327611 0.000137331
0.400946 0.33547 0.000122072
0.439551 0.341878 0.000122072
0.476814 0.347219 0.000122072
0.512886 0.351781 0.000122072
0.549264 0.355489 0.000106813
0.585687 0.35877 0.000106813
0.622034 0.361776 0.000106813
0.65565 0.364034 0.000106813
0.687373 0.365087 9.15541e-05
0.718303 0.365957 9.15541e-05
0.748241 0.36643 9.15541e-05
0.77882 0.366964 9.15541e-05
0.806699 0.367391 7.62951e-05
0.830961 0.367514 7.62951e-05
0.849882 0.368109 7.62951e-05
0.864866 0.368307 6.10361e-05
0.876646 0.368353 6.10361e-05
0.887587 0.368688 6.10361e-05
0.891203 0.367712 4.57771e-05
0.890028 0.365332 4.57771e-05
0 0.21059 0.0215457
0 0.210361 0.0214237
4.57771e-05 0.21387 0.0185245
0.000167849 0.223194 0.011841
0.00543221 0.236301 0.00775158
0.031342 0.251759 0.00476081
0.0760815 0.269123 0.00265507
0.139498 0.288502 0.00120546
0.19469 0.305241 0.000579843
0.24387 0.319799 0.000335698
0.286641 0.331624 0.000183108
0.330037 0.342443 0.00015259
0.371878 0.352148 0.000137331
0.411322 0.36025 0.000137331
0.450614 0.367132 0.000122072
0.488075 0.372839 0.000122072
0.524544 0.377752 0.000122072
0.560876 0.381674 0.000122072
0.597787 0.385412 0.000106813
0.633814 0.388449 0.000106813
0.667201 0.391012 0.000106813
0.699458 0.392691 9.15541e-05
0.730419 0.393835 9.15541e-05
0.76051 0.394614 9.15541e-05
0.790707 0.395178 9.15541e-05
0.818219 0.395438 7.62951e-05
0.842527 0.395605 7.62951e-05
0.861204 0.396063 7.62951e-05
0.876371 0.396201 6.10361e-05
0.888106 0.396338 6.10361e-05
0.898543 0.395956 4.57771e-05
0.902647 0.394385 4.57771e-05
0.901442 0.391913 3.0518e-05
0 0.226001 0.0188144
0 0.225498 0.0181735
6.10361e-05 0.229877 0.0144045
0.000381476 0.240101 0.00755322
0.0052491 0.253834 0.00462348
0.0319371 0.27068 0.00263981
0.076524 0.288975 0.00138857
0.141634 0.308995 0.000503548
0.198383 0.326375 0.000244144
0.249104 0.341329 0.000167849
0.29395 0.353994 0.00015259
0.338308 0.365469 0.000137331
0.380346 0.375204 0.000137331
0.420386 0.383841 0.000137331
0.459754 0.390707 0.000137331
0.49778 0.39704 0.000122072
0.535164 0.40267 0.000122072
0.57145 0.406668 0.000122072
0.607996 0.410346 0.000106813
0.643854 0.413626 0.000106813
0.677363 0.416281 0.000106813
0.70956 0.418158 9.15541e-05
0.74107 0.419913 9.15541e-05
0.770718 0.4206 9.15541e-05
0.800626 0.421241 7.62951e-05
0.82829 0.421622 7.62951e-05
0.852323 0.421897 7.62951e-05
0.871015 0.422065 6.10361e-05
0.886809 0.422385 6.10361e-05
0.898161 0.422248 4.57771e-05
0.908354 0.42153 4.57771e-05
0.913527 0.41976 3.0518e-05
0.9122 0.41706 3.0518e-05
0 0.242893 0.0155337
0 0.242283 0.0148928
6.10361e-05 0.247257 0.0116579
0.000442512 0.257908 0.00633249
0.00350958 0.272648 0.00328069
0.0288548 0.290211 0.00177005
0.0733959 0.309651 0.0009308
0.143084 0.330251 0.000350958
0.201846 0.347997 0.000198367
0.254444 0.363806 0.000167849
0.300618 0.376944 0.00015259
0.345357 0.388418 0.000137331
0.38793 0.398535 0.000137331
0.42826 0.40734 0.000137331
0.46775 0.414298 0.000137331
0.506218 0.420829 0.000122072
0.544274 0.426993 0.000122072
0.580407 0.431189 0.000122072
0.616953 0.434974 0.000106813
0.652964 0.438254 0.000106813
0.686091 0.440864 0.000106813
0.718639 0.443153 9.15541e-05
0.749676 0.444633 9.15541e-05
0.778988 0.445197 7.62951e-05
0.808392 0.445579 7.62951e-05
0.8365 0.446052 7.62951e-05
0.860639 0.446708 6.10361e-05
0.879911 0.44683 6.10361e-05
0.895979 0.446845 4.57771e-05
0.907088 0.446403 4.57771e-05
0.917189 0.445502 3.0518e-05
0.923903 0.444038 3.0518e-05
0.922499 0.441123 1.5259e-05
0 0.259602 0.0127718
0 0.258961 0.0120851
6.10361e-05 0.264469 0.00944533
0.000411994 0.2757 0.00575265
0.00216678 0.290639 0.00273136
0.0252537 0.309133 0.00109865
0.068513 0.329259 0.000549325
0.143084 0.350759 0.000259403
0.204944 0.36968 0.000183108
0.259174 0.385901 0.000167849
0.305791 0.399176 0.00015259
0.35137 0.410956 0.000137331
0.394705 0.421332 0.000137331
0.435264 0.43032 0.000137331
0.474922 0.437675 0.000137331
0.513329 0.444038 0.000122072
0.550774 0.450019 0.000122072
0.588342 0.45536 0.000106813
0.624872 0.459205 0.000106813
0.66041 0.462272 0.000106813
0.693156 0.464515 9.15541e-05
0.72488 0.466377 9.15541e-05
0.755764 0.467948 7.62951e-05
0.785779 0.469078 7.62951e-05
0.815061 0.469551 6.10361e-05
0.843442 0.469825 6.10361e-05
0.867185 0.470298 6.10361e-05
0.886992 0.470405 4.57771e-05
0.904067 0.470253 3.0518e-05
0.915068 0.469703 3.0518e-05
0.925261 0.46891 1.5259e-05
0.933989 0.468101 1.5259e-05
0.932479 0.464866 0
0 0.276417 0.0106813
0 0.275715 0.00982681
7.62951e-05 0.281529 0.00773632
0.000350958 0.292561 0.00471504
0.00155642 0.308171 0.00201419
0.0208591 0.327291 0.000732433
0.0619516 0.348318 0.000259403
0.140887 0.370581 0.000183108
0.205173 0.389914 0.000167849
0.260853 0.406531 0.00015259
0.308553 0.420142 0.00015259
0.355154 0.432364 0.000137331
0.39913 0.443061 0.000137331
0.440482 0.452522 0.000137331
0.480064 0.459739 0.000122072
0.518257 0.466209 0.000122072
0.555444 0.471931 0.000122072
0.592798 0.477211 0.000106813
0.63006 0.481727 0.000106813
0.666972 0.485603 9.15541e-05
0.698756 0.487511 9.15541e-05
0.729992 0.488945 7.62951e-05
0.76051 0.490303 7.62951e-05
0.790646 0.491691 6.10361e-05
0.820615 0.49276 6.10361e-05
0.849805 0.492973 4.57771e-05
0.872816 0.492988 4.57771e-05
0.893294 0.493065 3.0518e-05
0.911467 0.493248 3.0518e-05
0.922454 0.492409 1.5259e-05
0.932906 0.491829 1.5259e-05
0.94287 0.491524 0
0.942489 0.488914 0
0 0.291493 0.00970474
0 0.290715 0.00889601
7.62951e-05 0.296849 0.00656138
0.000320439 0.308568 0.00387579
0.00129702 0.324804 0.00163272
0.0178988 0.344579 0.000579843
0.0561837 0.366583 0.000167849
0.136065 0.38909 0.000167849
0.202487 0.408545 0.00015259
0.261067 0.425849 0.00015259
0.310002 0.440009 0.00015259
0.357336 0.452628 0.000137331
0.401907 0.463478 0.000137331
0.443 0.472786 0.000122072
0.482536 0.48011 0.000122072
0.521157 0.486824 0.000106813
0.558419 0.492882 0.000106813
0.595712 0.498177 0.000106813
0.633021 0.502892 9.15541e-05
0.671046 0.507729 9.15541e-05
0.703288 0.509697 7.62951e-05
0.734127 0.511025 7.62951e-05
0.764096 0.512215 6.10361e-05
0.794476 0.513787 6.10361e-05
0.824582 0.514992 4.57771e-05
0.85449 0.515801 4.57771e-05
0.878325 0.515908 3.0518e-05
0.899351 0.515969 1.5259e-05
0.917494 0.516182 1.5259e-05
0.929839 0.515526 0
0.94052 0.515175 0
0.950957 0.515679 0
0.95285 0.513603 0
0 0.306081 0.00852979
0 0.305089 0.00747692
7.62951e-05 0.311528 0.00531014
0.000289921 0.323705 0.0027924
0.00114443 0.340612 0.0012665
0.0153353 0.361044 0.000427253
0.0487373 0.383017 0.000167849
0.128618 0.405859 0.00015259
0.197574 0.42562 0.00015259
0.259068 0.443351 0.00015259
0.309285 0.457877 0.000137331
0.35642 0.470253 0.000137331
0.401785 0.48159 0.000122072
0.443473 0.49102 0.000122072
0.483223 0.498527 0.000106813
0.521935 0.505364 0.000106813
0.559503 0.511666 9.15541e-05
0.596536 0.516777 9.15541e-05
0.633509 0.52163 7.62951e-05
0.671672 0.526482 7.62951e-05
0.705394 0.529503 6.10361e-05
0.737102 0.531579 6.10361e-05
0.766979 0.532952 4.57771e-05
0.796887 0.534447 4.57771e-05
0.827436 0.536004 3.0518e-05
0.858076 0.537713 3.0518e-05
0.883375 0.538384 1.5259e-05
0.905257 0.53875 1.5259e-05
0.923583 0.539162 0
0.937652 0.539406 0
0.94847 0.539055 0
0.958892 0.539788 0
0.963348 0.53875 0
0 0.320226 0.0071107
0 0.31902 0.0061799
6.10361e-05 0.325444 0.00408942
0.000244144 0.338491 0.00175479
0.00108339 0.356054 0.000701915
0.0135348 0.376165 0.000228885
0.0414282 0.398154 0.00015259
0.119799 0.421241 0.00015259
0.191089 0.441627 0.00015259
0.255375 0.459953 0.000137331
0.305745 0.473945 0.000137331
0.353765 0.486641 0.000122072
0.399741 0.49807 0.000122072
0.441825 0.507729 0.000106813
0.482521 0.515969 0.000106813
0.521782 0.52314 9.15541e-05
0.559075 0.529183 9.15541e-05
0.59588 0.534356 7.62951e-05
0.632883 0.539361 7.62951e-05
0.670863 0.543984 6.10361e-05
0.70663 0.548226 6.10361e-05
0.739467 0.551125 4.57771e-05
0.768673 0.552148 3.0518e-05
0.798184 0.553292 3.0518e-05
0.82855 0.554894 1.5259e-05
0.859709 0.556817 1.5259e-05
0.887175 0.558206 0
0.909682 0.558999 0
0.928878 0.560586 0
0.94464 0.561563 0
0.955398 0.561517 0
0.965835 0.562524 0
0.972808 0.562707 0
0 0.334157 0.00540169
0 0.332845 0.00445563
6.10361e-05 0.338506 0.00271611
0.000183108 0.351141 0.000701915
0.0010071 0.369131 0.000198367
0.0111238 0.389227 0.000183108
0.0316167 0.411185 0.00015259
0.109911 0.43508 0.00015259
0.182467 0.456123 0.000137331
0.249454 0.474723 0.000137331
0.300343 0.488685 0.000122072
0.349371 0.501778 0.000122072
0.396506 0.513634 0.000106813
0.438651 0.523232 9.15541e-05
0.479744 0.531777 9.15541e-05
0.519463 0.539269 7.62951e-05
0.557137 0.545678 7.62951e-05
0.594461 0.551354 6.10361e-05
0.631266 0.556054 6.10361e-05
0.669444 0.560967 4.57771e-05
0.706081 0.565423 4.57771e-05
0.739376 0.56878 3.0518e-05
0.769512 0.570367 3.0518e-05
0.7991 0.571679 1.5259e-05
0.829313 0.573312 0
0.861219 0.57586 0
0.891173 0.578515 0
0.913771 0.579721 0
0.933684 0.58117 0
0.951003 0.582467 0
0.961746 0.582681 0
0.971633 0.583337 0
0.980041 0.583947 0
0 0.347784 0.00347906
0 0.346197 0.00260929
4.57771e-05 0.35024 0.00123598
0.00015259 0.362631 0.000213626
0.000885023 0.380209 0.000167849
0.00863661 0.400076 0.000167849
0.0265965 0.422492 0.000137331
0.0982376 0.446128 0.000137331
0.171557 0.467903 0.000122072
0.23949 0.486976 0.000122072
0.293233 0.501747 0.000106813
0.343343 0.515297 0.000106813
0.391608 0.527764 9.15541e-05
0.434669 0.537758 9.15541e-05
0.475837 0.546517 7.62951e-05
0.515648 0.554192 7.62951e-05
0.554086 0.561028 6.10361e-05
0.592035 0.567361 4.57771e-05
0.629129 0.572183 4.57771e-05
0.667155 0.577096 3.0518e-05
0.704692 0.581735 3.0518e-05
0.737896 0.585016 1.5259e-05
0.769238 0.587442 1.5259e-05
0.79939 0.589441 0
0.830701 0.592126 0
0.862531 0.595087 0
0.894179 0.598169 0
0.917403 0.599786 0
0.938216 0.60116 0
0.957229 0.60293 0
0.967712 0.603128 0
0.977249 0.603754 0
0.985931 0.604791 0
0 0.361089 0.00169375
0 0.359197 0.000869764
3.0518e-05 0.361181 0.000457771
0.000137331 0.373602 0.000213626
0.000762951 0.3906 0.00015259
0.0059205 0.410117 0.000137331
0.0234226 0.432563 0.000137331
0.0848859 0.455955 0.000122072
0.15964 0.478538 0.000122072
0.227558 0.498009 0.000106813
0.285069 0.514138 9.15541e-05
0.336828 0.528267 9.15541e-05
0.385153 0.540688 7.62951e-05
0.429511 0.551446 7.62951e-05
0.471412 0.560784 6.10361e-05
0.511482 0.568566 6.10361e-05
0.550515 0.575845 4.57771e-05
0.589014 0.582864 4.57771e-05
0.626871 0.588281 3.0518e-05
0.665232 0.593469 1.5259e-05
0.70399 0.598413 1.5259e-05
