src/assets/luts/Alen Palander - Cappadocia.cube
TITLE "Generated by Resolve"
LUT_3D_SIZE 5
0.0346075 0.0388952 0.0395056
0.0995499 0.0349889 0.0287022
0.17026 0.0372168 0.0328985
0.230182 0.0370642 0.0332647
0.252506 0.037705 0.0339971
0.0827192 0.22298 0.0579385
0.229221 0.280171 0.0683146
0.617685 0.209186 0.0575875
0.568246 0.121004 0.053315
0.536919 0.0893721 0.0515755
0.493141 0.539193 0.0942397
0.386969 0.508721 0.0911574
0.705257 0.57789 0.148104
0.873152 0.452247 0.110613
0.843168 0.334646 0.0856794
0.838483 0.715114 0.161044
0.786145 0.687068 0.14522
0.697536 0.658351 0.160021
0.906081 0.695369 0.243412
0.93518 0.57641 0.187716
0.931899 0.786404 0.216693
0.930526 0.784253 0.213977
0.843992 0.736767 0.178225
0.872251 0.753338 0.239429
0.953017 0.770932 0.343938
0.0286564 0.0286717 0.074464
0.0846113 0.0327306 0.123537
0.167636 0.0358129 0.133989
0.235004 0.0388952 0.078584
0.250187 0.0383459 0.0462043
0.0424659 0.285206 0.356878
0.309316 0.283955 0.297124
0.572534 0.18024 0.178897
0.543664 0.0604868 0.0598001
0.502312 0.0519265 0.0500343
0.154147 0.486702 0.243076
0.408057 0.538903 0.250675
0.773999 0.603128 0.19057
0.878599 0.44123 0.117281
0.840711 0.312337 0.08159
0.672526 0.694743 0.216022
0.699916 0.68629 0.188647
0.742458 0.66836 0.147738
0.908949 0.69189 0.209186
0.935119 0.570642 0.175814
0.929458 0.788647 0.218067
0.928603 0.783505 0.213687
0.841093 0.734005 0.175631
0.868208 0.750134 0.23592
0.953002 0.770871 0.343847
0.0314641 0.0314641 0.125383
0.0642252 0.0345464 0.179614
0.0941787 0.0334325 0.174456
0.175372 0.0346075 0.176699
0.23209 0.0383917 0.156207
0.047715 0.228489 0.4748
0.0838178 0.21445 0.442542
0.416648 0.131182 0.404761
0.489174 0.054551 0.298711
0.466438 0.0491035 0.186801
0.0734722 0.520699 0.621439
0.17557 0.567956 0.594491
0.616663 0.584878 0.564828
0.773632 0.461112 0.438087
0.754421 0.262623 0.23447
0.239322 0.650889 0.522728
0.280964 0.641474 0.478492
0.606851 0.69131 0.466484
0.878996 0.734646 0.434501
0.934096 0.588907 0.268513
0.729717 0.776089 0.421958
0.725307 0.768734 0.397925
0.77966 0.775464 0.376806
0.887678 0.794903 0.355062
0.959838 0.785367 0.286641
0.0336004 0.0336004 0.167681
0.0508888 0.0349279 0.230671
0.0976577 0.0384985 0.251865
0.0932021 0.0374304 0.224887
0.141665 0.0370794 0.232471
0.0469062 0.20267 0.455268
0.0481727 0.149294 0.46717
0.237171 0.117037 0.470314
0.324529 0.0489052 0.398428
0.411887 0.0455482 0.369665
0.0634928 0.452216 0.672389
0.0793317 0.487587 0.663127
0.404685 0.543099 0.658518
0.621195 0.464347 0.616785
0.73022 0.317327 0.539223
0.141482 0.650706 0.726284
0.168765 0.657252 0.712016
0.446647 0.71165 0.70399
0.757183 0.720775 0.69865
0.8607 0.619577 0.590341
0.415152 0.745861 0.637446
0.392279 0.735042 0.622599
0.487846 0.737789 0.58587
0.733272 0.789136 0.610483
0.947799 0.828794 0.62121
0.0337987 0.0337987 0.172198
0.044831 0.0347448 0.234089
0.0991836 0.0388342 0.271168
0.131899 0.0392004 0.270024
0.139193 0.0388037 0.256596
0.0466316 0.198032 0.45069
0.0470893 0.136614 0.46128
0.157015 0.121874 0.474495
0.306188 0.0581674 0.442847
0.356008 0.0460517 0.402274
0.0627909 0.438865 0.681697
0.0690166 0.445823 0.66775
0.326223 0.525521 0.678492
0.540307 0.476722 0.657481
0.617594 0.361975 0.625071
0.137972 0.634806 0.751385
0.13962 0.623941 0.744869
0.427832 0.694286 0.758801
0.677317 0.703487 0.757733
0.748714 0.659175 0.730724
0.296834 0.748241 0.779126
0.276204 0.737194 0.772793
0.423178 0.767391 0.776226
0.680018 0.807599 0.799863
0.888472 0.843 0.829694
