src/assets/luts/Alen Palander - Istanbul.cube
TITLE "Generated by Resolve"
LUT_3D_SIZE 5
0 0 0.0139467
0.356252 0.0599985 0.0201419
0.613352 0.143053 0.0269474
0.766537 0.191119 0.0293278
0.842603 0.22298 0.0330968
0.00358587 0.189532 0.128603
0.338781 0.214496 0.0580606
0.652811 0.259602 0.0228733
0.809155 0.27715 0.0221256
0.86804 0.2934 0.0233463
0.0358282 0.396414 0.206195
0.277592 0.452338 0.203494
0.647059 0.432258 0.0827802
0.84947 0.507469 0.0773175
0.902464 0.521996 0.0783856
0.0881971 0.598856 0.271885
0.316045 0.665797 0.288563
0.70161 0.752499 0.260319
0.884993 0.684016 0.18117
0.927199 0.693965 0.180102
0.112276 0.69752 0.306325
0.328557 0.745098 0.316503
0.637415 0.804974 0.293111
0.870253 0.798642 0.235859
0.927382 0.757092 0.204517
0 0.0537118 0.205798
0.377539 0.0639353 0.168765
0.605585 0.0915389 0.154772
0.728939 0.108324 0.0908675
0.808759 0.160281 0.0872053
0.0191806 0.261646 0.312795
0.255634 0.279866 0.276143
0.599924 0.328908 0.205356
0.7991 0.349172 0.157473
0.867292 0.359136 0.136553
0.0562142 0.460319 0.372427
0.143496 0.442359 0.3364
0.614832 0.473106 0.235416
0.861891 0.500481 0.128954
0.906233 0.482185 0.118395
0.103304 0.639979 0.406729
0.213977 0.657862 0.401114
0.651316 0.758755 0.386435
0.899382 0.718212 0.242252
0.938521 0.731289 0.248035
0.121462 0.72256 0.428626
0.228077 0.73434 0.426444
0.583124 0.800443 0.416785
0.861112 0.835447 0.301915
0.935256 0.780179 0.256306
0.00810254 0.154604 0.377829
0.242161 0.0592813 0.292821
0.610819 0.127001 0.293645
0.752026 0.161501 0.279347
0.81471 0.17969 0.262531
0.0381476 0.350988 0.471916
0.131273 0.332174 0.461601
0.596414 0.294636 0.319402
0.775952 0.295872 0.272374
0.832883 0.301411 0.223789
0.0616159 0.468528 0.505745
0.132296 0.489494 0.518257
0.540246 0.55671 0.488487
0.833707 0.582849 0.398733
0.899855 0.574975 0.363363
0.115892 0.674189 0.572976
0.161318 0.687114 0.560143
0.514 0.747845 0.573816
0.888518 0.778073 0.490349
0.939498 0.794827 0.483253
0.130663 0.749645 0.589136
0.172808 0.748531 0.55671
0.49955 0.797467 0.561486
0.819013 0.860456 0.504906
0.938949 0.818814 0.407233
0.0352636 0.24036 0.52781
0.234974 0.0806287 0.406302
0.462486 0.115099 0.401022
0.754894 0.173373 0.401312
0.83357 0.211994 0.393133
0.0554971 0.428855 0.598001
0.107805 0.407874 0.603861
0.403098 0.27422 0.461082
0.783368 0.299214 0.403845
0.857939 0.333104 0.394324
0.0752728 0.5178 0.628168
0.122652 0.5402 0.646586
0.373007 0.564309 0.64361
0.813214 0.531945 0.486717
0.882338 0.545617 0.480079
0.122957 0.678752 0.693111
0.174182 0.709056 0.714351
0.351064 0.754665 0.745937
0.836988 0.855817 0.711574
0.934173 0.853101 0.678431
0.147036 0.782467 0.733791
0.189258 0.790585 0.732601
0.290028 0.798795 0.719936
0.736324 0.863081 0.659312
0.938994 0.867964 0.585367
0.0395209 0.316335 0.618311
0.248875 0.111864 0.466148
0.441627 0.125322 0.448661
0.73257 0.19115 0.456764
0.835798 0.226566 0.459174
0.0649729 0.465263 0.657069
0.105364 0.420737 0.653544
0.37821 0.262501 0.509789
0.734096 0.297993 0.459617
0.856168 0.339498 0.463157
0.0851911 0.55378 0.690715
0.12784 0.562005 0.697536
0.308766 0.543481 0.686168
0.74255 0.495354 0.525368
0.883009 0.541253 0.530632
0.122499 0.679026 0.740581
0.170169 0.699596 0.753628
0.288396 0.733425 0.778897
0.788342 0.845197 0.768063
0.926802 0.842481 0.733059
0.144762 0.763394 0.770123
0.188251 0.776806 0.778866
0.289174 0.799176 0.794873
0.418204 0.8336 0.819638
0.92575 0.939696 0.777157
