src/assets/luts/Alen Palander - Yosemite.cube
TITLE "Generated by Resolve"
LUT_3D_SIZE 9
0 0 0
0.0293584 1.5259e-05 0.00129702
0.0561227 0.00894179 0
0.126162 0.0019379 0
0.253605 0 0
0.405753 0 0
0.513313 0 1.5259e-05
0.566903 0 1.5259e-05
0.593652 1.5259e-05 1.5259e-05
0 0.0257267 0.0034638
0.0292515 0.026978 0.0037232
0.0594492 0.0352789 0.00822461
0.138842 0.0368963 0.000259403
0.280446 0.00654612 0
0.445624 0.000183108 0
0.55967 0.000183108 0
0.613306 0.000183108 0
0.639643 0.000183108 0
0 0.0554818 0.0171206
0.0261082 0.058793 0.0159304
0.0670939 0.0686809 0.0121309
0.159091 0.0840162 0.000274662
0.324392 0.0734874 0
0.508263 0.0120241 0
0.629664 0.00653086 0
0.683299 0.00448615 0
0.70869 0.0043183 0
0 0.113924 0.0140993
0.00450141 0.119554 0.0108034
0.0722362 0.135897 0.00199893
0.189227 0.168505 0
0.381918 0.196872 0
0.586023 0.199969 0
0.718959 0.187259 0
0.775082 0.182589 0
0.80148 0.185611 0
0 0.204257 0.000198367
0.000198367 0.216052 7.62951e-05
0.0454108 0.247486 0
0.216129 0.302922 0
0.44448 0.362188 0
0.672038 0.398627 0
0.818601 0.414725 0
0.87866 0.426093 0
0.90605 0.435676 0
0 0.306371 0
0.000183108 0.325795 0
0.00839246 0.370153 0
0.230488 0.446387 0
0.497536 0.529488 0
0.747341 0.585718 0
0.902693 0.614145 0
0.963943 0.628168 0
0.987243 0.636927 0
0 0.375998 0
0.000183108 0.400931 0
0.00775158 0.453574 0
0.231922 0.538811 0
0.526528 0.63447 0
0.789075 0.699641 0
0.949615 0.732296 0
0.997925 0.744381 0
1 0.750866 0
0 0.407492 0
0.000183108 0.436744 0
0.00842298 0.494026 0
0.245838 0.584344 0
0.550896 0.68333 0
0.814054 0.749355 0
0.971038 0.780957 0
0.999954 0.79176 0
1 0.796994 0
0 0.426032 0
0.000183108 0.461234 0
0.0115663 0.524315 0
0.286473 0.617853 0
0.586358 0.714427 0
0.839536 0.776822 0
0.982589 0.806363 0
1 0.817548 0
1 0.822065 1.5259e-05
6.10361e-05 0.00273136 0.0292058
0.0274205 0.0055848 0.0306554
0.0564126 0.0150149 0.0319219
0.132937 0.00257877 0.0281834
0.263828 0 0.0068513
0.416709 0 0.000503548
0.521675 0 0.000183108
0.574456 0 0.000183108
0.600977 1.5259e-05 0.000183108
0 0.0283513 0.0343786
0.030518 0.0311284 0.0317388
0.0620279 0.0389563 0.0373236
0.148836 0.0389258 0.0314488
0.298558 0.00531014 0.00622568
0.462425 0.000183108 0.000259403
0.570733 0.000183108 0.000183108
0.623484 0.000183108 0.000183108
0.648463 0.000183108 0.000183108
0 0.0598001 0.0426947
0.0201877 0.0628214 0.0417334
0.0701457 0.0728771 0.0419928
0.170336 0.0882277 0.0280613
0.342443 0.0771344 0.00236515
0.523003 0.0190433 0.000183108
0.639139 0.00766003 0.000183108
0.693095 0.00639353 0.000183108
0.717937 0.0062562 0.000183108
0 0.119387 0.0437629
0.0037232 0.125429 0.0420996
0.0732586 0.143816 0.0327459
0.201007 0.177615 0.00955215
0.40209 0.206409 0.000274662
0.602823 0.209247 0.000183108
0.729961 0.199969 0.000183108
0.787289 0.197574 0.000183108
0.813199 0.201526 0.000183108
0 0.213382 0.0208133
0.000198367 0.22739 0.0104372
0.045594 0.261189 0.00354009
0.228489 0.320485 0.000259403
0.468452 0.381903 0.000183108
0.69337 0.417487 0.000183108
0.832227 0.435004 0.000183108
0.893202 0.44773 0.000183108
0.920195 0.459007 0.000183108
0 0.318776 0.000534066
0.000183108 0.340322 0.000167849
0.00863661 0.387762 0.000167849
0.23975 0.46717 0.000167849
0.518303 0.551751 0.000167849
0.763668 0.60557 0.000183108
0.912932 0.632914 0.000183108
0.974258 0.647807 0.000183108
0.993164 0.657603 0.000183108
0 0.388663 0.000167849
0.000183108 0.415534 0.000167849
0.00770581 0.47155 0.000167849
0.239124 0.560327 0.000167849
0.545327 0.656947 0.000167849
0.803204 0.719707 0.000183108
0.958862 0.751736 0.000183108
0.999542 0.765835 0.000183108
1 0.774044 0.000183108
0 0.420706 0.000274662
0.000183108 0.452293 0.000167849
0.00822461 0.512627 0.000167849
0.251057 0.60502 0.000167849
0.566873 0.704585 0.000183108
0.827222 0.768994 0.000183108
0.977401 0.800229 0.000183108
1 0.812055 0.000183108
1 0.81828 0.000183108
0 0.440497 0.00103761
0.000183108 0.479164 0.000183108
0.0108797 0.544823 0.000183108
0.286458 0.639521 0.000183108
0.597742 0.735988 0.000183108
0.849515 0.797772 0.000183108
0.98674 0.827344 0.000183108
1 0.838727 0.000183108
1 0.843824 0.000183108
0 0.0114137 0.0638895
0.0198215 0.0129702 0.0652323
0.0533303 0.0185397 0.0694896
0.136751 0.00830091 0.0741131
0.273503 0 0.0711376
0.427695 0 0.0554818
0.531716 0 0.043473
0.582681 0 0.0386358
0.60853 1.5259e-05 0.0416876
0 0.0353246 0.0722515
0.0188449 0.0381476 0.0713664
0.0629282 0.0418708 0.0765545
0.152255 0.0438849 0.0822156
0.308156 0.00633249 0.0755016
0.473335 0.000183108 0.0557717
0.580377 0.000183108 0.0457618
0.632517 0.000183108 0.0438239
0.65716 0.000183108 0.0469368
0 0.0681163 0.0831922
0.00936904 0.071046 0.0821546
0.0751965 0.0793927 0.0796521
0.174517 0.0962387 0.0910201
0.35404 0.0838178 0.0780957
0.535485 0.0258488 0.0512703
0.6495 0.00914015 0.0393988
0.70219 0.00819409 0.0363928
0.727047 0.00859083 0.039704
0 0.130388 0.0915847
0.000534066 0.136446 0.0914778
0.0555276 0.154467 0.0929122
0.202106 0.189456 0.086656
0.411383 0.218082 0.0509804
0.611795 0.220951 0.0212558
0.738476 0.213596 0.0101015
0.796109 0.213519 0.00717174
0.822354 0.221897 0.00805676
0 0.231693 0.0927596
0.000183108 0.246052 0.0882124
0.0168917 0.28072 0.0760204
0.224964 0.34197 0.0434882
0.477516 0.403052 0.00994888
0.702144 0.436377 0.00366217
0.840955 0.454948 0.00238041
0.901961 0.46923 0.00218204
0.928542 0.48278 0.00283818
0 0.343862 0.0747997
0.000183108 0.365652 0.0568856
0.00613413 0.414954 0.0353857
0.224811 0.495659 0.00849927
0.524956 0.580865 0.00166323
0.772885 0.633722 0.00030518
0.920638 0.660945 0.000183108
0.980728 0.676936 0.000183108
0.996674 0.687922 0.000183108
0 0.415549 0.0495766
0.000183108 0.442985 0.0414282
0.00297551 0.501091 0.0233768
0.205859 0.591959 0.00387579
0.548623 0.688731 0.00123598
0.810895 0.750576 0.000183108
0.963439 0.781765 0.000183108
0.999817 0.796429 0.000183108
1 0.805646 0.000183108
0 0.448875 0.0560616
0.000183108 0.481453 0.048661
0.00250248 0.544686 0.0326848
0.208865 0.639857 0.00549325
0.568963 0.739315 0.00337224
0.832288 0.802548 0.000411994
0.979583 0.833371 0.000183108
1 0.846143 0.000183108
1 0.85272 0.000183108
0 0.471412 0.101823
0.000183108 0.512093 0.0775311
0.00283818 0.580209 0.0652476
0.234653 0.676783 0.019028
0.593103 0.772885 0.00935378
0.84828 0.83357 0.00662242
0.985763 0.862852 0.00340276
1 0.874418 0.00291447
1 0.880049 0.00622568
0 0.0131075 0.147875
0.000885023 0.0142977 0.152667
0.0373388 0.0132448 0.16405
0.137545 0.00167849 0.179599
0.282139 0 0.191455
0.437797 0 0.197559
0.540627 0 0.201312
0.590372 0 0.205966
0.615122 0 0.211643
0 0.0426795 0.162432
0.000701915 0.0442359 0.166552
0.0379187 0.0481727 0.178256
0.150317 0.0459297 0.19527
0.314504 0.00640879 0.207889
0.481987 0.000183108 0.213993
0.588586 0.000183108 0.21825
0.639826 0.000183108 0.224201
0.664149 0.000183108 0.231495
0 0.0819562 0.181979
0.000198367 0.0841077 0.185687
0.0311742 0.0939803 0.19472
0.168444 0.109972 0.213748
0.358434 0.0957198 0.229511
0.542794 0.0361639 0.23534
0.657542 0.0117952 0.239399
0.710094 0.0115663 0.246464
0.734417 0.0119936 0.255451
0 0.153246 0.203403
0.000183108 0.159533 0.206668
0.0198978 0.178119 0.216175
0.207446 0.215778 0.218723
0.409171 0.246128 0.247791
0.621271 0.248631 0.24715
0.7467 0.244709 0.247669
0.803037 0.246708 0.252735
0.828412 0.25478 0.262974
0 0.264897 0.222705
0.000183108 0.277852 0.224277
0.00190738 0.31339 0.234272
0.181033 0.371725 0.244648
0.469032 0.435645 0.2448
0.703883 0.471046 0.227955
0.843107 0.489403 0.215915
0.903349 0.502739 0.213458
0.929061 0.515084 0.227771
0 0.381826 0.237934
0.000183108 0.403784 0.238025
0.00030518 0.454261 0.24387
0.145708 0.536065 0.243488
0.508431 0.621988 0.21735
0.766552 0.67332 0.180804
0.915465 0.699992 0.166445
0.977554 0.715526 0.175967
0.995163 0.727169 0.192523
0 0.460349 0.254246
0.000183108 0.4878 0.253452
0.000183108 0.547707 0.256153
0.122179 0.639551 0.249897
0.523674 0.736751 0.207248
0.797894 0.797757 0.172061
0.954162 0.828428 0.175296
0.999374 0.843671 0.191196
1 0.853544 0.215366
0 0.494942 0.276692
0.000183108 0.528389 0.278981
0.000183108 0.592554 0.284062
0.117983 0.68864 0.283558
0.536278 0.788525 0.249104
0.813962 0.850935 0.218418
0.967422 0.881605 0.226261
0.999954 0.894774 0.247028
1 0.901732 0.274205
0 0.518791 0.316518
0.000183108 0.560693 0.325093
0.000183108 0.629999 0.337987
0.145098 0.727626 0.343359
0.559625 0.823819 0.334112
0.827405 0.883528 0.317784
0.972412 0.912993 0.315053
0.999954 0.925109 0.332647
1 0.930083 0.361379
0 0 0.27126
0.000183108 0 0.278752
0.00540169 0 0.297383
0.125063 0 0.325048
0.281529 0 0.349157
0.44126 0 0.365484
0.545647 0 0.375662
0.59527 0 0.383444
0.618845 0 0.39089
0 0.0411078 0.297124
0.000183108 0.0394446 0.306401
0.0056611 0.0394446 0.327123
0.135332 0.0282597 0.358633
0.317662 0.00308232 0.386175
0.488441 0.000183108 0.403769
0.594614 0.000183108 0.414878
0.645655 0.000183108 0.423896
0.669505 0.000183108 0.432074
0 0.0967727 0.333532
0.000183108 0.0991836 0.344503
0.00311284 0.106493 0.367193
0.140932 0.119326 0.402823
0.358572 0.105867 0.432593
0.547707 0.0592203 0.450706
0.662531 0.014786 0.461891
0.71519 0.0138857 0.471733
0.7393 0.0146792 0.481575
0 0.181567 0.374105
0.000183108 0.188098 0.386725
0.000213626 0.207416 0.410819
0.123033 0.242405 0.445594
0.405615 0.274662 0.475547
0.618677 0.277821 0.494545
0.746807 0.277089 0.505562
0.804974 0.282673 0.516243
0.829984 0.292561 0.527321
0 0.305898 0.414923
0.000183108 0.320638 0.427863
0.000183108 0.356222 0.451926
0.100847 0.417014 0.484932
0.464164 0.486305 0.504875
0.681453 0.521996 0.536217
0.836164 0.532601 0.537484
0.898405 0.547173 0.548836
0.924102 0.560021 0.560571
0 0.430655 0.449165
0.000183108 0.453956 0.462303
0.000183108 0.503258 0.483894
0.0449989 0.58468 0.513527
0.465751 0.667277 0.538643
0.738415 0.715892 0.558831
0.897673 0.744335 0.554925
0.963806 0.760403 0.566461
0.987793 0.772061 0.578637
0 0.509667 0.473533
0.000183108 0.538018 0.486809
0.000183108 0.597055 0.507515
0.0159762 0.688212 0.537438
0.46273 0.784039 0.559426
0.768627 0.843641 0.570504
0.931258 0.873915 0.580301
0.993667 0.888685 0.592966
0.999985 0.897963 0.607645
0 0.544823 0.501213
0.000183108 0.5785 0.517082
0.000183108 0.642191 0.539895
0.00819409 0.736919 0.570764
0.471916 0.835264 0.593896
0.781384 0.895949 0.606622
0.942245 0.925734 0.61854
0.997467 0.93817 0.632136
1 0.944244 0.647807
0 0.566232 0.536782
0.000183108 0.607752 0.557519
0.000183108 0.675685 0.586938
0.0269322 0.771634 0.616556
0.499382 0.865888 0.639612
0.794186 0.923949 0.653223
0.947601 0.952468 0.666209
0.998138 0.963775 0.679973
1 0.967803 0.692851
0 0 0.372824
0.000183108 0 0.384695
0.000671397 0 0.409461
0.10544 0 0.44622
0.285222 0 0.479652
0.449027 0 0.502373
0.554025 0 0.515648
0.602075 0 0.523262
0.625269 0 0.529244
0 0.0302586 0.408499
0.000183108 0.0261234 0.421408
0.000183108 0.0180972 0.448218
0.102052 0.0109865 0.488396
0.315648 0.00231937 0.525536
0.490867 0.000198367 0.548959
0.599466 0.000183108 0.563088
0.651072 0.000183108 0.571984
0.67512 0.000183108 0.579705
0 0.106401 0.461082
0.000183108 0.107469 0.474937
0.000183108 0.114076 0.504875
0.100649 0.124483 0.54934
0.353902 0.11162 0.590372
0.549645 0.0744488 0.615412
0.666896 0.0175631 0.630137
0.721157 0.0158541 0.640253
0.745586 0.0170443 0.648356
0 0.205646 0.519692
0.000183108 0.21146 0.534997
0.000183108 0.23035 0.566354
0.0795453 0.265858 0.613046
0.390997 0.296635 0.656489
0.614832 0.305013 0.681331
0.747005 0.307134 0.695994
0.807782 0.317189 0.707897
0.833326 0.328176 0.717174
0 0.339361 0.577005
0.000183108 0.35314 0.592126
0.000183108 0.388663 0.623697
0.0233463 0.449577 0.669505
0.414221 0.512871 0.711391
0.6804 0.549004 0.73579
0.827298 0.565667 0.748806
0.892439 0.581201 0.758877
0.918822 0.592828 0.767117
0 0.465583 0.620417
0.000183108 0.488838 0.636439
0.000183108 0.537423 0.666545
0.0056611 0.61857 0.709957
0.415274 0.702174 0.748608
0.727825 0.756786 0.773922
0.869276 0.784985 0.792065
0.95082 0.792508 0.791745
0.977386 0.803479 0.800793
0 0.545312 0.649119
0.000183108 0.572763 0.665858
0.000183108 0.630762 0.695262
0.00535592 0.720073 0.737453
0.409964 0.814878 0.773754
0.742153 0.871351 0.796567
0.901289 0.897917 0.823865
0.97995 0.916228 0.818479
0.999496 0.924163 0.825528
0 0.577188 0.669184
0.000183108 0.609384 0.687694
0.000183108 0.672175 0.719921
0.00572213 0.765347 0.762081
0.421164 0.862272 0.798444
0.754253 0.921843 0.82063
0.922362 0.951034 0.833417
0.989609 0.962493 0.843198
0.999985 0.967193 0.85153
0 0.59501 0.691432
0.000183108 0.635416 0.714488
0.000183108 0.702083 0.751278
0.0189212 0.796918 0.793072
0.456748 0.889662 0.827893
0.771191 0.946349 0.848692
0.930007 0.974014 0.861082
0.992111 0.985138 0.870085
1 0.988647 0.877394
0 0 0.42829
0.000183108 0 0.444007
0.000183108 0 0.471839
0.0888075 0 0.512856
0.282353 0 0.552209
0.45034 0 0.578256
0.558755 0 0.594003
0.608164 0 0.60206
0.632441 0 0.607263
0 0.0248569 0.470863
0.000183108 0.0125887 0.486351
0.000183108 0.00923171 0.516686
0.0883803 0.00862135 0.561898
0.311269 0.00242618 0.605509
0.491905 0.000198367 0.633234
0.604227 0.000198367 0.649363
0.658228 0.000183108 0.65951
0.683055 0.000183108 0.666896
0 0.114794 0.533028
0.000183108 0.114733 0.54815
0.000183108 0.120439 0.581537
0.0798657 0.131365 0.630976
0.344793 0.120409 0.678828
0.548058 0.0891127 0.708278
0.670558 0.0564279 0.725063
0.727169 0.0387121 0.735622
0.752972 0.0451514 0.743709
0 0.221317 0.600931
0.000183108 0.226886 0.617227
0.000183108 0.245853 0.65304
0.0409247 0.282872 0.705715
0.375235 0.315831 0.756817
0.610956 0.326055 0.786984
0.747402 0.33051 0.803998
0.810498 0.34197 0.815259
0.837598 0.353628 0.82266
0 0.360265 0.667414
0.000183108 0.37406 0.68426
0.000183108 0.40853 0.720256
0.00595102 0.470069 0.772381
0.385946 0.533944 0.822385
0.668406 0.567834 0.851164
0.820737 0.588006 0.866773
0.889494 0.603952 0.875929
0.917372 0.616754 0.882582
0 0.487419 0.714885
0.000183108 0.50901 0.731914
0.000183108 0.555901 0.766949
0.0047303 0.635645 0.815991
0.376165 0.720226 0.863523
0.701946 0.769406 0.890608
0.868879 0.794934 0.90425
0.942275 0.810025 0.912047
0.970687 0.820493 0.91754
0 0.562951 0.740887
0.000183108 0.589197 0.758648
0.000183108 0.645396 0.793561
0.0043946 0.734234 0.84123
0.366583 0.829297 0.886824
0.720195 0.887114 0.91339
0.897505 0.916457 0.927672
0.962875 0.932433 0.939147
0.996338 0.937255 0.938659
0 0.593347 0.754742
0.000183108 0.624582 0.77499
0.000183108 0.686336 0.812116
0.00476081 0.778058 0.859312
0.381292 0.874601 0.903273
0.735668 0.933883 0.928817
0.908705 0.962432 0.941405
0.974456 0.972305 0.95555
0.998245 0.978454 0.954284
0 0.608225 0.765332
0.000183108 0.647623 0.790814
0.000183108 0.71284 0.828809
0.0135195 0.806226 0.876356
0.423377 0.899062 0.918242
0.754574 0.9561 0.942061
0.917556 0.983795 0.954009
0.984649 0.994369 0.959777
0.999939 0.997574 0.963607
0 0 0.458183
0.000183108 0 0.473182
0.000183108 0 0.501564
0.079469 0 0.545007
0.277943 0 0.58819
0.451926 0 0.617777
0.563485 0 0.634485
0.614694 0 0.643778
0.639597 0 0.649287
0 0.028275 0.501656
0.000183108 0.0196841 0.517754
0.000183108 0.00852979 0.548913
0.0743114 0.00825513 0.596277
0.300999 0.00544747 0.643793
0.487694 0.000274662 0.674952
0.607584 0.000198367 0.693187
0.663966 0.000198367 0.7037
0.689952 0.000198367 0.710964
0 0.122271 0.565087
0.000183108 0.123369 0.581613
0.000183108 0.128679 0.615885
0.0577707 0.143236 0.66862
0.33254 0.139879 0.720577
0.543511 0.108217 0.753552
0.67306 0.0935683 0.77261
0.733745 0.0947585 0.783902
0.760449 0.100999 0.791333
0 0.233478 0.635431
0.000183108 0.240269 0.653422
0.000183108 0.259922 0.690196
0.0123445 0.298207 0.74548
0.356054 0.334417 0.800519
0.60412 0.34725 0.833677
0.746731 0.354025 0.852323
0.813077 0.364569 0.863539
0.841123 0.373953 0.870329
0 0.370855 0.702861
0.000183108 0.384085 0.720577
0.000183108 0.41825 0.758175
0.00476081 0.478676 0.812573
0.357305 0.54342 0.86659
0.65333 0.579477 0.89929
0.812482 0.599237 0.916259
0.886473 0.615915 0.925887
0.915312 0.626978 0.930434
0 0.494514 0.749645
0.000183108 0.51548 0.768017
0.000183108 0.561349 0.804929
0.00399786 0.639841 0.856504
0.342275 0.72488 0.908446
0.684779 0.775647 0.939559
0.858534 0.801663 0.954894
0.936812 0.817533 0.963012
0.966583 0.827115 0.96669
0 0.569635 0.774548
0.000183108 0.594919 0.793561
0.000183108 0.649821 0.830655
0.00364691 0.736477 0.880339
0.32842 0.831144 0.929778
0.701991 0.890211 0.959915
0.884047 0.919509 0.974548
0.96286 0.933623 0.982025
0.992309 0.940536 0.985061
0 0.598657 0.785061
0.000183108 0.628626 0.806195
0.000183108 0.688228 0.843976
0.00384527 0.778424 0.893278
0.338949 0.875151 0.941344
0.717159 0.935729 0.970459
0.898939 0.965499 0.984909
0.973816 0.977417 0.991028
0.997574 0.982773 0.993988
0 0.612985 0.792142
0.000183108 0.65066 0.817807
0.000183108 0.714046 0.856229
0.00875868 0.806134 0.905669
0.390265 0.899413 0.95137
0.739055 0.95729 0.978637
0.908873 0.985626 0.991958
0.978744 0.996109 0.995636
0.999405 0.999847 0.998047
0 0 0.465736
0.000183108 0 0.480766
0.000183108 0 0.509194
0.0741588 0 0.552819
0.274281 0 0.596613
0.450217 0 0.626703
0.564309 0 0.643748
0.615839 0 0.653071
0.640848 0 0.65803
0 0.0279088 0.509621
0.000183108 0.0199893 0.525765
0.000183108 0.0077821 0.556451
0.0673838 0.00630198 0.603876
0.294057 0.00474556 0.652033
0.483055 0.00030518 0.683909
0.606867 0.000183108 0.702449
0.662745 0.000198367 0.712673
0.689158 0.000198367 0.719402
0 0.122744 0.574243
0.000183108 0.123659 0.590845
0.000183108 0.128817 0.625147
0.05066 0.143511 0.67776
0.324315 0.143679 0.730755
0.537987 0.108003 0.764157
0.671458 0.0944381 0.783612
0.732158 0.096025 0.794537
0.759533 0.102037 0.801495
0 0.234226 0.646143
0.000183108 0.23975 0.6636
0.000183108 0.259907 0.700481
0.00633249 0.29778 0.756039
0.344656 0.334493 0.811963
0.598581 0.348135 0.846067
0.744671 0.354498 0.865141
0.811246 0.364248 0.87599
0.840116 0.3738 0.882277
0 0.372412 0.715282
0.000183108 0.383886 0.732204
0.000183108 0.417136 0.769451
0.00445563 0.476173 0.823453
0.343313 0.540246 0.87837
0.645518 0.5776 0.912383
0.809491 0.59826 0.930266
0.883772 0.613474 0.938933
0.91342 0.624018 0.942519
0 0.494118 0.761807
0.000183108 0.513542 0.779721
0.000183108 0.558953 0.816526
0.00376898 0.635981 0.868132
0.325628 0.721096 0.921309
0.677012 0.773419 0.953613
0.855589 0.800702 0.969345
0.933898 0.815778 0.976532
0.964752 0.825162 0.979065
0 0.570474 0.787198
0.000183108 0.594934 0.806088
0.000183108 0.648936 0.843107
0.00344854 0.735042 0.892607
0.314778 0.830289 0.943328
0.696086 0.889921 0.973846
0.882643 0.919829 0.988037
0.961028 0.933333 0.994247
0.991073 0.940063 0.995865
0 0.599451 0.797269
0.000183108 0.628717 0.81799
0.000183108 0.687266 0.855253
0.00367742 0.777356 0.904433
0.327672 0.874556 0.953094
0.712322 0.935668 0.98175
0.899001 0.966094 0.995453
0.972564 0.977264 0.999619
0.998047 0.981964 1
0 0.613275 0.802625
0.000183108 0.649714 0.827466
0.000183108 0.712383 0.865339
0.00531014 0.803677 0.914382
0.378912 0.897826 0.959884
0.734813 0.956573 0.986542
0.907713 0.985382 0.998917
0.977523 0.995666 1
0.999313 0.999863 0.999924
