src/assets/luts/Alen Palander - Toronto.cube
TITLE "Generated by Resolve"
LUT_3D_SIZE 9
0.000274662 0.00802625 0.0183566
0.0245365 0.00323491 0.0128786
0.0796368 0.00833143 0.00694286
0.157336 0.000350958 0.0024567
0.246143 0 0.000244144
0.35172 0 0
0.456046 0 0
0.557916 0 0
0.606989 0 0
0 0.0462654 0.0242161
0.0201572 0.0466773 0.0211185
0.102342 0.0614023 0.0153964
0.208042 0.0616007 0.00469978
0.317678 0.0290227 0.000793469
0.437201 0.00549325 3.0518e-05
0.549935 0.00201419 3.0518e-05
0.646036 0.000915541 1.5259e-05
0.681895 0.00062562 1.5259e-05
0 0.107347 0.0323949
0.00972 0.11426 0.0291142
0.142275 0.147799 0.0119173
0.283009 0.173388 0.00170901
0.416403 0.180209 0.000122072
0.5514 0.17026 6.10361e-05
0.672526 0.149722 6.10361e-05
0.762478 0.126101 4.57771e-05
0.790982 0.120226 4.57771e-05
0 0.165454 0.0293584
0.00675975 0.182147 0.0205386
0.175952 0.237751 0.00296025
0.339635 0.278004 0.000320439
0.486213 0.298161 0.000106813
0.627283 0.306523 9.15541e-05
0.750927 0.306188 7.62951e-05
0.837552 0.304753 6.10361e-05
0.863081 0.302556 4.57771e-05
0 0.226001 0.0188144
0.0052491 0.253834 0.00462348
0.198383 0.326375 0.000244144
0.380346 0.375204 0.000137331
0.535164 0.40267 0.000122072
0.677363 0.416281 0.000106813
0.800626 0.421241 7.62951e-05
0.886809 0.422385 6.10361e-05
0.9122 0.41706 3.0518e-05
0 0.291493 0.00970474
0.00129702 0.324804 0.00163272
0.202487 0.408545 0.00015259
0.401907 0.463478 0.000137331
0.558419 0.492882 0.000106813
0.703288 0.509697 7.62951e-05
0.824582 0.514992 4.57771e-05
0.917494 0.516182 1.5259e-05
0.95285 0.513603 0
0 0.347784 0.00347906
0.000885023 0.380209 0.000167849
0.171557 0.467903 0.000122072
0.391608 0.527764 9.15541e-05
0.554086 0.561028 6.10361e-05
0.704692 0.581735 3.0518e-05
0.830701 0.592126 0
0.938216 0.60116 0
0.985931 0.604791 0
0 0.393881 0.000137331
0.000335698 0.415473 0.000106813
0.115679 0.505043 7.62951e-05
0.360372 0.576745 4.57771e-05
0.538705 0.620768 0
0.701473 0.652583 0
0.838758 0.671702 0
0.957855 0.684977 0
0.997757 0.688533 0
0 0.420798 0.000717174
0.000106813 0.432288 0.000167849
0.0619669 0.523232 1.5259e-05
0.333013 0.610834 0
0.526787 0.669581 0
0.696391 0.710567 0
0.847608 0.740017 0
0.976623 0.761685 0
1 0.772122 0
0 0.0162509 0.063859
0.0164187 0.0121614 0.057557
0.0813458 0.0154726 0.0576333
0.169406 0.00120546 0.053727
0.261906 0 0.0415198
0.368902 0 0.0207065
0.472007 0 0.00828565
0.570794 0 0.00607309
0.617273 0 0.00630198
0 0.0559243 0.0742809
0.0113527 0.0568551 0.0712139
0.110582 0.0711833 0.0762493
0.22887 0.0693217 0.0709544
0.3467 0.0342565 0.0521553
0.463035 0.0118105 0.0285954
0.574426 0.00363165 0.0198215
0.664256 0.0024567 0.01561
0.696635 0.00181582 0.0141604
0 0.121828 0.0927596
0.00375372 0.129549 0.0931868
0.148638 0.165057 0.0923934
0.302068 0.192111 0.0694133
0.442435 0.198001 0.0477607
0.573083 0.188602 0.0295415
0.692943 0.16997 0.01738
0.78027 0.153979 0.0112459
0.806226 0.147829 0.0099031
0 0.187625 0.10663
0.00149538 0.205188 0.10576
0.172824 0.264042 0.0907759
0.355123 0.304387 0.0603952
0.50779 0.322469 0.0296941
0.646113 0.329366 0.0189517
0.768566 0.32987 0.0119478
0.85333 0.331014 0.0100252
0.877928 0.329839 0.00863661
0 0.254536 0.118227
0.0009308 0.283452 0.112551
0.186313 0.359731 0.0800793
0.392081 0.408515 0.0368658
0.555703 0.435004 0.0196536
0.695872 0.445991 0.0115511
0.818524 0.45098 0.00657664
0.903014 0.454093 0.00451667
0.927504 0.448005 0.00337224
0 0.324865 0.12398
0.000595102 0.359548 0.109117
0.181033 0.446448 0.0552682
0.40824 0.500206 0.0230869
0.575525 0.527901 0.0113527
0.719081 0.541588 0.00433356
0.842512 0.546319 0.00137331
0.933532 0.548257 0.000381476
0.966613 0.543038 0.000167849
0 0.383032 0.116838
0.000335698 0.415518 0.0909133
0.134768 0.506157 0.0306554
0.39408 0.566903 0.0125887
0.573617 0.601465 0.0024567
0.721218 0.618006 0.000717174
0.851881 0.626932 0.000167849
0.952453 0.630655 0.000167849
0.991821 0.628565 0.000167849
0 0.429084 0.091249
0.000167849 0.44976 0.0677958
0.0743267 0.543328 0.0197147
0.361563 0.616648 0.00520333
0.55642 0.659236 0.000183108
0.7149 0.684794 0.000167849
0.855375 0.700465 0.000167849
0.968582 0.709987 0.000167849
0.999146 0.710994 0.000167849
0 0.455985 0.0791638
0.000106813 0.466606 0.0517586
0.0371252 0.562402 0.0141604
0.332128 0.651072 0.00137331
0.541009 0.705638 0.000701915
0.712306 0.742351 0.000213626
0.865751 0.769085 0.000167849
0.984726 0.78854 0.000167849
1 0.799481 0.000167849
0 0.01944 0.122713
0.00401312 0.0153964 0.117144
0.0803388 0.0138857 0.125978
0.177356 0.00164797 0.131136
0.274601 0 0.131075
0.383185 0 0.12784
0.485786 0 0.122164
0.581613 0 0.115801
0.624994 0 0.116518
0 0.0674144 0.145327
0.00141909 0.06804 0.1467
0.108263 0.08365 0.15938
0.235569 0.0796063 0.16997
0.358434 0.0426642 0.169665
0.47689 0.0181888 0.165835
0.588342 0.00590524 0.159945
0.676249 0.00444038 0.158007
0.706966 0.00341802 0.161074
0 0.141604 0.179721
0.000839246 0.150744 0.184833
0.154452 0.18793 0.190829
0.298589 0.220752 0.21117
0.454429 0.222385 0.204852
0.588556 0.215335 0.196323
0.706508 0.198322 0.184924
0.790661 0.185885 0.178302
0.815869 0.180026 0.179767
0 0.213443 0.205692
0.000411994 0.231815 0.212619
0.153292 0.287282 0.228397
0.348302 0.328923 0.235645
0.512734 0.351232 0.216022
0.655421 0.357778 0.1991
0.777401 0.358389 0.18088
0.860395 0.360021 0.170809
0.884825 0.35903 0.168948
0 0.283726 0.226856
0.000167849 0.314397 0.234775
0.142672 0.391272 0.243626
0.384375 0.43859 0.234333
0.557885 0.467079 0.209613
0.700862 0.477531 0.183062
0.822751 0.481178 0.151263
0.906554 0.48249 0.126909
0.93193 0.476814 0.125521
0 0.35404 0.242802
0.000167849 0.390784 0.247578
0.124346 0.479057 0.24683
0.391485 0.532799 0.221286
0.571954 0.560525 0.18265
0.719738 0.573892 0.138705
0.843946 0.578042 0.0915999
0.935607 0.579049 0.0600595
0.97026 0.574609 0.0618143
0 0.415213 0.251499
0.000167849 0.449241 0.246632
0.0690471 0.541634 0.229847
0.367758 0.60293 0.186908
0.566064 0.63772 0.117525
0.720134 0.653696 0.0697337
0.85275 0.661692 0.04065
0.955123 0.665095 0.030518
0.995026 0.664683 0.0247349
0 0.465324 0.249302
0.000167849 0.486015 0.235904
0.0267185 0.581598 0.207355
0.32137 0.657008 0.152972
0.543938 0.700053 0.0764935
0.712886 0.724834 0.0370642
0.856779 0.738994 0.026215
0.971725 0.748333 0.0188754
0.999725 0.751034 0.013901
0 0.493828 0.254307
9.15541e-05 0.50518 0.237613
0.00927749 0.603555 0.207141
0.277302 0.694789 0.146822
0.524117 0.749706 0.0838788
0.707958 0.78584 0.0345464
0.865705 0.812009 0.0230411
0.987533 0.832349 0.0193942
1 0.847211 0.022797
0 0.0164797 0.174929
0.000503548 0.0107881 0.17145
0.0730449 0.004654 0.190311
0.179553 0 0.20354
0.280659 0 0.209369
0.391562 0 0.212879
0.493889 0 0.21445
0.588449 0 0.217456
0.629084 0 0.222187
0 0.0751049 0.212161
0.000427253 0.0764782 0.218448
0.0953841 0.0901045 0.245243
0.239506 0.0857404 0.261067
0.366247 0.0486305 0.268116
0.487266 0.0236362 0.270726
0.598032 0.0080415 0.272068
0.684016 0.00639353 0.277806
0.713085 0.00526436 0.2813
0 0.156878 0.257252
0.000320439 0.167758 0.269337
0.127062 0.211078 0.286046
0.304524 0.247181 0.306615
0.457618 0.24242 0.321935
0.596124 0.23418 0.322881
0.714 0.218677 0.322103
0.796551 0.208881 0.325978
0.820462 0.202945 0.328588
0 0.233188 0.289616
0.000183108 0.253574 0.304585
0.131746 0.312581 0.327459
0.355444 0.35639 0.340673
0.501457 0.379294 0.354101
0.658991 0.380499 0.344015
0.78204 0.381765 0.338735
0.863386 0.383566 0.33817
0.887144 0.382315 0.339208
0 0.306188 0.315404
0.000167849 0.33843 0.332433
0.110735 0.414618 0.356847
0.378988 0.454429 0.368597
0.542351 0.487205 0.369894
0.698222 0.500984 0.348486
0.8224 0.504021 0.334279
0.906157 0.504417 0.325368
0.931685 0.498833 0.323079
0 0.377997 0.336355
0.000167849 0.414984 0.349584
0.088014 0.503136 0.367559
0.370352 0.55491 0.365042
0.559884 0.581445 0.353918
0.712963 0.596704 0.332998
0.839185 0.601099 0.310933
0.932815 0.601801 0.294911
0.968124 0.597025 0.287953
0 0.438148 0.34789
0.000167849 0.472358 0.353552
0.0445258 0.565286 0.363607
0.333059 0.626444 0.352987
0.548272 0.661677 0.331304
0.70985 0.677897 0.305531
0.843915 0.685969 0.275883
0.950698 0.690501 0.249088
0.993317 0.69041 0.237827
0 0.489708 0.354253
0.000167849 0.511025 0.351583
0.0143282 0.607904 0.356481
0.271962 0.68513 0.341772
0.521584 0.729458 0.313283
0.700801 0.755169 0.274083
0.846998 0.769146 0.240696
0.966628 0.779461 0.215702
0.999557 0.783459 0.20827
0 0.520516 0.370245
9.15541e-05 0.532525 0.36199
0.00376898 0.632868 0.367193
0.213443 0.726009 0.350774
0.496208 0.782589 0.317403
0.693187 0.820188 0.274128
0.854932 0.847517 0.245487
0.985153 0.868818 0.2327
1 0.886076 0.260441
0 0.0105592 0.222904
0.000244144 0.00311284 0.220798
0.0619821 0.00190738 0.246418
0.1785 0 0.264836
0.282078 0 0.273747
0.394736 0 0.281102
0.498268 0 0.28542
0.592676 0 0.292943
0.631327 0 0.300343
0 0.0813458 0.272938
0.000259403 0.0831617 0.283314
0.0815137 0.0953384 0.319905
0.242481 0.0898451 0.340612
0.374014 0.0541848 0.35169
0.496025 0.0308537 0.357549
0.60647 0.0108644 0.362142
0.689998 0.00843824 0.36965
0.718059 0.00732433 0.372885
0 0.169787 0.326253
0.000198367 0.181827 0.343709
0.0916609 0.223972 0.380804
0.306905 0.256245 0.399252
0.461997 0.257374 0.416815
0.600046 0.249989 0.421561
0.718563 0.235569 0.424414
0.800259 0.227298 0.431205
0.823255 0.222049 0.433722
0 0.249378 0.363226
0.000167849 0.271687 0.384833
0.10071 0.333806 0.420813
0.360983 0.382574 0.425299
0.50312 0.406653 0.451057
0.659144 0.400015 0.452216
0.783413 0.399924 0.450752
0.864469 0.402731 0.454337
0.887907 0.401892 0.455741
0 0.324208 0.392554
0.000167849 0.359106 0.41735
0.0922408 0.436652 0.451835
0.380224 0.478233 0.462074
0.53669 0.512734 0.481331
0.688838 0.52372 0.470542
0.820264 0.522988 0.457481
0.904784 0.523934 0.454734
0.930846 0.519097 0.453361
0 0.397055 0.416724
0.000167849 0.435187 0.437064
0.0610971 0.52224 0.465217
0.350881 0.572076 0.472251
0.551858 0.59443 0.478691
0.698161 0.613809 0.468208
0.83328 0.618799 0.446876
0.928801 0.620386 0.43949
0.965728 0.617365 0.436988
0 0.456703 0.429129
0.000167849 0.49099 0.441703
0.0228122 0.583322 0.465034
0.294835 0.645289 0.467216
0.532723 0.679942 0.461387
0.697856 0.695552 0.448966
0.835203 0.704433 0.431357
0.944976 0.709895 0.418021
0.990936 0.710567 0.414923
0 0.507973 0.43798
0.000167849 0.529122 0.441627
0.00608835 0.626154 0.461402
0.212909 0.70454 0.463554
0.499565 0.749187 0.454017
0.688136 0.77586 0.437461
0.838132 0.790219 0.419013
0.960037 0.800946 0.404532
0.999146 0.805158 0.403571
0 0.539879 0.458152
9.15541e-05 0.552071 0.454185
0.00114443 0.652674 0.474403
0.125292 0.747036 0.476127
0.468391 0.804318 0.466209
0.679576 0.842695 0.45095
0.846311 0.870863 0.436851
0.982132 0.894026 0.432181
1 0.912932 0.46067
0 0.00581369 0.269871
0.000213626 0.00030518 0.269093
0.0564431 6.10361e-05 0.300221
0.178973 0 0.323003
0.284642 0 0.334768
0.397955 0 0.34464
0.502052 0 0.350973
0.595499 0 0.360388
0.632609 0 0.368231
0 0.087068 0.331548
0.000198367 0.088426 0.34342
0.0680858 0.0995651 0.387076
0.243793 0.0926986 0.412634
0.380621 0.0605936 0.427436
0.502922 0.0383459 0.434943
0.613809 0.0151827 0.441917
0.695796 0.0104067 0.450065
0.72224 0.0091249 0.451804
0 0.182635 0.393469
0.000167849 0.194903 0.412909
0.0666972 0.236393 0.461112
0.301213 0.263416 0.486076
0.464668 0.270253 0.502022
0.602136 0.264942 0.508675
0.721721 0.251942 0.514168
0.803357 0.244907 0.521584
0.825193 0.239216 0.522133
0 0.264897 0.434028
0.000167849 0.288045 0.457847
0.0779889 0.351461 0.505257
0.345403 0.397299 0.517708
0.511986 0.423758 0.534661
0.658 0.418021 0.544427
0.783764 0.416785 0.546227
0.864881 0.419654 0.550835
0.887587 0.417823 0.550393
0 0.341314 0.466712
0.000167849 0.376806 0.493217
0.0686198 0.455299 0.536873
0.363973 0.501701 0.54789
0.545983 0.539803 0.562097
0.677729 0.548089 0.57116
0.817166 0.53991 0.559777
0.902708 0.540413 0.558679
0.92903 0.534508 0.554238
0 0.414343 0.492988
0.000167849 0.452277 0.514244
0.0356909 0.539117 0.551461
0.326467 0.590036 0.564416
0.552697 0.611185 0.574639
0.680613 0.633204 0.583169
0.8262 0.636454 0.558511
0.924773 0.636988 0.551537
0.962676 0.633127 0.546273
0 0.474235 0.506813
0.000167849 0.507607 0.521233
0.0111696 0.599512 0.553201
0.250263 0.661097 0.563653
0.517906 0.694392 0.566384
0.684825 0.708034 0.567681
0.825071 0.721263 0.552346
0.939071 0.726238 0.539498
0.988022 0.727016 0.535607
0 0.524208 0.514824
0.000167849 0.544182 0.520302
0.00250248 0.640955 0.549294
0.149523 0.719371 0.561257
0.474372 0.763973 0.560662
0.674052 0.790555 0.553155
0.829023 0.806424 0.543954
0.953231 0.817655 0.534798
0.99855 0.822019 0.533806
0 0.555444 0.534539
9.15541e-05 0.567056 0.532189
0.000762951 0.668132 0.561746
0.0915847 0.762661 0.574136
0.441749 0.820249 0.574105
0.665492 0.859297 0.569329
0.838453 0.888899 0.565209
0.979797 0.914992 0.570626
1 0.932357 0.597025
0 0.00442512 0.316442
0.000213626 0.000946059 0.318456
0.0488899 0 0.354147
0.18088 0 0.381582
0.289372 0 0.396109
0.403128 0 0.40766
0.506737 0 0.415137
0.597833 0 0.424521
0.633295 0 0.432822
0 0.0928664 0.390997
0.000167849 0.0936904 0.402319
0.0517433 0.103258 0.451072
0.244205 0.0953689 0.481651
0.384466 0.0673381 0.49778
0.51017 0.0459449 0.508843
0.619806 0.0191653 0.51632
0.701457 0.0130617 0.525063
0.726436 0.0115663 0.528893
0 0.195453 0.459449
0.000167849 0.207721 0.479088
0.0598001 0.24976 0.533211
0.294972 0.275456 0.564782
0.464759 0.283253 0.580774
0.605615 0.280079 0.591348
0.725307 0.269261 0.59765
0.806424 0.263096 0.604242
0.8271 0.256947 0.60676
0 0.280339 0.502739
0.000167849 0.304204 0.528206
0.0608072 0.368002 0.582116
0.323232 0.408057 0.608927
0.512917 0.429023 0.620874
0.661112 0.433936 0.631189
0.784649 0.434241 0.63444
0.865278 0.436622 0.638025
0.887144 0.433524 0.638987
0 0.357321 0.5364
0.000167849 0.393347 0.564996
0.0408026 0.471763 0.614557
0.328359 0.519936 0.636271
0.548104 0.554772 0.639887
0.683055 0.567239 0.651865
0.813321 0.555795 0.649485
0.900328 0.555352 0.647837
0.926833 0.549691 0.647242
0 0.429908 0.563729
0.000167849 0.468376 0.587686
0.0176699 0.55523 0.631342
0.290761 0.607599 0.649882
0.548119 0.633371 0.652186
0.680629 0.657649 0.668925
0.814908 0.655604 0.656596
0.920378 0.652964 0.646998
0.959136 0.649256 0.644999
0 0.489067 0.578637
0.000167849 0.521019 0.593057
0.0059205 0.612863 0.632044
0.215412 0.674784 0.648814
0.502373 0.70695 0.653788
0.68127 0.719051 0.668177
0.80592 0.736156 0.661418
0.933104 0.740795 0.639033
0.985107 0.742641 0.638361
0 0.539361 0.588815
0.000167849 0.55816 0.593515
0.0019379 0.65449 0.62916
0.12932 0.733761 0.648417
0.454231 0.778241 0.652399
0.663996 0.804623 0.652506
0.816754 0.819242 0.650721
0.9467 0.833051 0.640452
0.997772 0.83801 0.64126
0 0.569329 0.606043
9.15541e-05 0.580499 0.603784
0.000656138 0.680797 0.638834
0.0817121 0.775982 0.659358
0.421759 0.833814 0.665629
0.655299 0.873838 0.668147
0.831052 0.903426 0.668299
0.976471 0.931884 0.680949
1 0.949889 0.7131
0 0.00343328 0.359106
0.000183108 0.00135805 0.36492
0.0353094 0.000106813 0.405295
0.182193 0 0.434699
0.294087 0 0.451743
0.409064 0 0.465278
0.513222 0 0.474632
0.602152 0 0.484642
0.636515 0 0.491951
0 0.0982986 0.443412
0.000167849 0.0993515 0.4598
0.0427253 0.107515 0.514015
0.244526 0.100099 0.547707
0.391104 0.0752575 0.566949
0.517037 0.0543526 0.578454
0.627588 0.0234379 0.58761
0.708476 0.0160983 0.596918
0.732708 0.0144808 0.59762
0 0.208209 0.518654
0.000167849 0.221912 0.544213
0.0532387 0.265248 0.604379
0.291341 0.291142 0.639109
0.470069 0.299992 0.659022
0.609522 0.296712 0.668574
0.73048 0.287877 0.676814
0.811688 0.284459 0.685039
0.832181 0.27808 0.684291
0 0.296788 0.567437
0.000167849 0.321309 0.597375
0.0427405 0.385641 0.656474
0.310506 0.424231 0.687526
0.511635 0.442527 0.704128
0.660563 0.448447 0.711513
0.785153 0.450675 0.716503
0.86656 0.453834 0.720806
0.888045 0.448768 0.717754
0 0.37406 0.603418
0.000167849 0.410941 0.635691
0.0205081 0.489815 0.691035
0.298436 0.536141 0.717968
0.532769 0.562371 0.729992
0.684489 0.571649 0.733166
0.810452 0.570504 0.733913
0.898772 0.570901 0.732692
0.925277 0.562081 0.727413
0 0.444602 0.629786
0.000167849 0.482628 0.65626
0.0129549 0.568994 0.705699
0.261769 0.620798 0.728573
0.521004 0.648554 0.735607
0.687449 0.669871 0.736584
0.810803 0.670573 0.73872
0.916136 0.665553 0.73283
0.9561 0.661143 0.729244
0 0.502419 0.64419
0.000167849 0.534661 0.662104
0.00480659 0.626398 0.707698
0.191394 0.68864 0.729397
0.484352 0.723812 0.737896
0.683268 0.739162 0.739635
0.795575 0.757168 0.75494
0.927443 0.75584 0.732036
0.981537 0.757214 0.73048
0 0.551568 0.653574
0.000167849 0.570459 0.661479
0.00173953 0.666087 0.703624
0.114885 0.745357 0.728023
0.435523 0.7906 0.73727
0.652323 0.816144 0.739742
0.807157 0.829084 0.752865
0.937774 0.846571 0.738506
0.996658 0.852628 0.737179
0 0.580194 0.665934
7.62951e-05 0.591699 0.666636
0.000610361 0.692378 0.71017
0.075349 0.787655 0.737881
0.403723 0.846021 0.750118
0.643763 0.886351 0.756298
0.827329 0.918288 0.763348
0.975204 0.946746 0.780346
1 0.96437 0.80972
0 0.0031281 0.406119
0.000167849 0.00128176 0.415595
0.0224308 0.000198367 0.460899
0.181659 0 0.492729
0.299382 0 0.512352
0.417395 0 0.528557
0.522118 0 0.540307
0.608804 0 0.551568
0.641871 0 0.55726
0 0.105547 0.501488
0.000167849 0.106355 0.520165
0.0408484 0.114214 0.578988
0.242206 0.109865 0.616495
0.395636 0.0851606 0.637827
0.525338 0.0653544 0.651682
0.636851 0.0348058 0.661799
0.717372 0.0215 0.670787
0.740764 0.0197147 0.671992
0 0.223011 0.583001
0.000167849 0.238148 0.61207
0.0405585 0.28336 0.677592
0.28127 0.310155 0.716457
0.471412 0.319097 0.738476
0.614908 0.316762 0.750271
0.73666 0.309926 0.759426
0.817975 0.30869 0.767361
0.838315 0.301564 0.766369
0 0.314946 0.634699
0.000167849 0.341146 0.669261
0.0201724 0.406592 0.734051
0.290364 0.445823 0.769085
0.508965 0.463661 0.787854
0.662501 0.470054 0.797314
0.787427 0.471931 0.802853
0.868925 0.474754 0.805859
0.890684 0.469673 0.802197
0 0.392859 0.671473
0.000167849 0.430701 0.708171
0.0161746 0.509728 0.76939
0.281559 0.555749 0.800275
0.521279 0.57882 0.815091
0.679805 0.585321 0.819638
0.807538 0.586862 0.819913
0.897215 0.587366 0.818021
0.924804 0.579004 0.812543
0 0.462699 0.697765
0.000167849 0.499641 0.727749
0.0116274 0.584863 0.781903
0.241001 0.636652 0.809232
0.499916 0.662181 0.820478
0.675639 0.675547 0.823636
0.809522 0.679591 0.822049
0.911803 0.680003 0.818845
0.953735 0.675517 0.814694
0 0.517021 0.711452
0.000167849 0.547631 0.730159
0.00401312 0.638361 0.780713
0.172915 0.70045 0.807568
0.460746 0.735607 0.819303
0.660136 0.753597 0.821973
0.803601 0.769177 0.823255
0.921035 0.768963 0.818921
0.977584 0.769726 0.81619
0 0.564111 0.71957
0.00015259 0.582116 0.727016
0.00151064 0.677348 0.775265
0.101961 0.757885 0.806378
0.414481 0.803174 0.819226
0.640055 0.830564 0.824552
0.806287 0.845273 0.833097
0.924971 0.862226 0.835966
0.994888 0.866789 0.827008
0 0.591409 0.726635
7.62951e-05 0.602899 0.728557
0.000549325 0.703578 0.778241
0.0688029 0.798978 0.81323
0.38584 0.857832 0.829969
0.63566 0.899107 0.84123
0.824292 0.932448 0.853147
0.975204 0.961547 0.875624
1 0.977737 0.901686
