src/assets/luts/Alen Palander - Toronto.cube
TITLE "Generated by Resolve"
LUT_3D_SIZE 5
0.000274662 0.00802625 0.0183566
0.0796368 0.00833143 0.00694286
0.246143 0 0.000244144
0.456046 0 0
0.606989 0 0
0 0.107347 0.0323949
0.142275 0.147799 0.0119173
0.416403 0.180209 0.000122072
0.672526 0.149722 6.10361e-05
0.790982 0.120226 4.57771e-05
0 0.226001 0.0188144
0.198383 0.326375 0.000244144
0.535164 0.40267 0.000122072
0.800626 0.421241 7.62951e-05
0.9122 0.41706 3.0518e-05
0 0.347784 0.00347906
0.171557 0.467903 0.000122072
0.554086 0.561028 6.10361e-05
0.830701 0.592126 0
0.985931 0.604791 0
0 0.420798 0.000717174
0.0619669 0.523232 1.5259e-05
0.526787 0.669581 0
0.847608 0.740017 0
1 0.772122 0
0 0.01944 0.122713
0.0803388 0.0138857 0.125978
0.274601 0 0.131075
0.485786 0 0.122164
0.624994 0 0.116518
0 0.141604 0.179721
0.154452 0.18793 0.190829
0.454429 0.222385 0.204852
0.706508 0.198322 0.184924
0.815869 0.180026 0.179767
0 0.283726 0.226856
0.142672 0.391272 0.243626
0.557885 0.467079 0.209613
0.822751 0.481178 0.151263
0.93193 0.476814 0.125521
0 0.415213 0.251499
0.0690471 0.541634 0.229847
0.566064 0.63772 0.117525
0.85275 0.661692 0.04065
0.995026 0.664683 0.0247349
0 0.493828 0.254307
0.00927749 0.603555 0.207141
0.524117 0.749706 0.0838788
0.865705 0.812009 0.0230411
1 0.847211 0.022797
0 0.0105592 0.222904
0.0619821 0.00190738 0.246418
0.282078 0 0.273747
0.498268 0 0.28542
0.631327 0 0.300343
0 0.169787 0.326253
0.0916609 0.223972 0.380804
0.461997 0.257374 0.416815
0.718563 0.235569 0.424414
0.823255 0.222049 0.433722
0 0.324208 0.392554
0.0922408 0.436652 0.451835
0.53669 0.512734 0.481331
0.820264 0.522988 0.457481
0.930846 0.519097 0.453361
0 0.456703 0.429129
0.0228122 0.583322 0.465034
0.532723 0.679942 0.461387
0.835203 0.704433 0.431357
0.990936 0.710567 0.414923
0 0.539879 0.458152
0.00114443 0.652674 0.474403
0.468391 0.804318 0.466209
0.846311 0.870863 0.436851
1 0.912932 0.46067
0 0.00442512 0.316442
0.0488899 0 0.354147
0.289372 0 0.396109
0.506737 0 0.415137
0.633295 0 0.432822
0 0.195453 0.459449
0.0598001 0.24976 0.533211
0.464759 0.283253 0.580774
0.725307 0.269261 0.59765
0.8271 0.256947 0.60676
0 0.357321 0.5364
0.0408026 0.471763 0.614557
0.548104 0.554772 0.639887
0.813321 0.555795 0.649485
0.926833 0.549691 0.647242
0 0.489067 0.578637
0.0059205 0.612863 0.632044
0.502373 0.70695 0.653788
0.80592 0.736156 0.661418
0.985107 0.742641 0.638361
0 0.569329 0.606043
0.000656138 0.680797 0.638834
0.421759 0.833814 0.665629
0.831052 0.903426 0.668299
1 0.949889 0.7131
0 0.0031281 0.406119
0.0224308 0.000198367 0.460899
0.299382 0 0.512352
0.522118 0 0.540307
0.641871 0 0.55726
0 0.223011 0.583001
0.0405585 0.28336 0.677592
0.471412 0.319097 0.738476
0.73666 0.309926 0.759426
0.838315 0.301564 0.766369
0 0.392859 0.671473
0.0161746 0.509728 0.76939
0.521279 0.57882 0.815091
0.807538 0.586862 0.819913
0.924804 0.579004 0.812543
0 0.517021 0.711452
0.00401312 0.638361 0.780713
0.460746 0.735607 0.819303
0.803601 0.769177 0.823255
0.977584 0.769726 0.81619
0 0.591409 0.726635
0.000549325 0.703578 0.778241
0.38584 0.857832 0.829969
0.824292 0.932448 0.853147
1 0.977737 0.901686
