src/assets/luts/Alen Palander - Alaska.cube
TITLE "Generated by Resolve"
LUT_3D_SIZE 5
0 0 0
0.126589 0.00598154 0.00422675
0.313085 0.00015259 0.00062562
0.519219 6.10361e-05 7.62951e-05
0.62501 7.62951e-05 9.15541e-05
4.57771e-05 0.123308 0.0179751
0.197787 0.180682 3.0518e-05
0.440009 0.203464 0
0.664836 0.178454 0
0.791943 0.147189 0
0 0.218143 3.0518e-05
0.172213 0.301503 0
0.469535 0.371374 0
0.72221 0.39472 0
0.888716 0.405432 0
0 0.32018 0
0.0900893 0.413779 0
0.487449 0.531044 0
0.774166 0.584604 0
0.967102 0.611215 0
0 0.410941 0
0.035172 0.51223 0
0.504479 0.667872 0
0.823285 0.747433 0
0.999649 0.790921 0
0 0.0127718 0.156146
0.137362 0.00570687 0.200488
0.343801 0.000122072 0.224109
0.541268 6.10361e-05 0.231754
0.641062 6.10361e-05 0.244648
0 0.167987 0.234775
0.206058 0.232044 0.250156
0.466926 0.248249 0.268864
0.688167 0.218219 0.250614
0.809628 0.19472 0.247776
0 0.279667 0.232517
0.0827344 0.365103 0.241611
0.486961 0.432944 0.208621
0.746441 0.449317 0.150103
0.905684 0.459312 0.121706
0 0.385779 0.209964
0.0198978 0.481788 0.192187
0.491341 0.600717 0.101228
0.788266 0.644083 0.0399634
0.976196 0.665904 0.024445
0 0.479973 0.20914
0.00218204 0.578683 0.168475
0.48838 0.739773 0.0814221
0.826856 0.816617 0.0302586
0.999908 0.872511 0.050782
1.5259e-05 0.00221256 0.274281
0.132952 0.00300603 0.34316
0.351751 6.10361e-05 0.37908
0.546166 4.57771e-05 0.392615
0.643091 4.57771e-05 0.408911
0 0.196017 0.395727
0.122423 0.256046 0.46331
0.462104 0.273945 0.486519
0.686397 0.243351 0.487678
0.810483 0.22269 0.494987
0 0.319829 0.418143
0.0317235 0.407492 0.470497
0.473014 0.483604 0.488334
0.737362 0.495186 0.490379
0.902754 0.505257 0.493019
0 0.4365 0.428717
0.00393683 0.531914 0.46479
0.443626 0.651514 0.483803
0.765194 0.695567 0.475853
0.967361 0.718822 0.468345
0 0.537652 0.464683
0.000167849 0.638911 0.492042
0.409903 0.80383 0.51194
0.800748 0.881605 0.513817
0.999817 0.934462 0.56379
3.0518e-05 0.00309758 0.3841
0.122774 0.00132753 0.474586
0.363043 7.62951e-05 0.518578
0.555444 4.57771e-05 0.535286
0.649241 4.57771e-05 0.549386
0 0.221973 0.536583
0.0793622 0.280156 0.622858
0.455299 0.296727 0.659052
0.684764 0.268238 0.665141
0.812711 0.249332 0.674434
0 0.351888 0.572106
0.00523384 0.438117 0.640848
0.443656 0.511254 0.680919
0.730205 0.529747 0.692622
0.89897 0.53901 0.699733
0 0.471504 0.594888
0.000900282 0.565621 0.646265
0.395346 0.687266 0.692653
0.737285 0.734386 0.723827
0.957 0.755306 0.70695
0 0.570413 0.630426
0.000167849 0.67097 0.673045
0.357305 0.835599 0.724559
0.785229 0.915099 0.751888
1 0.968811 0.810269
4.57771e-05 0.0055848 0.479713
0.110918 0.00204471 0.58114
0.367437 0.00047303 0.632166
0.566873 4.57771e-05 0.655711
0.664042 3.0518e-05 0.669596
0 0.255833 0.656184
0.0184024 0.317311 0.758877
0.437308 0.338277 0.8112
0.684764 0.314717 0.827893
0.823346 0.301823 0.839506
0 0.387549 0.706859
0.00248722 0.471244 0.789364
0.40145 0.546578 0.852888
0.718837 0.566476 0.876463
0.897917 0.579522 0.888395
0 0.504463 0.738766
0.000656138 0.594354 0.803616
0.337713 0.716915 0.874052
0.726986 0.762707 0.896819
0.946563 0.787701 0.907866
0 0.595529 0.76495
0.000167849 0.696132 0.823972
0.302846 0.860578 0.902144
0.773175 0.942824 0.945083
0.997086 0.993484 0.989227
