src/assets/luts/Alen Palander - Austria.cube
TITLE "Generated by Resolve"
LUT_3D_SIZE 5
0.0246891 0.024918 0.0250858
0.126162 0.0301061 0.026566
0.27097 0.00210575 0.00402838
0.439979 0.000106813 0.000137331
0.595956 7.62951e-05 7.62951e-05
0.00154116 0.113603 0.0406958
0.190784 0.165438 0.0129549
0.40705 0.190005 0.000381476
0.62237 0.173236 0.00015259
0.780468 0.135927 0.000122072
0.000137331 0.214618 0.0128023
0.221439 0.314015 0.00047303
0.491722 0.381796 0.00015259
0.736019 0.412482 0.00015259
0.9037 0.428214 0.000137331
0.000106813 0.329 0.000503548
0.224491 0.469993 0.000137331
0.551171 0.569894 0.00015259
0.822171 0.625681 0.00015259
0.990768 0.655177 0.00015259
9.15541e-05 0.432212 0.000320439
0.224338 0.598764 0.000122072
0.588907 0.715358 0.000137331
0.875059 0.784268 0.000137331
1 0.818219 0.000137331
0.000503548 0.0365148 0.142977
0.129412 0.0363928 0.165896
0.293156 0.00265507 0.169406
0.46659 0.000106813 0.160967
0.615839 7.62951e-05 0.149538
0.000167849 0.146609 0.192645
0.204501 0.206226 0.207706
0.427878 0.230167 0.233783
0.64976 0.215473 0.22269
0.802365 0.192386 0.214603
0.000137331 0.266972 0.212207
0.184588 0.371817 0.241108
0.504219 0.441154 0.236149
0.755901 0.471015 0.209949
0.919478 0.488945 0.197055
0.000122072 0.396963 0.223102
0.145357 0.548104 0.235599
0.554162 0.647944 0.200656
0.832731 0.699092 0.166506
0.994858 0.728634 0.158923
9.15541e-05 0.510658 0.257313
0.111177 0.687587 0.271504
0.569635 0.802365 0.247669
0.868223 0.867323 0.198215
1 0.900374 0.196002
0.00015259 0.0302434 0.26247
0.114488 0.0218814 0.307515
0.296757 0.0009308 0.327535
0.473518 0.000106813 0.333104
0.62208 7.62951e-05 0.337346
0.00015259 0.172534 0.353597
0.139666 0.231479 0.414557
0.426871 0.258274 0.445762
0.653361 0.244724 0.457771
0.807263 0.228595 0.469047
0.000137331 0.309209 0.400046
0.117159 0.417029 0.464225
0.493233 0.493065 0.495369
0.75079 0.517052 0.505547
0.917906 0.534813 0.514458
0.000122072 0.447395 0.43508
0.0552071 0.598184 0.4972
0.524269 0.694545 0.522515
0.815564 0.744823 0.529015
0.990463 0.773693 0.533715
0.000106813 0.562661 0.489067
0.0209049 0.73727 0.55346
0.522011 0.849073 0.575509
0.843198 0.912016 0.580056
1 0.94342 0.587411
0.000137331 0.0161593 0.373526
0.0834058 0.00541695 0.433814
0.295888 0.000381476 0.465644
0.476524 9.15541e-05 0.478721
0.624598 7.62951e-05 0.486595
0.00015259 0.1944 0.499382
0.0906539 0.252995 0.58352
0.419715 0.280293 0.62771
0.653971 0.27303 0.647532
0.810819 0.261631 0.662089
0.000137331 0.342931 0.562829
0.0352789 0.452766 0.650477
0.47335 0.524071 0.694377
0.744656 0.555108 0.715923
0.914488 0.572351 0.72874
0.000122072 0.484733 0.609308
0.0177462 0.635859 0.695201
0.490303 0.732158 0.736934
0.785977 0.783246 0.779339
0.982086 0.809339 0.767544
0.000106813 0.595697 0.658305
0.0156252 0.767193 0.742962
0.481895 0.877409 0.78262
0.822339 0.938842 0.800931
0.999985 0.969696 0.812085
0.000122072 0.00885023 0.481819
0.0585184 0.00317388 0.556741
0.291127 0.00102235 0.601694
0.482094 9.15541e-05 0.623957
0.636164 6.10361e-05 0.637797
0.000137331 0.225467 0.635416
0.0248722 0.289647 0.736858
0.400916 0.322683 0.795117
0.654673 0.322164 0.824628
0.822492 0.319387 0.843458
0.000137331 0.381537 0.710719
0.0159609 0.491753 0.814832
0.432898 0.563378 0.873884
0.730938 0.595529 0.904418
0.91368 0.618433 0.920989
0.000122072 0.518853 0.759121
0.0135348 0.665095 0.860578
0.434516 0.761532 0.917891
0.775464 0.811444 0.947204
0.971389 0.839872 0.961852
0.000106813 0.619776 0.79237
0.0117342 0.786282 0.890593
0.425635 0.895354 0.944518
0.793896 0.956573 0.972549
0.992767 0.990417 0.989944
