src/assets/luts/Alen Palander - Cappadocia.cube
TITLE "Generated by Resolve"
LUT_3D_SIZE 9
0.0346075 0.0388952 0.0395056
0.062089 0.0334936 0.0303349
0.0995499 0.0349889 0.0287022
0.134813 0.0368963 0.0310063
0.17026 0.0372168 0.0328985
0.199649 0.0370947 0.0332189
0.230182 0.0370642 0.0332647
0.252506 0.037705 0.0339971
0.252506 0.037705 0.0339971
0.0356756 0.0984512 0.0403754
0.0733043 0.11043 0.0410925
0.266987 0.0985885 0.0383459
0.332753 0.0767834 0.0417487
0.355062 0.0632792 0.0431983
0.365652 0.0540475 0.0433356
0.34548 0.0446632 0.0419165
0.322072 0.0412146 0.0389868
0.312261 0.0405585 0.0382544
0.0827192 0.22298 0.0579385
0.0950942 0.23653 0.0572366
0.229221 0.280171 0.0683146
0.553506 0.291707 0.0626688
0.617685 0.209186 0.0575875
0.567269 0.144518 0.053666
0.568246 0.121004 0.053315
0.546288 0.0945754 0.0520638
0.536919 0.0893721 0.0515755
0.269368 0.39675 0.0745403
0.263676 0.393103 0.0725719
0.223133 0.391928 0.0768444
0.4692 0.454948 0.0985122
0.730465 0.443565 0.0991836
0.779721 0.337423 0.0795148
0.764324 0.265827 0.070634
0.732158 0.211719 0.0650492
0.717998 0.201907 0.0638285
0.493141 0.539193 0.0942397
0.479026 0.530846 0.0937972
0.386969 0.508721 0.0911574
0.444419 0.520302 0.103365
0.705257 0.57789 0.148104
0.842832 0.538918 0.141619
0.873152 0.452247 0.110613
0.858701 0.363668 0.0906539
0.843168 0.334646 0.0856794
0.694835 0.641276 0.125933
0.680598 0.633707 0.123201
0.602762 0.60853 0.11545
0.538598 0.590585 0.120562
0.663188 0.618784 0.152483
0.846433 0.650584 0.196933
0.902907 0.602594 0.181353
0.91281 0.524254 0.146548
0.903349 0.463951 0.125063
0.838483 0.715114 0.161044
0.825452 0.708171 0.157366
0.786145 0.687068 0.14522
0.678447 0.654383 0.135729
0.697536 0.658351 0.160021
0.808087 0.686564 0.202914
0.906081 0.695369 0.243412
0.931655 0.647776 0.226627
0.93518 0.57641 0.187716
0.909087 0.76286 0.193423
0.902373 0.757046 0.188678
0.88246 0.742657 0.175509
0.820188 0.712673 0.157214
0.753429 0.692866 0.158953
0.803067 0.708858 0.195712
0.889204 0.739055 0.256168
0.940002 0.736324 0.297139
0.950088 0.687404 0.275624
0.931899 0.786404 0.216693
0.931899 0.786404 0.216693
0.930526 0.784253 0.213977
0.898054 0.758358 0.189166
0.843992 0.736767 0.178225
0.817609 0.729854 0.186679
0.872251 0.753338 0.239429
0.925505 0.78265 0.31696
0.953017 0.770932 0.343938
0.0281224 0.0286259 0.0582589
0.0778668 0.0335241 0.100221
0.120958 0.0358892 0.100069
0.151843 0.0377966 0.0780499
0.185702 0.038056 0.0553902
0.204837 0.0375372 0.04094
0.215717 0.0369421 0.0336614
0.232822 0.0370031 0.0332952
0.233494 0.0370031 0.0332952
0.0318914 0.126787 0.162463
0.101076 0.107012 0.124315
0.266758 0.0827802 0.0814984
0.341512 0.0598154 0.0551156
0.370001 0.0488594 0.0467842
0.357275 0.0437476 0.0420844
0.313039 0.0411383 0.0382391
0.287938 0.0393835 0.0360418
0.2813 0.0389868 0.0355993
0.0491188 0.232822 0.102464
0.129366 0.25182 0.0999313
0.31812 0.313222 0.0785534
0.580209 0.282856 0.0661021
0.645563 0.197955 0.0594034
0.612116 0.1393 0.0560159
0.58529 0.120546 0.0542153
0.552956 0.0997177 0.0524758
0.541405 0.0927138 0.0518502
0.201953 0.397742 0.0817426
0.243427 0.400275 0.0906844
0.335317 0.432166 0.0771344
0.539773 0.475761 0.0968338
0.75462 0.442023 0.0968338
0.78761 0.333776 0.0794995
0.757855 0.258228 0.069276
0.726055 0.210025 0.0644694
0.711742 0.198566 0.0632639
0.445548 0.535393 0.0955215
0.444297 0.52961 0.0996567
0.436439 0.525109 0.0979171
0.469459 0.525612 0.100725
0.707027 0.575936 0.143511
0.841016 0.536095 0.139406
0.87039 0.44799 0.109331
0.855772 0.360113 0.0898756
0.839155 0.328466 0.0844892
0.668757 0.636912 0.127749
0.666423 0.6309 0.123796
0.599786 0.606455 0.114778
0.530602 0.587121 0.11873
0.654078 0.614755 0.149737
0.841031 0.647379 0.194354
0.900328 0.599237 0.179065
0.910857 0.520897 0.144366
0.900984 0.457176 0.12221
0.833494 0.712459 0.15964
0.820081 0.705348 0.155825
0.782238 0.684916 0.144289
0.673777 0.651865 0.134249
0.689296 0.654673 0.157717
0.799969 0.682475 0.19971
0.903212 0.69276 0.240421
0.93019 0.644999 0.223331
0.933959 0.570794 0.183734
0.906523 0.760647 0.191608
0.899748 0.754772 0.186831
0.881086 0.741543 0.174762
0.818814 0.711284 0.156283
0.748409 0.69041 0.157443
0.797971 0.705898 0.193027
0.886229 0.736126 0.252369
0.93901 0.734493 0.294499
0.949233 0.685374 0.27303
0.931899 0.786404 0.216693
0.931899 0.786404 0.216693
0.93022 0.784115 0.214008
0.897215 0.757336 0.188174
0.842542 0.735393 0.176913
0.815 0.728145 0.18526
0.870222 0.75169 0.237598
0.924926 0.781567 0.315343
0.952926 0.770642 0.343572
0.0286564 0.0286717 0.074464
0.0451362 0.0312657 0.113039
0.0846113 0.0327306 0.123537
0.12372 0.0336919 0.133318
0.167636 0.0358129 0.133989
0.201251 0.0378729 0.121569
0.235004 0.0388952 0.078584
0.251255 0.038468 0.0474861
0.250187 0.0383459 0.0462043
0.0351415 0.0792706 0.209323
0.0474556 0.0681773 0.192294
0.202136 0.0462654 0.195514
0.27306 0.0438544 0.182239
0.308949 0.0428779 0.156939
0.328603 0.042771 0.122805
0.3187 0.0415961 0.0690776
0.301152 0.0399481 0.0454261
0.294636 0.0396277 0.0440986
0.0424659 0.285206 0.356878
0.0540169 0.28365 0.335119
0.309316 0.283955 0.297124
0.507668 0.247379 0.237537
0.572534 0.18024 0.178897
0.57435 0.10277 0.109087
0.543664 0.0604868 0.0598001
0.510903 0.0517586 0.0505379
0.502312 0.0519265 0.0500343
0.0538338 0.386343 0.296254
0.0733959 0.391424 0.285695
0.345449 0.435599 0.272602
0.568811 0.484764 0.237003
0.732464 0.438682 0.190463
0.766659 0.341222 0.134112
0.741375 0.220966 0.0785687
0.733425 0.174548 0.0643931
0.725216 0.169757 0.0635233
0.154147 0.486702 0.243076
0.178637 0.486519 0.233204
0.408057 0.538903 0.250675
0.594461 0.581064 0.211582
0.773999 0.603128 0.19057
0.870848 0.544808 0.160632
0.878599 0.44123 0.117281
0.854337 0.335988 0.0865187
0.840711 0.312337 0.08159
0.405829 0.601526 0.226581
0.412146 0.597864 0.213733
0.524041 0.620325 0.223728
0.639338 0.634745 0.192416
0.751675 0.646143 0.164034
0.876905 0.650294 0.167132
0.923705 0.602991 0.152193
0.926238 0.520165 0.128496
0.914321 0.461921 0.114855
0.672526 0.694743 0.216022
0.673045 0.688975 0.200793
0.699916 0.68629 0.188647
0.719097 0.675135 0.168841
0.742458 0.66836 0.147738
0.815152 0.680415 0.171038
0.908949 0.69189 0.209186
0.933211 0.648295 0.204685
0.935119 0.570642 0.175814
0.853391 0.759213 0.221225
0.851728 0.752987 0.20737
0.857511 0.742367 0.183978
0.833463 0.720317 0.163912
0.76878 0.695476 0.153735
0.801175 0.705303 0.186786
0.883284 0.733288 0.248692
0.937087 0.731807 0.290608
0.948394 0.683406 0.270512
0.929458 0.788647 0.218067
0.93051 0.787655 0.217517
0.928603 0.783505 0.213687
0.896437 0.75639 0.187198
0.841093 0.734005 0.175631
0.812528 0.726467 0.183902
0.868208 0.750134 0.23592
0.924437 0.780621 0.313878
0.953002 0.770871 0.343847
0.0301671 0.0302281 0.102007
0.0388342 0.0311589 0.138018
0.0720989 0.0324865 0.150118
0.0935073 0.032166 0.149615
0.127047 0.032639 0.157076
0.163165 0.0343938 0.157229
0.208194 0.0376287 0.13579
0.250004 0.0393988 0.101213
0.250584 0.0393988 0.0991073
0.0363317 0.0597848 0.227512
0.0377966 0.047776 0.226841
0.136751 0.0432746 0.241093
0.188128 0.0364233 0.208316
0.233799 0.0375219 0.200488
0.257191 0.0392767 0.178912
0.27306 0.0404059 0.144503
0.298314 0.0415351 0.101396
0.293812 0.0413367 0.0982071
0.0471199 0.25861 0.443793
0.0472725 0.244404 0.422492
0.149828 0.245472 0.389075
0.410056 0.215503 0.368856
0.512154 0.165759 0.331991
0.539086 0.0963607 0.268162
0.516838 0.0562448 0.17174
0.486717 0.0490272 0.0826276
0.476463 0.0484321 0.0796674
0.0552987 0.429816 0.516136
0.0628214 0.436454 0.507195
0.213092 0.466224 0.475654
0.490822 0.460014 0.44976
0.649119 0.42089 0.394293
0.701534 0.339361 0.326741
0.686213 0.211673 0.217014
0.654139 0.117983 0.100526
0.644038 0.105272 0.0874647
0.0733959 0.501732 0.474907
0.0846571 0.503136 0.461585
0.231052 0.537774 0.427848
0.503761 0.566369 0.421729
0.687312 0.598856 0.403616
0.817411 0.563806 0.355673
0.840772 0.464302 0.271977
0.808026 0.319249 0.152712
0.794095 0.274708 0.11313
0.162524 0.576013 0.426322
0.158831 0.569192 0.415488
0.301244 0.586816 0.369772
0.52607 0.630716 0.378317
0.703853 0.666636 0.358648
0.843809 0.681804 0.323033
0.908797 0.627253 0.270512
0.914 0.523949 0.183154
0.893385 0.426261 0.124483
0.424659 0.658259 0.366964
0.418402 0.651621 0.352636
0.475944 0.657176 0.328054
0.600946 0.683528 0.336004
0.71812 0.701869 0.313649
0.840131 0.720241 0.276692
0.92311 0.714611 0.239368
0.945739 0.661097 0.191043
0.944152 0.569375 0.147494
0.689906 0.738949 0.330068
0.684993 0.732448 0.313695
0.696635 0.728847 0.289876
0.732387 0.732387 0.281743
0.780392 0.735103 0.26952
0.840452 0.735485 0.223255
0.913817 0.748806 0.216098
0.94728 0.744183 0.217395
0.954162 0.696941 0.201129
0.851072 0.791043 0.323674
0.862089 0.791974 0.312367
0.860655 0.786694 0.295705
0.867872 0.778424 0.260319
0.875242 0.769421 0.229557
0.881468 0.757382 0.191104
0.918227 0.766995 0.199619
0.944823 0.785412 0.247227
0.957168 0.775036 0.284901
0.0314641 0.0314641 0.125383
0.036347 0.0328527 0.158389
0.0642252 0.0345464 0.179614
0.0878767 0.0344701 0.184009
0.0941787 0.0334325 0.174456
0.120439 0.0328374 0.179385
0.175372 0.0346075 0.176699
0.23125 0.0383154 0.158358
0.23209 0.0383917 0.156207
0.0369879 0.0535134 0.235462
0.0370031 0.0433204 0.244511
0.0939651 0.0420539 0.26157
0.153048 0.0378882 0.245701
0.157702 0.0346075 0.21059
0.192386 0.0353552 0.207858
0.228367 0.037705 0.191241
0.283864 0.0408942 0.168521
0.279118 0.0407111 0.164324
0.047715 0.228489 0.4748
0.0479286 0.216526 0.470161
0.0838178 0.21445 0.442542
0.298924 0.190448 0.429053
0.416648 0.131182 0.404761
0.489509 0.088304 0.376089
0.489174 0.054551 0.298711
0.478187 0.0496986 0.196048
0.466438 0.0491035 0.186801
0.0560464 0.395209 0.578882
0.0574807 0.399176 0.569863
0.105623 0.416159 0.546838
0.337438 0.428244 0.526589
0.553628 0.407553 0.507286
0.644678 0.347219 0.465843
0.66566 0.231861 0.381292
0.648371 0.11841 0.230976
0.635294 0.100526 0.204028
0.0734722 0.520699 0.621439
0.0818799 0.527001 0.61445
0.17557 0.567956 0.594491
0.403449 0.59057 0.576028
0.616663 0.584878 0.564828
0.733776 0.545693 0.513787
0.773632 0.461112 0.438087
0.769574 0.321828 0.30425
0.754421 0.262623 0.23447
0.106004 0.582467 0.578882
0.102541 0.576135 0.572305
0.197574 0.607309 0.539055
0.37351 0.626398 0.516152
0.608713 0.651453 0.522881
0.763149 0.676402 0.513954
0.863355 0.643519 0.466789
0.883253 0.547784 0.369879
0.866056 0.439185 0.263432
0.239322 0.650889 0.522728
0.22768 0.642542 0.513558
0.280964 0.641474 0.478492
0.416648 0.651164 0.445563
0.606851 0.69131 0.466484
0.765743 0.723156 0.465751
0.878996 0.734646 0.434501
0.933974 0.689128 0.373831
0.934096 0.588907 0.268513
0.507591 0.710887 0.451835
0.4925 0.703258 0.44181
0.494972 0.700832 0.434836
0.558831 0.707195 0.404929
0.668513 0.733364 0.421668
0.775586 0.753826 0.419501
0.88043 0.773632 0.399603
0.940566 0.764736 0.348592
0.955932 0.708782 0.272999
0.729717 0.776089 0.421958
0.734249 0.774884 0.411154
0.725307 0.768734 0.397925
0.74255 0.767285 0.371664
0.77966 0.775464 0.376806
0.831235 0.785122 0.375494
0.887678 0.794903 0.355062
0.942931 0.807477 0.339101
0.959838 0.785367 0.286641
0.0326543 0.0326543 0.148638
0.034165 0.0333562 0.170886
0.0604257 0.0354314 0.209812
0.0855421 0.0369726 0.218082
0.0937362 0.036759 0.213962
0.0881056 0.0358587 0.199878
0.129152 0.034699 0.203265
0.196399 0.0361791 0.212085
0.198047 0.0362554 0.210575
0.0376287 0.0557565 0.251621
0.0366217 0.0413519 0.24918
0.0728161 0.0394446 0.286061
0.135882 0.0396277 0.28423
0.154086 0.0388037 0.261936
0.140627 0.0368353 0.229511
0.178012 0.0361944 0.228336
0.261982 0.0389258 0.229831
0.256565 0.0386816 0.225299
0.0473793 0.203662 0.456138
0.0478523 0.196857 0.472374
0.0551919 0.180758 0.465492
0.199222 0.165652 0.458427
0.331304 0.121828 0.449897
0.372183 0.0684367 0.408255
0.433921 0.0514839 0.382788
0.464302 0.0485847 0.312779
0.451331 0.0479286 0.300618
0.0556344 0.360693 0.600519
0.0552834 0.361944 0.593866
0.0678721 0.377295 0.582544
0.218235 0.40473 0.574762
0.433356 0.372534 0.550347
0.543557 0.31931 0.53312
0.621729 0.247608 0.50219
0.646677 0.129747 0.396063
0.635813 0.105501 0.363958
0.0660563 0.479255 0.654215
0.0691234 0.483268 0.649836
0.102144 0.521065 0.640116
0.254856 0.554177 0.633555
0.499718 0.559243 0.619974
0.642741 0.534157 0.599725
0.719753 0.480934 0.565637
0.750881 0.358495 0.471061
0.748974 0.287434 0.399344
0.0978561 0.588937 0.684199
0.0951705 0.583764 0.680674
0.172015 0.626535 0.66772
0.325032 0.655283 0.656397
0.534997 0.667277 0.64715
0.695842 0.662394 0.639078
0.791394 0.629709 0.598474
0.823438 0.546975 0.518334
0.823011 0.444282 0.413977
0.15729 0.649363 0.645243
0.148653 0.641474 0.637278
0.189319 0.648676 0.611185
0.30753 0.668269 0.590372
0.477653 0.685985 0.582864
0.678767 0.709804 0.594491
0.817044 0.733593 0.592691
0.896056 0.701595 0.546456
0.910842 0.615 0.452384
0.329915 0.704204 0.583413
0.315282 0.6972 0.575647
0.319753 0.695583 0.572335
0.393515 0.692912 0.530251
0.507698 0.703365 0.514992
0.672816 0.740993 0.53994
0.817807 0.77203 0.551019
0.911528 0.777859 0.523888
0.952819 0.737469 0.460227
0.590799 0.753979 0.516472
0.585336 0.749706 0.507012
0.573068 0.743755 0.498161
0.582956 0.743877 0.489342
0.636866 0.753338 0.479484
0.736461 0.781048 0.504433
0.832151 0.802228 0.515496
0.918532 0.819013 0.50988
0.962509 0.802701 0.455909
0.0336004 0.0336004 0.167681
0.0334783 0.0334783 0.179843
0.0508888 0.0349279 0.230671
0.0842298 0.0376593 0.250813
0.0976577 0.0384985 0.251865
0.0970016 0.0382391 0.243915
0.0932021 0.0374304 0.224887
0.140658 0.037171 0.233265
0.141665 0.0370794 0.232471
0.0384527 0.0613413 0.273945
0.0364996 0.0433051 0.255207
0.0505684 0.0401617 0.295811
0.109026 0.0412146 0.313542
0.145571 0.0403754 0.301472
0.147494 0.0395666 0.277317
0.139178 0.0386358 0.252674
0.206546 0.0387427 0.26067
0.201846 0.038468 0.256779
0.0469062 0.20267 0.455268
0.0469368 0.184512 0.451362
0.0481727 0.149294 0.46717
0.096376 0.145602 0.464683
0.237171 0.117037 0.470314
0.314855 0.0704204 0.449134
0.324529 0.0489052 0.398428
0.423285 0.0463264 0.381231
0.411887 0.0455482 0.369665
0.0551919 0.346548 0.604685
0.0554055 0.341573 0.602106
0.0559243 0.330266 0.589105
0.125475 0.37084 0.594186
0.311025 0.356252 0.577935
0.45539 0.314214 0.570336
0.505272 0.228428 0.537026
0.620966 0.149584 0.511498
0.625055 0.11902 0.491157
0.0634928 0.452216 0.672389
0.0636454 0.451743 0.668132
0.0793317 0.487587 0.663127
0.18323 0.523262 0.661341
0.404685 0.543099 0.658518
0.548959 0.510918 0.634104
0.621195 0.464347 0.616785
0.708705 0.394476 0.588785
0.73022 0.317327 0.539223
0.0832074 0.552575 0.705394
0.0806134 0.545403 0.701473
0.122698 0.587594 0.6963
0.234668 0.621027 0.694972
0.429007 0.643915 0.694591
0.61236 0.643183 0.683925
0.698955 0.619608 0.664759
0.771176 0.574472 0.636347
0.798993 0.483742 0.565362
0.141482 0.650706 0.726284
0.133059 0.642908 0.721996
0.168765 0.657252 0.712016
0.281575 0.686717 0.705272
0.446647 0.71165 0.70399
0.625269 0.722622 0.703227
0.757183 0.720775 0.69865
0.835035 0.689479 0.66212
0.8607 0.619577 0.590341
0.225193 0.699306 0.693416
0.213642 0.692393 0.686885
0.212833 0.687144 0.674189
0.281697 0.700175 0.652827
0.406439 0.717784 0.642817
0.566918 0.736843 0.644297
0.738964 0.75877 0.657099
0.862226 0.779263 0.659571
0.920531 0.753811 0.619058
0.415152 0.745861 0.637446
0.403326 0.740261 0.629877
0.392279 0.735042 0.622599
0.424475 0.739132 0.618357
0.487846 0.737789 0.58587
0.593362 0.755352 0.587503
0.733272 0.789136 0.610483
0.873014 0.823072 0.634897
0.947799 0.828794 0.62121
0.0337987 0.0337987 0.172198
0.0339055 0.0339055 0.181765
0.0455024 0.0348058 0.235035
0.0799878 0.0377203 0.264195
0.099321 0.0388495 0.271153
0.106142 0.0390021 0.268849
0.132311 0.0392004 0.269856
0.139193 0.0388037 0.256596
0.139193 0.0388037 0.256596
0.0379034 0.0581674 0.275196
0.0368505 0.0459754 0.267872
0.0420844 0.0404212 0.29482
0.0827649 0.0422065 0.322286
0.130953 0.0411994 0.320394
0.148516 0.0403143 0.305241
0.159503 0.0401465 0.292653
0.18761 0.040238 0.284077
0.180987 0.0400244 0.280308
0.0467231 0.20061 0.453346
0.0467536 0.182681 0.449485
0.0473182 0.139437 0.464668
0.0567178 0.137285 0.468711
0.160311 0.126711 0.477531
0.269612 0.0890364 0.476051
0.310918 0.060029 0.445457
0.374975 0.047013 0.417014
0.361868 0.0463569 0.406821
0.0543984 0.335607 0.596567
0.0545357 0.325597 0.59295
0.0546273 0.297398 0.58233
0.0955062 0.338918 0.594217
0.224079 0.35874 0.598764
0.37116 0.330541 0.59263
0.462043 0.269581 0.578912
0.526528 0.175402 0.547372
0.54284 0.142657 0.533059
0.0630503 0.441413 0.682841
0.0631723 0.43801 0.679713
0.0703593 0.451972 0.669596
0.135805 0.489708 0.669734
0.346746 0.532998 0.678935
0.47628 0.509392 0.661158
0.559442 0.474418 0.650324
0.610407 0.406271 0.626459
0.667796 0.351339 0.611429
0.0812848 0.541756 0.721416
0.0781109 0.531228 0.71693
0.120272 0.576364 0.71664
0.228748 0.610239 0.71812
0.396139 0.631251 0.719646
0.562463 0.635721 0.714519
0.636927 0.60795 0.693706
0.678691 0.56791 0.675853
0.754421 0.517876 0.658808
0.133013 0.633585 0.744045
0.122423 0.621668 0.738964
0.139452 0.630137 0.732631
0.259098 0.671962 0.735332
0.402884 0.694987 0.739971
0.56376 0.705501 0.739986
0.695476 0.703593 0.733974
0.751537 0.684413 0.718257
0.81593 0.652293 0.697353
0.215915 0.703319 0.754894
0.202396 0.695277 0.750668
0.19826 0.690867 0.745571
0.265675 0.71046 0.737591
0.401831 0.737163 0.742153
0.554559 0.757305 0.74789
0.698756 0.769024 0.752667
0.812955 0.769635 0.750744
0.873167 0.747082 0.723857
0.304067 0.742 0.728161
0.293278 0.736538 0.725063
0.28246 0.731044 0.720882
0.310353 0.733577 0.705776
0.390387 0.746685 0.698314
0.522683 0.770886 0.706523
0.654627 0.788113 0.711025
0.800565 0.812039 0.727901
0.910979 0.838499 0.754101
0.0337987 0.0337987 0.172198
0.0339055 0.0339055 0.181323
0.044831 0.0347448 0.234089
0.0794232 0.0376745 0.26392
0.0991836 0.0388342 0.271168
0.105959 0.0390021 0.268864
0.131899 0.0392004 0.270024
0.139193 0.0388037 0.256596
0.139193 0.0388037 0.256596
0.037583 0.0558633 0.270237
0.0365301 0.0445411 0.263111
0.041825 0.0399176 0.290242
0.0822614 0.0417945 0.318914
0.12932 0.0409247 0.317143
0.14638 0.0402686 0.3037
0.157137 0.0400854 0.291539
0.18468 0.0401465 0.282414
0.177966 0.0399329 0.278584
0.0466316 0.198032 0.45069
0.0466163 0.180606 0.446464
0.0470893 0.136614 0.46128
0.0558633 0.132708 0.46537
0.157015 0.121874 0.474495
0.2645 0.0849012 0.472908
0.306188 0.0581674 0.442847
0.369497 0.0467384 0.412741
0.356008 0.0460517 0.402274
0.0542153 0.333059 0.593927
0.0542763 0.323049 0.589975
0.0544442 0.293736 0.579812
0.0927596 0.333196 0.591272
0.216358 0.353246 0.596048
0.362692 0.325231 0.590127
0.454276 0.268498 0.579782
0.514229 0.17702 0.550546
0.519768 0.142779 0.536202
0.0627909 0.438865 0.681697
0.0627146 0.434592 0.67837
0.0690166 0.445823 0.66775
0.124407 0.479072 0.666941
0.326223 0.525521 0.678492
0.458625 0.508446 0.66537
0.540307 0.476722 0.657481
0.593042 0.420676 0.642115
0.617594 0.361975 0.625071
0.0806744 0.538094 0.72192
0.0776837 0.527443 0.718395
0.118669 0.569299 0.720638
0.209079 0.599283 0.721401
0.377035 0.622171 0.724254
0.547433 0.6336 0.725002
0.610544 0.608698 0.708537
0.651728 0.578347 0.69836
0.687785 0.532692 0.685054
0.137972 0.634806 0.751385
0.127413 0.622873 0.747906
0.13962 0.623941 0.744869
0.301518 0.682704 0.756298
0.427832 0.694286 0.758801
0.568597 0.701183 0.760433
0.677317 0.703487 0.757733
0.718074 0.684688 0.742992
0.748714 0.659175 0.730724
0.227893 0.703197 0.770092
0.213977 0.695247 0.767956
0.20296 0.688518 0.765957
0.279438 0.708858 0.765454
0.444526 0.739345 0.775265
0.563226 0.749874 0.778561
0.6795 0.758114 0.781826
0.776699 0.761044 0.780468
0.815747 0.752728 0.772717
0.296834 0.748241 0.779126
0.286198 0.742535 0.77586
0.276204 0.737194 0.772793
0.320195 0.746883 0.770993
0.423178 0.767391 0.776226
0.564187 0.792264 0.789075
0.680018 0.807599 0.799863
0.791196 0.825376 0.813581
0.888472 0.843 0.829694
