src/assets/luts/Alen Palander - Alaska.cube
TITLE "Generated by Resolve"
LUT_3D_SIZE 33
0 0 0
0.0137179 0 0.000808728
0.0267185 0.000854505 0.00155642
0.0383307 0.00270085 0.00216678
0.0514992 0.00749218 0.00244144
0.0675822 0.0099031 0.00283818
0.0864881 0.00984207 0.00320439
0.106615 0.00770581 0.00383001
0.126589 0.00598154 0.00422675
0.147082 0.0047303 0.00462348
0.169253 0.00381476 0.00427253
0.191211 0.00294499 0.00367742
0.21355 0.00201419 0.00296025
0.237552 0.00123598 0.00207523
0.261326 0.000640879 0.00143435
0.286046 0.000244144 0.0009308
0.313085 0.00015259 0.00062562
0.340597 9.15541e-05 0.000411994
0.367544 6.10361e-05 0.000259403
0.392493 6.10361e-05 0.000198367
0.417319 6.10361e-05 0.000137331
0.44184 6.10361e-05 7.62951e-05
0.467475 6.10361e-05 7.62951e-05
0.493431 6.10361e-05 7.62951e-05
0.519219 6.10361e-05 7.62951e-05
0.540627 6.10361e-05 7.62951e-05
0.560555 6.10361e-05 7.62951e-05
0.578988 6.10361e-05 7.62951e-05
0.592355 6.10361e-05 7.62951e-05
0.604013 6.10361e-05 7.62951e-05
0.614267 6.10361e-05 7.62951e-05
0.624247 7.62951e-05 9.15541e-05
0.62501 7.62951e-05 9.15541e-05
0 0.0138399 0.0010071
0.0138552 0.0147402 0.00189212
0.027512 0.0169985 0.0039826
0.0394446 0.0204623 0.00704967
0.0540475 0.0245975 0.00753796
0.0723125 0.0270237 0.00715648
0.0937057 0.0278477 0.00596628
0.11606 0.0276799 0.00608835
0.137865 0.0259403 0.00602731
0.159884 0.0229953 0.0059205
0.183627 0.0175937 0.00527962
0.207095 0.0126497 0.00448615
0.230549 0.00819409 0.00344854
0.256519 0.00497444 0.00233463
0.281346 0.00285344 0.00154116
0.306401 0.00134279 0.0009308
0.333989 0.000885023 0.000564584
0.36144 0.000549325 0.000320439
0.388312 0.000335698 0.00015259
0.413779 0.000289921 0.000122072
0.438621 0.000259403 9.15541e-05
0.463508 0.000228885 6.10361e-05
0.488075 0.000213626 6.10361e-05
0.512703 0.000198367 6.10361e-05
0.53785 0.000198367 6.10361e-05
0.559136 0.000183108 6.10361e-05
0.579049 0.000167849 6.10361e-05
0.596506 0.000167849 6.10361e-05
0.609689 0.000167849 4.57771e-05
0.621103 0.000167849 4.57771e-05
0.631266 0.000167849 6.10361e-05
0.641016 0.000183108 6.10361e-05
0.643702 0.000183108 6.10361e-05
0 0.0280003 0.00613413
0.0140078 0.0294499 0.00700389
0.028336 0.0318608 0.00851453
0.0419928 0.0352789 0.0106966
0.0579843 0.039704 0.0117342
0.0779583 0.0434424 0.0112917
0.101732 0.0464942 0.0093843
0.125917 0.0483558 0.00798047
0.149569 0.0485847 0.00666819
0.172992 0.047364 0.00578317
0.199298 0.0436713 0.00500496
0.224338 0.0385138 0.0040589
0.249638 0.0323491 0.00318914
0.2766 0.0238956 0.00213626
0.302266 0.016846 0.00134279
0.327398 0.0108644 0.000762951
0.355581 0.00660716 0.000457771
0.38352 0.00384527 0.000244144
0.411414 0.00216678 7.62951e-05
0.436439 0.0015259 7.62951e-05
0.461112 0.00108339 6.10361e-05
0.485298 0.000839246 4.57771e-05
0.509514 0.000732433 4.57771e-05
0.534188 0.000656138 4.57771e-05
0.559167 0.000595102 4.57771e-05
0.580362 0.000534066 3.0518e-05
0.600122 0.00047303 3.0518e-05
0.61709 0.000442512 3.0518e-05
0.631373 0.000411994 3.0518e-05
0.642329 0.000427253 3.0518e-05
0.65214 0.000427253 3.0518e-05
0.661738 0.000457771 3.0518e-05
0.667124 0.000457771 3.0518e-05
0 0.043061 0.0133059
0.0130007 0.044892 0.0135958
0.0275425 0.0476234 0.0140841
0.0433967 0.0513008 0.014725
0.0619516 0.0566262 0.0151064
0.0844434 0.0620127 0.0136568
0.109804 0.0666361 0.0104982
0.13611 0.0701152 0.00827039
0.161898 0.0722515 0.00653086
0.18703 0.0730602 0.0049897
0.215 0.0717174 0.0039826
0.241718 0.0687419 0.00297551
0.26775 0.0643626 0.00210575
0.295415 0.0564736 0.00141909
0.321721 0.0488441 0.000854505
0.347097 0.0410925 0.000488289
0.375738 0.0323644 0.000289921
0.403784 0.0243381 0.00015259
0.432303 0.0174868 4.57771e-05
0.457542 0.0133364 3.0518e-05
0.482002 0.0102388 3.0518e-05
0.505501 0.00814832 3.0518e-05
0.530343 0.00691234 1.5259e-05
0.554269 0.00570687 1.5259e-05
0.579156 0.00489815 1.5259e-05
0.601343 0.00416571 0
0.621195 0.00350958 0
0.637903 0.00274662 0
0.653407 0.00225834 0
0.663905 0.00218204 0
0.673564 0.00228885 0
0.682567 0.00251774 0
0.690623 0.00277714 0
0 0.0596323 0.0193942
0.0100557 0.0623178 0.0196384
0.0239109 0.0658427 0.0192264
0.0421912 0.0702373 0.0184329
0.0652018 0.0762188 0.0164645
0.0907759 0.0822461 0.01355
0.118502 0.0881666 0.00962844
0.146242 0.0925612 0.00737011
0.173236 0.0959793 0.00523384
0.200107 0.0988479 0.00354009
0.229007 0.0992447 0.00247196
0.256992 0.0991836 0.0016022
0.284367 0.0982834 0.000991836
0.311711 0.0934462 0.00062562
0.338231 0.0874495 0.000350958
0.364904 0.0807202 0.000198367
0.394018 0.0692454 0.000122072
0.422782 0.0558633 6.10361e-05
0.451423 0.0417029 1.5259e-05
0.477577 0.0320592 1.5259e-05
0.502937 0.0251774 0
0.526406 0.0214694 0
0.550561 0.0184176 0
0.575616 0.0158846 0
0.601053 0.0142061 0
0.624277 0.0127413 0
0.644022 0.0115816 0
0.661479 0.00993362 0
0.677607 0.00813306 0
0.688075 0.0080415 0
0.697368 0.00807202 0
0.706249 0.00843824 0
0.715419 0.00889601 0
3.0518e-05 0.0780346 0.0209659
0.00479133 0.0811017 0.0209506
0.0178988 0.0852369 0.0202487
0.0398718 0.0902113 0.0189364
0.0668193 0.0969406 0.0149996
0.095552 0.103853 0.0114748
0.125704 0.110918 0.00833143
0.15523 0.116258 0.00585946
0.18407 0.120867 0.00389105
0.211292 0.124102 0.00234989
0.240665 0.12607 0.00144961
0.269108 0.127001 0.000808728
0.296544 0.127047 0.000427253
0.324437 0.125231 0.000213626
0.352361 0.122408 9.15541e-05
0.37882 0.117937 3.0518e-05
0.407187 0.110887 0
0.436683 0.102724 0
0.467094 0.0922713 0
0.494804 0.0827344 0
0.520333 0.0731518 0
0.544869 0.0670176 0
0.569406 0.0607309 0
0.594263 0.0541848 0
0.62002 0.0487068 0
0.645045 0.0433204 0
0.664286 0.0383612 0
0.68246 0.0335393 0
0.698772 0.0285649 0
0.709941 0.0260777 0
0.7196 0.0257725 0
0.728389 0.0270848 0
0.736767 0.0285801 0
0.000137331 0.0950942 0.0217594
0.00234989 0.0985122 0.021149
0.0149386 0.102876 0.0194095
0.0367895 0.108415 0.0167697
0.0673838 0.115557 0.0125734
0.0984207 0.123018 0.0089723
0.130449 0.131075 0.00610361
0.161456 0.13753 0.00395209
0.191257 0.142916 0.00225834
0.21915 0.146899 0.00117494
0.248951 0.149844 0.000595102
0.278218 0.151904 0.000244144
0.3066 0.153063 9.15541e-05
0.334997 0.153033 1.5259e-05
0.363653 0.152514 0
0.391302 0.150439 0
0.420905 0.147478 0
0.450889 0.143832 0
0.481559 0.138048 0
0.510857 0.131518 0
0.536934 0.122774 0
0.561898 0.115679 0
0.587045 0.108934 0
0.6121 0.100694 0
0.637476 0.0921035 0
0.663294 0.0838483 0
0.683146 0.0762646 0
0.701686 0.0688334 0
0.71812 0.061326 0
0.730709 0.056611 0
0.740246 0.0551003 0
0.748852 0.0558022 0
0.757153 0.057908 0
0.000106813 0.110506 0.0209659
0.00134279 0.114076 0.0194247
0.0125887 0.118853 0.0167086
0.0322728 0.124331 0.0127871
0.0652628 0.131807 0.0087892
0.0986648 0.139879 0.00561532
0.132555 0.14902 0.00340276
0.165179 0.156893 0.00184634
0.196078 0.163394 0.000762951
0.224155 0.167452 0.000244144
0.255329 0.171664 1.5259e-05
0.286641 0.175479 0
0.314977 0.176989 0
0.344259 0.178378 0
0.373968 0.179263 0
0.401984 0.178332 0
0.431495 0.177188 0
0.462684 0.175494 0
0.49369 0.171496 0
0.52369 0.167147 0
0.549676 0.161166 0
0.575051 0.15555 0
0.600092 0.150042 0
0.626032 0.143389 0
0.651698 0.135821 0
0.677958 0.127916 0
0.69894 0.120363 0
0.718029 0.112566 0
0.734951 0.105043 0
0.748638 0.0984207 0
0.758038 0.0960403 0
0.766873 0.0968795 0
0.775143 0.0998398 0
4.57771e-05 0.123308 0.0179751
0.000854505 0.127184 0.016022
0.00965896 0.132006 0.013077
0.0277714 0.137881 0.00892653
0.0618143 0.146258 0.00546273
0.0968643 0.154757 0.00251774
0.131945 0.164385 0.00108339
0.165148 0.172656 0.000228885
0.197787 0.180682 3.0518e-05
0.227832 0.186481 0
0.259449 0.191531 0
0.291585 0.196017 0
0.321233 0.198657 0
0.351141 0.200809 0
0.381445 0.202747 0
0.410254 0.203296 0
0.440009 0.203464 0
0.471672 0.20322 0
0.503197 0.20145 0
0.53434 0.198886 0
0.561288 0.19559 0
0.587289 0.192172 0
0.61207 0.18822 0
0.638621 0.183719 0
0.664836 0.178454 0
0.690959 0.171435 0
0.713741 0.164569 0
0.733028 0.15816 0
0.750301 0.152514 0
0.765286 0.146471 0
0.774777 0.14403 0
0.783764 0.144137 0
0.791943 0.147189 0
0 0.135439 0.0133364
0.000488289 0.139422 0.0112612
0.00634775 0.144564 0.00860609
0.0217746 0.151263 0.00509651
0.0550851 0.159625 0.00198367
0.0922255 0.168734 0.000274662
0.129564 0.179461 9.15541e-05
0.165026 0.188922 1.5259e-05
0.198749 0.197635 0
0.230823 0.204898 0
0.26273 0.210559 0
0.294774 0.21503 0
0.325978 0.219043 0
0.35642 0.222217 0
0.386954 0.224262 0
0.416907 0.225864 0
0.446326 0.226886 0
0.478065 0.22707 0
0.510063 0.226749 0
0.541894 0.225345 0
0.56994 0.223682 0
0.596643 0.221149 0
0.621546 0.21799 0
0.647471 0.21474 0
0.674189 0.210758 0
0.700725 0.205509 0
0.725185 0.200824 0
0.744778 0.196078 0
0.762356 0.19173 0
0.779248 0.188052 0
0.78883 0.186023 0
0.798154 0.186145 0
0.806256 0.188739 0
0 0.147555 0.00703441
0.000244144 0.1514 0.00552377
0.00311284 0.156771 0.00440986
0.0138399 0.164492 0.00323491
0.0446326 0.173556 0.00173953
0.0851301 0.183505 0.000213626
0.125521 0.194934 9.15541e-05
0.163821 0.20589 1.5259e-05
0.19939 0.215885 0
0.23154 0.223072 0
0.264027 0.229633 0
0.297765 0.235325 0
0.329427 0.239506 0
0.360937 0.24358 0
0.391714 0.246204 0
0.422278 0.248569 0
0.451881 0.250019 0
0.48368 0.250965 0
0.51603 0.251591 0
0.548608 0.25124 0
0.577401 0.250187 0
0.604959 0.249256 0
0.630228 0.246799 0
0.656168 0.244419 0
0.683223 0.242145 0
0.710155 0.238819 0
0.73611 0.235294 0
0.75581 0.232181 0
0.774014 0.22916 0
0.791074 0.227008 0
0.802167 0.225895 0
0.811368 0.226307 0
0.819684 0.228656 0
0 0.159213 0.00344854
0.000122072 0.162875 0.00309758
0.00132753 0.168414 0.00257877
0.00973526 0.176623 0.00207523
0.0352941 0.186313 0.00128176
0.0768444 0.197314 0.000213626
0.119509 0.209461 7.62951e-05
0.16083 0.221286 1.5259e-05
0.198154 0.232181 0
0.231739 0.240467 0
0.264378 0.247715 0
0.29955 0.254475 0
0.332708 0.259922 0
0.363943 0.264179 0
0.395727 0.267643 0
0.426703 0.270558 0
0.456855 0.272786 0
0.488975 0.27454 0
0.521675 0.276173 0
0.554299 0.2766 0
0.584482 0.27631 0
0.612329 0.275746 0
0.638041 0.274174 0
0.664179 0.272602 0
0.691386 0.270878 0
0.718349 0.268513 0
0.745556 0.265675 0
0.765881 0.263478 0
0.784924 0.261295 0
0.802152 0.260273 0
0.814588 0.259327 0
0.823789 0.259815 0
0.832334 0.262119 0
0 0.170901 0.00123598
6.10361e-05 0.173754 0.00115969
0.000183108 0.179355 0.000885023
0.00743114 0.187991 0.000656138
0.0272679 0.198001 0.000411994
0.0688182 0.210407 0.000122072
0.1122 0.222843 3.0518e-05
0.155489 0.235126 0
0.194629 0.246784 0
0.230259 0.256291 0
0.263996 0.264561 0
0.299336 0.271717 0
0.333501 0.277821 0
0.365621 0.282841 0
0.397879 0.287068 0
0.429633 0.290517 0
0.460685 0.293767 0
0.492409 0.296071 0
0.525383 0.298314 0
0.558755 0.299886 0
0.590234 0.30071 0
0.618402 0.300679 0
0.645106 0.300175 0
0.671077 0.299275 0
0.698909 0.29865 0
0.726299 0.297246 0
0.753521 0.295445 0
0.775814 0.29395 0
0.795682 0.292592 0
0.812924 0.292058 0
0.826917 0.291569 0
0.836316 0.292271 0
0.844877 0.29424 0
0 0.182956 0.000839246
4.57771e-05 0.184924 0.00077821
0.00015259 0.190692 0.000549325
0.00544747 0.199664 0.000335698
0.0189059 0.209644 0.000137331
0.0586709 0.222431 4.57771e-05
0.103288 0.235767 1.5259e-05
0.150011 0.249058 0
0.190234 0.261082 0
0.228229 0.271809 0
0.263127 0.280858 0
0.298711 0.288548 0
0.333486 0.295338 0
0.366934 0.301228 0
0.399847 0.306188 0
0.431937 0.310018 0
0.463584 0.313619 0
0.495613 0.316945 0
0.52845 0.319539 0
0.562356 0.321675 0
0.595407 0.323522 0
0.623758 0.324041 0
0.651301 0.324208 0
0.677272 0.323842 0
0.705013 0.323537 0
0.73286 0.323079 0
0.760906 0.322423 0
0.784558 0.321553 0
0.804746 0.320317 0
0.822293 0.320363 0
0.837903 0.320577 0
0.847501 0.321401 0
0.856229 0.323323 0
0 0.194644 0.000488289
3.0518e-05 0.195743 0.000457771
0.000137331 0.202136 0.000350958
0.00373846 0.210956 0.000213626
0.0104524 0.22089 6.10361e-05
0.0486 0.234012 3.0518e-05
0.0923781 0.247913 0
0.142962 0.26244 0
0.186084 0.275486 0
0.2262 0.287343 0
0.261372 0.296651 0
0.297566 0.305165 0
0.334173 0.313054 0
0.367514 0.319081 0
0.401053 0.324819 0
0.434089 0.329427 0
0.46566 0.333227 0
0.497932 0.336828 0
0.531456 0.340032 0
0.565118 0.343038 0
0.599512 0.345403 0
0.62858 0.346578 0
0.656962 0.347662 0
0.68333 0.347585 0
0.710674 0.347768 0
0.739239 0.348333 0
0.767575 0.348379 0
0.792935 0.348333 0
0.81355 0.347906 0
0.831785 0.348363 0
0.84889 0.349279 0
0.858885 0.350683 0
0.867628 0.352468 0
0 0.206256 0.000228885
1.5259e-05 0.206271 0.000228885
0.000106813 0.212818 0.000183108
0.00260929 0.221149 0.000122072
0.0078584 0.231647 4.57771e-05
0.0399329 0.245106 1.5259e-05
0.0808728 0.25951 0
0.133349 0.274846 0
0.179934 0.288762 0
0.222965 0.302052 0
0.259159 0.31191 0
0.29575 0.321202 0
0.333532 0.3299 0
0.367864 0.336614 0
0.401541 0.342733 0
0.435569 0.348348 0
0.468086 0.35285 0
0.499886 0.356695 0
0.534249 0.360555 0
0.568139 0.364034 0
0.602655 0.366918 0
0.633097 0.368704 0
0.661906 0.370169 0
0.689082 0.370855 0
0.716716 0.37142 0
0.745037 0.372396 0
0.773434 0.372732 0
0.800153 0.373083 0
0.821546 0.373312 0
0.840696 0.374105 0
0.858167 0.375296 0
0.868955 0.376761 0
0.878035 0.378698 0
0 0.218143 3.0518e-05
0 0.217472 3.0518e-05
9.15541e-05 0.223499 1.5259e-05
0.00155642 0.231266 1.5259e-05
0.00657664 0.242298 0
0.0319677 0.255848 0
0.068513 0.27042 0
0.122652 0.286641 0
0.172213 0.301503 0
0.217609 0.315663 0
0.256199 0.32665 0
0.293462 0.336645 0
0.331762 0.345876 0
0.367651 0.353491 0
0.40209 0.360372 0
0.435996 0.366125 0
0.469535 0.371374 0
0.502525 0.376196 0
0.536339 0.380362 0
0.570672 0.384039 0
0.605692 0.387701 0
0.637217 0.390311 0
0.666987 0.39237 0
0.694697 0.393744 0
0.72221 0.39472 0
0.750637 0.395926 0
0.779644 0.397086 0
0.808026 0.397925 0
0.829465 0.398627 0
0.849515 0.399832 0
0.867292 0.401328 0
0.879225 0.40293 0
0.888716 0.405432 0
0 0.230961 1.5259e-05
0 0.230198 1.5259e-05
7.62951e-05 0.235264 1.5259e-05
0.000503548 0.242908 0
0.00393683 0.254826 0
0.0223087 0.268116 0
0.055314 0.283223 0
0.110582 0.299962 0
0.165194 0.315923 0
0.211551 0.330266 0
0.253285 0.342596 0
0.291707 0.353262 0
0.330343 0.362661 0
0.367407 0.371038 0
0.402472 0.378225 0
0.43711 0.384451 0
0.471061 0.389944 0
0.504662 0.395407 0
0.538949 0.400015 0
0.573083 0.404089 0
0.608438 0.408057 0
0.6421 0.41181 0
0.671626 0.414298 0
0.700008 0.416297 0
0.728222 0.417731 0
0.756848 0.419211 0
0.786038 0.420996 0
0.815595 0.422751 0
0.837964 0.423819 0
0.858671 0.425498 0
0.876554 0.427375 0
0.889693 0.429129 0
0.899138 0.431464 0
0 0.243961 0
0 0.243061 0
6.10361e-05 0.247028 0
0.000167849 0.254917 0
0.00190738 0.266773 0
0.0132143 0.280385 0
0.043946 0.296193 0
0.0972457 0.313497 0
0.157824 0.330968 0
0.206561 0.346319 0
0.250919 0.359854 0
0.290257 0.371099 0
0.329671 0.380819 0
0.368338 0.390265 0
0.403967 0.398123 0
0.439536 0.404974 0
0.474403 0.411017 0
0.50782 0.41648 0
0.54255 0.421912 0
0.577768 0.426795 0
0.613397 0.431144 0
0.647684 0.435157 0
0.677745 0.437675 0
0.706416 0.439765 0
0.734829 0.441932 0
0.764157 0.444205 0
0.793591 0.446189 0
0.82298 0.448188 0
0.846525 0.449744 0
0.867842 0.451286 0
0.885878 0.453346 0
0.900099 0.455543 0
0.909712 0.458015 0
0 0.257191 0
0 0.256397 0
4.57771e-05 0.259037 0
0.000137331 0.267277 0
0.00122072 0.278859 0
0.00630198 0.292439 0
0.0329747 0.309255 0
0.0816205 0.327214 0
0.147845 0.345815 0
0.199435 0.36199 0
0.24773 0.377081 0
0.288289 0.388846 0
0.328878 0.399496 0
0.369558 0.409857 0
0.405539 0.417975 0
0.441581 0.425406 0
0.477562 0.432349 0
0.511727 0.438071 0
0.546304 0.443702 0
0.5832 0.450095 0
0.619303 0.454719 0
0.654078 0.458946 0
0.684565 0.462089 0
0.713619 0.464637 0
0.742107 0.466773 0
0.771984 0.469718 0
0.801541 0.472221 0
0.83061 0.474174 0
0.855314 0.476127 0
0.877165 0.477943 0
0.895201 0.480217 0
0.910277 0.482261 0
0.919966 0.484535 0
0 0.270069 0
0 0.269337 0
1.5259e-05 0.270481 0
0.000122072 0.279271 0
0.000747692 0.290761 0
0.00177005 0.30454 0
0.023621 0.32224 0
0.0639353 0.34052 0
0.135271 0.360311 0
0.192157 0.377752 0
0.243091 0.393957 0
0.28603 0.40705 0
0.32784 0.418509 0
0.369711 0.42948 0
0.407202 0.438331 0
0.443915 0.446342 0
0.480125 0.453574 0
0.515801 0.460548 0
0.551095 0.466682 0
0.587655 0.472724 0
0.624765 0.478752 0
0.661265 0.48397 0
0.691646 0.486915 0
0.721462 0.490089 0
0.749584 0.492363 0
0.779019 0.495064 0
0.809354 0.498253 0
0.838743 0.50071 0
0.864179 0.502754 0
0.886275 0.504692 0
0.904555 0.507088 0
0.920439 0.509163 0
0.930236 0.511437 0
0 0.282445 0
0 0.281621 0
0 0.281056 0
0.000106813 0.290425 0
0.000549325 0.301915 0
0.00146487 0.316136 0
0.0183413 0.334081 0
0.0495155 0.352804 0
0.121187 0.373144 0
0.183474 0.392126 0
0.239033 0.409842 0
0.282963 0.423484 0
0.326558 0.436316 0
0.368948 0.447761 0
0.407935 0.457542 0
0.446128 0.466728 0
0.48333 0.474571 0
0.519524 0.481971 0
0.555398 0.489052 0
0.591928 0.495293 0
0.629435 0.501656 0
0.667597 0.508217 0
0.699168 0.512139 0
0.728771 0.515068 0
0.757336 0.517708 0
0.786679 0.520699 0
0.816434 0.523705 0
0.847059 0.527306 0
0.873487 0.529885 0
0.895018 0.531701 0
0.913939 0.534249 0
0.931044 0.536751 0
0.94052 0.538567 0
0 0.294667 0
0 0.293858 0
0 0.293126 0
9.15541e-05 0.301823 0
0.000396735 0.312978 0
0.00122072 0.32784 0
0.0140688 0.345937 0
0.0365759 0.365362 0
0.108171 0.386252 0
0.174533 0.406348 0
0.233234 0.424826 0
0.280171 0.439612 0
0.32517 0.453468 0
0.36849 0.465461 0
0.408759 0.47599 0
0.447944 0.485908 0
0.48542 0.494224 0
0.521935 0.501854 0
0.558526 0.509255 0
0.595346 0.515953 0
0.632914 0.522499 0
0.670787 0.528893 0
0.704097 0.533928 0
0.734859 0.537743 0
0.763073 0.540398 0
0.79234 0.543526 0
0.822766 0.547082 0
0.853056 0.550744 0
0.881178 0.554177 0
0.902708 0.556329 0
0.922148 0.558846 0
0.94023 0.561868 0
0.950027 0.564004 0
0 0.306874 0
0 0.306325 0
0 0.305592 0
7.62951e-05 0.313039 0
0.000274662 0.324178 0
0.00109865 0.339895 0
0.0109865 0.357702 0
0.0293584 0.377981 0
0.0993973 0.400061 0
0.167651 0.420859 0
0.227619 0.43975 0
0.276783 0.455299 0
0.322744 0.469657 0
0.367819 0.482658 0
0.409247 0.494026 0
0.448722 0.504189 0
0.48719 0.513069 0
0.524361 0.521248 0
0.560586 0.528878 0
0.598032 0.536049 0
0.635996 0.542901 0
0.673793 0.549416 0
0.708385 0.555077 0
0.740444 0.559884 0
0.768917 0.562783 0
0.798016 0.565957 0
0.828244 0.569787 0
0.858915 0.5738 0
0.888533 0.577615 0
0.910353 0.580148 0
0.930327 0.583001 0
0.948211 0.585779 0
0.958892 0.588022 0
0 0.32018 0
0 0.319478 0
0 0.318791 0
6.10361e-05 0.325002 0
0.000167849 0.335866 0
0.000976577 0.352392 0
0.00857557 0.370474 0
0.0263523 0.39115 0
0.0900893 0.413779 0
0.160479 0.435645 0
0.220951 0.454429 0
0.273671 0.471077 0
0.321263 0.48603 0
0.365942 0.499153 0
0.408881 0.511345 0
0.449058 0.521904 0
0.487449 0.531044 0
0.52578 0.540032 0
0.563012 0.548257 0
0.600351 0.555566 0
0.63798 0.562676 0
0.676326 0.569543 0
0.711498 0.575387 0
0.744381 0.580713 0
0.774166 0.584604 0
0.803754 0.588159 0
0.833921 0.59202 0
0.864454 0.59617 0
0.894865 0.600259 0
0.917494 0.603342 0
0.938094 0.60618 0
0.955901 0.609033 0
0.967102 0.611215 0
0 0.33402 0
0 0.333333 0
0 0.332723 0
4.57771e-05 0.337819 0
0.00015259 0.34902 0
0.000885023 0.365499 0
0.00672923 0.384146 0
0.0240177 0.405249 0
0.0809033 0.427878 0
0.152789 0.450782 0
0.214908 0.470314 0
0.269841 0.487785 0
0.318914 0.503258 0
0.365133 0.516838 0
0.408835 0.529366 0
0.449653 0.54052 0
0.488991 0.550225 0
0.527626 0.55938 0
0.565286 0.568048 0
0.603021 0.57583 0
0.641215 0.583185 0
0.680034 0.590417 0
0.716182 0.596765 0
0.748318 0.601816 0
0.779309 0.606348 0
0.809567 0.610758 0
0.839841 0.614618 0
0.870405 0.618799 0
0.901671 0.623346 0
0.924804 0.626535 0
0.945785 0.629618 0
0.963638 0.632517 0
0.97557 0.634806 0
0 0.348394 0
0 0.347662 0
0 0.346944 0
4.57771e-05 0.350912 0
0.00015259 0.362814 0
0.000793469 0.379004 0
0.00453193 0.397345 0
0.0218814 0.419394 0
0.0719005 0.442039 0
0.144442 0.465476 0
0.20853 0.48629 0
0.266148 0.504524 0
0.315938 0.520211 0
0.363546 0.534539 0
0.409003 0.547829 0
0.450706 0.559319 0
0.490867 0.569711 0
0.529946 0.579202 0
0.56788 0.588022 0
0.606424 0.596582 0
0.645518 0.604685 0
0.684321 0.6121 0
0.721752 0.618936 0
0.754055 0.62417 0
0.784985 0.628794 0
0.815503 0.633494 0
0.847059 0.638331 0
0.878004 0.643 0
0.908598 0.647211 0
0.932769 0.650874 0
0.953887 0.654002 0
0.970016 0.656657 0
0.981338 0.659236 0
0 0.362783 0
0 0.362264 0
0 0.361639 0
3.0518e-05 0.364157 0
0.000137331 0.376532 0
0.000701915 0.392554 0
0.00260929 0.410803 0
0.0197604 0.433402 0
0.0631876 0.45684 0
