src/assets/luts/Alen Palander - Yosemite.cube
TITLE "Generated by Resolve"
LUT_3D_SIZE 5
0 0 0
0.0561227 0.00894179 0
0.253605 0 0
0.513313 0 1.5259e-05
0.593652 1.5259e-05 1.5259e-05
0 0.0554818 0.0171206
0.0670939 0.0686809 0.0121309
0.324392 0.0734874 0
0.629664 0.00653086 0
0.70869 0.0043183 0
0 0.204257 0.000198367
0.0454108 0.247486 0
0.44448 0.362188 0
0.818601 0.414725 0
0.90605 0.435676 0
0 0.375998 0
0.00775158 0.453574 0
0.526528 0.63447 0
0.949615 0.732296 0
1 0.750866 0
0 0.426032 0
0.0115663 0.524315 0
0.586358 0.714427 0
0.982589 0.806363 0
1 0.822065 1.5259e-05
0 0.0114137 0.0638895
0.0533303 0.0185397 0.0694896
0.273503 0 0.0711376
0.531716 0 0.043473
0.60853 1.5259e-05 0.0416876
0 0.0681163 0.0831922
0.0751965 0.0793927 0.0796521
0.35404 0.0838178 0.0780957
0.6495 0.00914015 0.0393988
0.727047 0.00859083 0.039704
0 0.231693 0.0927596
0.0168917 0.28072 0.0760204
0.477516 0.403052 0.00994888
0.840955 0.454948 0.00238041
0.928542 0.48278 0.00283818
0 0.415549 0.0495766
0.00297551 0.501091 0.0233768
0.548623 0.688731 0.00123598
0.963439 0.781765 0.000183108
1 0.805646 0.000183108
0 0.471412 0.101823
0.00283818 0.580209 0.0652476
0.593103 0.772885 0.00935378
0.985763 0.862852 0.00340276
1 0.880049 0.00622568
0 0 0.27126
0.00540169 0 0.297383
0.281529 0 0.349157
0.545647 0 0.375662
0.618845 0 0.39089
0 0.0967727 0.333532
0.00311284 0.106493 0.367193
0.358572 0.105867 0.432593
0.662531 0.014786 0.461891
0.7393 0.0146792 0.481575
0 0.305898 0.414923
0.000183108 0.356222 0.451926
0.464164 0.486305 0.504875
0.836164 0.532601 0.537484
0.924102 0.560021 0.560571
0 0.509667 0.473533
0.000183108 0.597055 0.507515
0.46273 0.784039 0.559426
0.931258 0.873915 0.580301
0.999985 0.897963 0.607645
0 0.566232 0.536782
0.000183108 0.675685 0.586938
0.499382 0.865888 0.639612
0.947601 0.952468 0.666209
1 0.967803 0.692851
0 0 0.42829
0.000183108 0 0.471839
0.282353 0 0.552209
0.558755 0 0.594003
0.632441 0 0.607263
0 0.114794 0.533028
0.000183108 0.120439 0.581537
0.344793 0.120409 0.678828
0.670558 0.0564279 0.725063
0.752972 0.0451514 0.743709
0 0.360265 0.667414
0.000183108 0.40853 0.720256
0.385946 0.533944 0.822385
0.820737 0.588006 0.866773
0.917372 0.616754 0.882582
0 0.562951 0.740887
0.000183108 0.645396 0.793561
0.366583 0.829297 0.886824
0.897505 0.916457 0.927672
0.996338 0.937255 0.938659
0 0.608225 0.765332
0.000183108 0.71284 0.828809
0.423377 0.899062 0.918242
0.917556 0.983795 0.954009
0.999939 0.997574 0.963607
0 0 0.465736
0.000183108 0 0.509194
0.274281 0 0.596613
0.564309 0 0.643748
0.640848 0 0.65803
0 0.122744 0.574243
0.000183108 0.128817 0.625147
0.324315 0.143679 0.730755
0.671458 0.0944381 0.783612
0.759533 0.102037 0.801495
0 0.372412 0.715282
0.000183108 0.417136 0.769451
0.343313 0.540246 0.87837
0.809491 0.59826 0.930266
0.91342 0.624018 0.942519
0 0.570474 0.787198
0.000183108 0.648936 0.843107
0.314778 0.830289 0.943328
0.882643 0.919829 0.988037
0.991073 0.940063 0.995865
0 0.613275 0.802625
0.000183108 0.712383 0.865339
0.378912 0.897826 0.959884
0.907713 0.985382 0.998917
0.999313 0.999863 0.999924
