src/assets/luts/Alen Palander - Zurich.cube
TITLE "Generated by Resolve"
LUT_3D_SIZE 9
0 0 0
0.0594797 0.0184634 0.013077
0.159045 0.0216373 0.0205844
0.27126 0.00914015 0.015198
0.38143 0.00273136 0.00961318
0.482002 0.000717174 0.00518807
0.56994 0.000457771 0.00366217
0.634318 0.000396735 0.00314336
0.657877 0.000335698 0.00265507
0.0185702 0.0907759 0.0513008
0.135485 0.120333 0.0474708
0.252354 0.1364 0.0280156
0.363287 0.136294 0.0117189
0.467613 0.117342 0.004654
0.568154 0.0851301 0.00198367
0.65684 0.0602426 0.000808728
0.721492 0.041825 0.00030518
0.746471 0.0310521 0.00015259
0.00848402 0.155215 0.0494087
0.142916 0.192691 0.0264744
0.275944 0.220996 0.00753796
0.395575 0.23357 0.00122072
0.507134 0.235904 0.000167849
0.612528 0.228351 0.000137331
0.707622 0.214099 0.000122072
0.781674 0.197192 0.000106813
0.817792 0.18732 7.62951e-05
0.0015259 0.200336 0.0236362
0.117586 0.245869 0.00466926
0.272358 0.286717 0.000289921
0.40145 0.309758 0.000106813
0.519371 0.320684 9.15541e-05
0.633967 0.325032 6.10361e-05
0.734874 0.323384 4.57771e-05
0.819852 0.320073 3.0518e-05
0.865721 0.320638 1.5259e-05
0.000106813 0.239689 0.00572213
0.0664073 0.28719 0.000656138
0.25536 0.34136 6.10361e-05
0.395514 0.374044 3.0518e-05
0.521859 0.394354 1.5259e-05
0.647745 0.407721 0
0.75697 0.415442 0
0.855116 0.422004 0
0.907652 0.428702 0
3.0518e-05 0.28011 0.00062562
0.0232242 0.331548 1.5259e-05
0.238666 0.402823 0
0.398032 0.448783 0
0.536583 0.479347 0
0.67512 0.503517 0
0.787182 0.515557 0
0.891218 0.526925 0
0.94847 0.535439 0
0 0.325948 0
0.00970474 0.380179 0
0.214969 0.462684 0
0.398077 0.519493 0
0.545892 0.557137 0
0.689723 0.586709 0
0.811124 0.606394 0
0.921248 0.622141 0
0.982589 0.632563 0
0 0.378836 0
0.00143435 0.430304 0
0.185626 0.522362 0
0.392279 0.589624 0
0.553994 0.63592 0
0.705333 0.672129 0
0.834897 0.697749 0
0.952438 0.718883 0
0.99823 0.72987 0
0 0.414313 0
0.00123598 0.465537 0
0.17348 0.565438 0
0.395178 0.639185 0
0.564492 0.690867 0
0.718364 0.730587 0
0.853422 0.760479 0
0.972351 0.784329 0
0.999908 0.798733 0
0.00192264 0.013138 0.0611276
0.0648203 0.0287175 0.0844434
0.175799 0.0293889 0.114321
0.291218 0.0133211 0.133593
0.397482 0.00428778 0.14023
0.495827 0.000946059 0.13727
0.581628 0.000564584 0.130465
0.644358 0.00047303 0.125582
0.667613 0.000381476 0.123095
0.00469978 0.111482 0.145693
0.145327 0.141512 0.147753
0.253651 0.158038 0.168643
0.376181 0.154421 0.1635
0.483207 0.135531 0.152453
0.582879 0.100786 0.136156
0.669108 0.0722667 0.117479
0.732525 0.0559396 0.10312
0.758083 0.0448005 0.0975509
0.000762951 0.178943 0.157168
0.125185 0.212146 0.16228
0.272984 0.243091 0.158556
0.403296 0.256901 0.134951
0.520195 0.257847 0.109728
0.625666 0.249226 0.0803845
0.720211 0.23537 0.0539712
0.795377 0.222049 0.0340581
0.832517 0.216419 0.0284581
0.000259403 0.228107 0.143786
0.0731365 0.274586 0.137713
0.271199 0.315847 0.112551
0.414038 0.338949 0.0774701
0.536736 0.347219 0.0355383
0.650446 0.349966 0.023621
0.752071 0.348302 0.0158541
0.836912 0.347448 0.0124819
0.881651 0.350423 0.0126955
0.000106813 0.270115 0.119463
0.024033 0.320455 0.101305
0.254505 0.377569 0.059678
0.41413 0.411749 0.0266575
0.551614 0.43241 0.0150912
0.671427 0.442206 0.00939956
0.783536 0.450477 0.00575265
0.87744 0.457816 0.00328069
0.925322 0.463951 0.00366217
3.0518e-05 0.313207 0.0890822
0.0137484 0.367422 0.056199
0.236133 0.441321 0.0217746
0.415183 0.486793 0.0096437
0.562356 0.515633 0.00454719
0.693858 0.535393 0.0019379
0.81001 0.546777 0.000427253
0.908309 0.557015 0.000167849
0.962493 0.56556 0.000167849
0 0.359167 0.0535592
0.00593576 0.416907 0.0239109
0.206928 0.503105 0.00433356
0.412802 0.559167 0.000900282
0.571374 0.596765 0.000167849
0.706569 0.620462 0.000167849
0.834424 0.640803 0.000167849
0.93576 0.65304 0.000167849
0.98967 0.663493 0.000167849
0 0.408164 0.0162814
0.000335698 0.46099 0.00820935
0.168139 0.556878 0.00123598
0.40116 0.623407 0.000701915
0.571252 0.668162 0.000183108
0.7178 0.700343 0.000167849
0.85124 0.72517 0.000167849
0.960708 0.744228 0.000167849
0.999039 0.756222 0.000167849
0 0.441047 0.0223087
0.000503548 0.493599 0.0101167
0.146746 0.595468 0.00181582
0.397772 0.66891 0.000869764
0.575601 0.719814 0.000610361
0.728038 0.757839 0.000396735
0.867323 0.788159 0.000259403
0.977646 0.812406 0.000198367
0.999969 0.83032 0.000289921
0.00015259 0.0198367 0.143542
0.055375 0.0311131 0.184848
0.183963 0.0283665 0.226291
0.30135 0.0133211 0.251164
0.40499 0.00477607 0.260365
0.500832 0.00114443 0.263096
0.585885 0.000579843 0.2636
0.647501 0.000488289 0.265583
0.670863 0.000381476 0.264164
0.000518807 0.127214 0.251453
0.107317 0.157824 0.272007
0.251835 0.173205 0.290471
0.374365 0.167346 0.300832
0.484993 0.147204 0.300572
0.584924 0.110842 0.296742
0.672084 0.0783856 0.292332
0.735836 0.0623484 0.291707
0.761517 0.0486915 0.291279
0.000228885 0.201068 0.272129
0.0889601 0.237736 0.285405
0.27805 0.274189 0.285237
0.388022 0.287938 0.306096
0.52018 0.281971 0.300526
0.630686 0.27364 0.291646
0.725383 0.261082 0.2822
0.799222 0.24921 0.275761
0.836957 0.242908 0.277577
0.000167849 0.254704 0.267781
0.0372778 0.30016 0.283009
0.259144 0.334462 0.290089
0.395605 0.363516 0.295125
0.530938 0.376562 0.277699
0.652934 0.378912 0.261997
0.756313 0.377859 0.24892
0.84065 0.377493 0.239033
0.885908 0.381643 0.242161
9.15541e-05 0.301289 0.254749
0.00436408 0.352316 0.265141
0.210346 0.4094 0.267353
0.399481 0.44332 0.26038
0.547066 0.467094 0.242267
0.673503 0.478019 0.22501
0.786038 0.485908 0.2038
0.87924 0.491447 0.182162
0.927626 0.496773 0.185367
1.5259e-05 0.347982 0.241581
0.00239567 0.404303 0.24828
0.173861 0.480507 0.245396
0.394919 0.526818 0.226658
0.555657 0.555535 0.200534
0.694209 0.575799 0.17174
0.810224 0.585931 0.138231
0.909087 0.595499 0.118059
0.96408 0.603189 0.113375
0 0.400534 0.23389
0.000839246 0.459236 0.23241
0.125765 0.547753 0.216114
0.384619 0.60473 0.183825
0.5617 0.642191 0.133745
0.705013 0.665385 0.100893
0.834348 0.684184 0.0821241
0.936538 0.696666 0.068986
0.991226 0.7075 0.0649729
0 0.455238 0.226581
0.000167849 0.508812 0.218997
0.0805524 0.606897 0.190799
0.362936 0.675013 0.149859
0.558755 0.719722 0.0941939
0.713527 0.751278 0.0601358
0.849577 0.774578 0.049546
0.960662 0.793591 0.0453956
0.999405 0.806287 0.0468147
0 0.490349 0.236912
0.000167849 0.544167 0.230976
0.0499275 0.649058 0.20235
0.349386 0.724971 0.164401
0.557137 0.775692 0.124086
0.718181 0.81265 0.0838331
0.860822 0.84239 0.0569314
0.975494 0.867399 0.061799
0.999985 0.886885 0.0949264
7.62951e-05 0.0168154 0.21825
0.0438392 0.0284581 0.271778
0.186557 0.0246586 0.31931
0.305974 0.0121462 0.3458
0.40795 0.00518807 0.355734
0.503532 0.00216678 0.361257
0.587076 0.000579843 0.363302
0.648341 0.000457771 0.366629
0.671641 0.000335698 0.364401
0.000183108 0.13901 0.340932
0.0576944 0.164797 0.379385
0.241382 0.177462 0.399054
0.372 0.174304 0.410193
0.482612 0.154772 0.412787
0.584268 0.119905 0.413184
0.670985 0.0803693 0.411231
0.735317 0.0626383 0.412329
0.762066 0.0486152 0.412451
0.000167849 0.216556 0.36762
0.0399176 0.254261 0.398672
0.257694 0.29099 0.401434
0.391073 0.306889 0.416632
0.513878 0.298238 0.425513
0.627359 0.287602 0.423896
0.723003 0.275685 0.421027
0.798566 0.265629 0.420859
0.837293 0.261433 0.425605
0.000167849 0.273854 0.369726
0.0148775 0.320134 0.397665
0.236042 0.361975 0.402792
0.400702 0.395972 0.409262
0.511116 0.407645 0.426551
0.64593 0.400946 0.418326
0.753277 0.398398 0.412345
0.839673 0.399405 0.410864
0.885283 0.404715 0.417472
9.15541e-05 0.323919 0.363104
0.00144961 0.375158 0.388052
0.170581 0.432029 0.403861
0.391058 0.460166 0.41352
0.522042 0.488853 0.424796
0.659754 0.503822 0.409506
0.780545 0.50985 0.399008
0.876432 0.516396 0.395972
0.925155 0.522271 0.400946
1.5259e-05 0.374411 0.357107
0.000717174 0.430167 0.378836
0.115846 0.506874 0.396414
0.366888 0.551232 0.400595
0.53782 0.578164 0.402106
0.679866 0.600977 0.393835
0.800732 0.611536 0.381155
0.90309 0.622263 0.37557
0.959106 0.629084 0.378103
0 0.429313 0.358038
0.000350958 0.487114 0.375311
0.0760967 0.576104 0.39057
0.343359 0.633433 0.390814
0.538201 0.671168 0.3841
0.68925 0.694255 0.372854
0.820356 0.711803 0.361288
0.926863 0.724788 0.352667
0.987594 0.735439 0.354391
0 0.486976 0.364858
0.000167849 0.540764 0.376959
0.0403296 0.639597 0.389013
0.304936 0.708888 0.385565
0.530526 0.754208 0.375174
0.696208 0.786023 0.361181
0.834302 0.808713 0.349096
0.950576 0.827512 0.341909
0.99884 0.840101 0.347341
0 0.524727 0.38735
0.000167849 0.578515 0.399603
0.0184939 0.684306 0.412055
0.26862 0.760739 0.409415
0.521859 0.811566 0.402182
0.696635 0.848646 0.391424
0.843046 0.878065 0.384283
0.965972 0.903014 0.390997
1 0.922484 0.425025
0.000106813 0.0152285 0.290806
0.0381781 0.0192874 0.353384
0.186862 0.01944 0.4038
0.305379 0.0113222 0.428428
0.408469 0.00518807 0.440452
0.50277 0.00263981 0.446082
0.586633 0.000549325 0.450172
0.647578 0.000411994 0.452888
0.671214 0.000274662 0.451896
0.000167849 0.148363 0.42179
0.0309758 0.172366 0.466438
0.226596 0.183032 0.49279
0.36495 0.179538 0.50544
0.479698 0.15938 0.511711
0.580957 0.128588 0.512703
0.668925 0.0826581 0.51339
0.734401 0.0605936 0.514427
0.76173 0.0455482 0.51429
0.000167849 0.229648 0.453437
0.0194553 0.266484 0.493462
0.216663 0.295567 0.517281
0.381231 0.308644 0.527428
0.509789 0.30837 0.534417
0.620478 0.299596 0.534157
0.719234 0.288975 0.535454
0.796399 0.279393 0.536385
0.835462 0.275654 0.539239
0.00015259 0.289418 0.459129
0.00732433 0.335225 0.495628
0.179492 0.379232 0.518776
0.390417 0.412131 0.518486
0.516747 0.428077 0.531777
0.638666 0.419745 0.538018
0.749111 0.415244 0.537942
0.836927 0.416999 0.539712
0.883101 0.422446 0.545327
7.62951e-05 0.341619 0.457206
0.0010071 0.393179 0.490898
0.128145 0.453162 0.518334
0.379736 0.488243 0.521798
0.526848 0.522225 0.538048
0.640513 0.534997 0.54902
0.773373 0.532128 0.541588
0.872343 0.537713 0.54168
0.921843 0.542962 0.545205
0 0.394018 0.45539
0.000442512 0.450065 0.487266
0.0757763 0.527062 0.517418
0.338582 0.570901 0.529183
0.532143 0.594354 0.54461
0.653895 0.620829 0.556848
0.787228 0.634241 0.538491
0.895903 0.642817 0.532341
0.953796 0.650339 0.536477
0 0.451591 0.460929
0.000198367 0.509239 0.489525
0.0350195 0.597772 0.517388
0.289967 0.655421 0.52784
0.517876 0.691539 0.533471
0.67303 0.712428 0.535332
0.806851 0.733272 0.532357
0.917144 0.74638 0.525795
0.982391 0.757412 0.529931
0 0.509468 0.470451
0.000167849 0.562142 0.491402
0.0135958 0.660563 0.519402
0.23537 0.730175 0.529625
0.501671 0.775326 0.533165
0.676951 0.806928 0.531334
0.82121 0.83061 0.529839
0.939055 0.849149 0.528588
0.997452 0.86183 0.534585
0 0.547799 0.495781
0.000167849 0.600641 0.516579
0.00543221 0.706172 0.54406
0.190982 0.782986 0.553796
0.489433 0.834012 0.559853
0.676661 0.87068 0.560159
0.828916 0.900893 0.563958
0.955795 0.925994 0.575082
1 0.944854 0.603403
0.000122072 0.0132753 0.362066
0.0196536 0.0135348 0.43241
0.184283 0.0182956 0.484062
0.306462 0.0108492 0.508034
0.409293 0.00518807 0.51989
0.504463 0.00282292 0.527504
0.58706 0.000518807 0.531014
0.648615 0.000350958 0.533837
0.672724 0.000183108 0.531136
0.000167849 0.157839 0.499306
0.0227359 0.180743 0.549599
0.212924 0.190494 0.579477
0.361135 0.185763 0.59556
0.477882 0.165805 0.60293
0.580713 0.135439 0.606592
0.668009 0.0850233 0.607355
0.73489 0.0579385 0.60798
0.763333 0.0415198 0.60737
0.000167849 0.243198 0.53521
0.0129091 0.279423 0.581277
0.187945 0.307546 0.611215
0.368627 0.318791 0.626947
0.502968 0.319371 0.633692
0.61706 0.312566 0.637247
0.715053 0.302113 0.637751
0.794995 0.294041 0.640497
0.835004 0.291249 0.644343
0.00015259 0.304891 0.544274
0.0031281 0.349905 0.586206
0.132982 0.39353 0.619181
0.357153 0.418204 0.634531
0.510658 0.43006 0.64097
0.635996 0.432883 0.64683
0.742672 0.431189 0.647532
0.833692 0.43415 0.651545
0.880949 0.439475 0.657908
6.10361e-05 0.358221 0.545495
0.000183108 0.408896 0.583841
0.0689097 0.469551 0.61973
0.330068 0.506798 0.635782
0.522133 0.537118 0.640085
0.646799 0.554223 0.652064
0.764935 0.550683 0.655985
0.866087 0.554574 0.658015
0.917922 0.560693 0.663233
0 0.413016 0.549523
0.000167849 0.46772 0.583856
0.0260319 0.545159 0.622934
0.29337 0.593057 0.641596
0.522927 0.621592 0.647456
0.655512 0.650935 0.667109
0.767697 0.66183 0.669505
0.888182 0.662501 0.660288
0.948425 0.670115 0.663951
0 0.471855 0.559152
0.000167849 0.525597 0.586343
0.0142977 0.614466 0.624323
0.241993 0.672511 0.642939
0.495827 0.707439 0.652674
0.664775 0.724895 0.669398
0.778119 0.748089 0.683253
0.905455 0.764157 0.661601
0.975616 0.775128 0.663828
0 0.530312 0.571099
0.000167849 0.580041 0.59173
0.00735485 0.677958 0.62977
0.191653 0.748211 0.64892
0.471351 0.79295 0.657694
0.660258 0.824689 0.663417
0.805341 0.84651 0.666987
0.927932 0.867201 0.669306
0.994904 0.87953 0.673976
0 0.56701 0.593683
0.000167849 0.617227 0.613382
0.00378424 0.722484 0.650889
0.16347 0.799634 0.669398
0.45864 0.850294 0.680568
0.659312 0.887678 0.689174
0.815564 0.91754 0.696971
0.947997 0.944106 0.71368
1 0.962142 0.73904
0.00015259 0.00924697 0.437125
0.0170138 0.0119936 0.513726
0.177554 0.019791 0.565972
0.305898 0.0113985 0.590707
0.410971 0.00555428 0.603876
0.506935 0.00340276 0.612222
0.590875 0.00129702 0.616892
0.653117 0.000411994 0.619425
0.678614 0.00015259 0.61735
0.000167849 0.16936 0.577249
0.0157321 0.191196 0.632242
0.189914 0.200351 0.667262
0.35169 0.194446 0.685496
0.473747 0.173983 0.694286
0.579034 0.145739 0.698909
0.668513 0.0975814 0.70071
0.737667 0.057969 0.701946
0.768063 0.0442664 0.700267
0.000167849 0.259648 0.618387
0.00576791 0.295506 0.669581
0.146792 0.324834 0.706218
0.354788 0.336034 0.724743
0.498695 0.336522 0.734051
0.615625 0.32958 0.738628
0.714992 0.319509 0.740383
0.796597 0.313298 0.744137
0.838544 0.312032 0.747448
0.000137331 0.323659 0.629984
0.000991836 0.367453 0.676875
0.0827497 0.411643 0.715846
0.333181 0.435569 0.736004
0.501411 0.445838 0.746273
0.631952 0.450294 0.752804
0.740597 0.45034 0.755566
0.832807 0.454063 0.760388
0.881331 0.459556 0.764736
6.10361e-05 0.376608 0.632746
0.000167849 0.425803 0.674647
0.0328069 0.487098 0.717754
0.290471 0.523674 0.740429
0.497597 0.546471 0.753735
0.64184 0.558709 0.761212
0.761242 0.565896 0.76611
0.861097 0.572641 0.769711
0.9149 0.578012 0.772656
0 0.431449 0.636805
0.000167849 0.484489 0.675456
0.0166018 0.562066 0.721798
0.251209 0.609659 0.745815
0.485924 0.63859 0.758373
0.651911 0.662303 0.765133
0.771801 0.676081 0.771496
0.88043 0.679515 0.773953
0.943389 0.686641 0.777173
0 0.488624 0.646097
0.000167849 0.541619 0.678706
0.0108339 0.630579 0.724361
0.207584 0.689128 0.748745
0.469093 0.726665 0.762463
0.653864 0.749554 0.770138
0.778881 0.774029 0.788983
0.889891 0.785718 0.785657
0.96907 0.792218 0.783337
0 0.546181 0.657694
0.000167849 0.595148 0.684337
0.0059205 0.692699 0.730022
0.166934 0.76286 0.754635
0.445609 0.80798 0.768917
0.642573 0.838911 0.777935
0.79498 0.857969 0.791638
0.905501 0.878798 0.805035
0.990677 0.89427 0.795087
0 0.581384 0.673686
0.000167849 0.631022 0.699474
0.00300603 0.736095 0.746395
0.145724 0.813321 0.771588
0.433433 0.864179 0.78822
0.641993 0.901366 0.800366
0.805158 0.93225 0.813184
0.940566 0.958968 0.831556
0.999939 0.976806 0.856291
0.000167849 0.01149 0.502892
0.0153964 0.0188449 0.579049
0.163088 0.0254368 0.628428
0.297246 0.0193942 0.654276
0.407401 0.00906386 0.669947
0.505791 0.00401312 0.680247
0.595239 0.00187686 0.686961
0.660334 0.000167849 0.691417
0.687892 0.00015259 0.689067
0.000167849 0.186419 0.635233
0.00563058 0.209369 0.693126
0.145357 0.222171 0.733761
0.336446 0.219074 0.755901
0.466941 0.200488 0.768765
0.576272 0.174502 0.776944
0.670039 0.144503 0.781857
0.74406 0.120714 0.786175
0.777279 0.109377 0.783948
0.000167849 0.278965 0.678843
0.00173953 0.315755 0.735134
0.0830701 0.347295 0.778805
0.328069 0.360296 0.803052
0.486137 0.362127 0.817807
0.608804 0.356695 0.826673
0.713375 0.348348 0.832715
0.798596 0.342718 0.838392
0.843015 0.339345 0.840589
0.000122072 0.342077 0.696254
0.00047303 0.385382 0.74902
0.0485542 0.431373 0.796323
0.296773 0.457282 0.822751
0.484092 0.468544 0.839261
0.620798 0.473823 0.849363
0.735302 0.475517 0.857114
0.831525 0.479118 0.864118
0.883192 0.48574 0.868925
4.57771e-05 0.395254 0.705455
0.000167849 0.443946 0.754864
0.0213931 0.507134 0.807218
0.256825 0.545022 0.836545
0.476738 0.568032 0.85539
0.628489 0.579751 0.866865
0.753017 0.58822 0.874998
0.85626 0.595972 0.880491
0.913909 0.603235 0.883803
0 0.452155 0.717403
0.000167849 0.502449 0.761685
0.0137789 0.580194 0.816205
0.220493 0.628946 0.846922
0.458808 0.657526 0.864515
0.630732 0.677317 0.875868
0.762432 0.687678 0.882765
0.872892 0.699062 0.888212
0.938949 0.707912 0.891661
0 0.507973 0.73048
0.000167849 0.557809 0.766278
0.00872816 0.64593 0.819684
0.178363 0.705089 0.851225
0.436667 0.742885 0.870146
0.623758 0.766613 0.881605
0.771634 0.78558 0.890089
0.887373 0.799283 0.895903
0.961822 0.809644 0.900114
0 0.56228 0.741451
0.000167849 0.608927 0.771084
0.00456245 0.705776 0.824247
0.14197 0.776745 0.857282
0.411887 0.822339 0.877089
0.619883 0.854276 0.890318
0.778897 0.877684 0.899886
0.901106 0.898177 0.912734
0.982574 0.909804 0.914733
0 0.595728 0.751476
0.000167849 0.644038 0.780301
0.00256352 0.748272 0.835081
0.126986 0.826078 0.869322
0.402853 0.87715 0.890486
0.623545 0.91458 0.906691
0.79263 0.945876 0.922591
0.932158 0.972595 0.941802
0.997818 0.989624 0.962966
0.000167849 0.0158083 0.51931
0.0158694 0.0223087 0.587167
0.161257 0.0246586 0.630518
0.294423 0.0183719 0.655695
0.403922 0.00822461 0.671992
0.50222 0.00309758 0.683925
0.59266 0.000946059 0.692927
0.659144 0.00015259 0.700298
0.688502 0.000137331 0.700969
0.000167849 0.185 0.635752
0.00503548 0.20766 0.694667
0.135225 0.220676 0.737362
0.33019 0.218921 0.76228
0.461631 0.202747 0.778088
0.571756 0.177172 0.789578
0.667033 0.150759 0.798321
0.742702 0.132723 0.805844
0.779355 0.122576 0.807614
0.000167849 0.279347 0.684825
0.00149538 0.316762 0.743725
0.0720531 0.350134 0.791455
0.317388 0.365789 0.820111
0.476875 0.36936 0.838636
0.605035 0.367239 0.852125
0.709636 0.36199 0.862776
0.798337 0.358526 0.872786
0.845472 0.357183 0.878035
0.000106813 0.346181 0.711528
0.00030518 0.38967 0.766903
0.0420691 0.437339 0.819226
0.278798 0.465507 0.85066
0.467521 0.478523 0.872084
0.613062 0.4878 0.887205
0.728084 0.491279 0.898909
0.830076 0.496818 0.909865
0.884855 0.503594 0.915923
3.0518e-05 0.401144 0.72961
0.000167849 0.448432 0.781781
0.017319 0.512352 0.839094
0.236484 0.55259 0.873503
0.451652 0.57525 0.896559
0.615946 0.591806 0.913069
0.740459 0.6009 0.925185
0.850599 0.609964 0.935653
0.912535 0.617868 0.941115
0 0.458885 0.748989
0.000167849 0.509575 0.796567
0.0121462 0.586664 0.855421
0.198047 0.638163 0.892668
0.43064 0.66685 0.91603
0.61294 0.688746 0.933196
0.747509 0.701274 0.945174
0.865095 0.713634 0.955459
0.935439 0.722713 0.961044
0 0.514443 0.768795
0.000167849 0.56289 0.809079
0.00730907 0.649927 0.868299
0.154421 0.710842 0.907073
0.401389 0.748684 0.93164
0.601892 0.775143 0.949065
0.751812 0.794186 0.961654
0.877424 0.809598 0.971374
0.95584 0.820859 0.976745
0 0.570092 0.787106
0.000167849 0.615869 0.821454
0.00357061 0.711421 0.880537
0.119188 0.782635 0.919875
0.373938 0.828717 0.943999
0.595682 0.861479 0.961151
0.758907 0.885801 0.973724
0.893126 0.905715 0.983795
0.977584 0.919478 0.991196
0 0.603052 0.798489
0.000167849 0.649271 0.828794
0.00215152 0.751171 0.887724
0.103319 0.829023 0.927565
0.360418 0.880629 0.952651
0.600046 0.919493 0.972183
0.778012 0.95111 0.987762
0.927596 0.978439 0.998428
0.998032 0.994339 1
