src/assets/luts/Alen Palander - Istanbul.cube
TITLE "Generated by Resolve"
LUT_3D_SIZE 9
0 0 0.0139467
0.180209 0.0127565 0.019852
0.356252 0.0599985 0.0201419
0.496315 0.106584 0.0248722
0.613352 0.143053 0.0269474
0.696529 0.166659 0.0273899
0.766537 0.191119 0.0293278
0.828763 0.21593 0.0318456
0.842603 0.22298 0.0330968
0 0.0903487 0.0942855
0.179385 0.108934 0.0612345
0.368902 0.134096 0.0294194
0.517754 0.15758 0.0264897
0.639384 0.186755 0.0254063
0.724376 0.205997 0.0243992
0.790356 0.225666 0.0248112
0.846479 0.246281 0.0259861
0.855329 0.250782 0.0270237
0.00358587 0.189532 0.128603
0.121035 0.218189 0.131106
0.338781 0.214496 0.0580606
0.50753 0.241947 0.0337682
0.652811 0.259602 0.0228733
0.744671 0.266758 0.0221866
0.809155 0.27715 0.0221256
0.860075 0.292668 0.0224002
0.86804 0.2934 0.0233463
0.0154726 0.286519 0.165301
0.0850385 0.297368 0.17203
0.319936 0.355871 0.135637
0.486046 0.312169 0.0668345
0.648661 0.344549 0.0409705
0.757977 0.375967 0.0332494
0.827237 0.375555 0.0288548
0.874708 0.380804 0.0287785
0.882429 0.373526 0.0273747
0.0358282 0.396414 0.206195
0.0939193 0.398444 0.206043
0.277592 0.452338 0.203494
0.510781 0.504921 0.171618
0.647059 0.432258 0.0827802
0.771054 0.463172 0.0677348
0.84947 0.507469 0.0773175
0.895521 0.529427 0.0833753
0.902464 0.521996 0.0783856
0.063508 0.506813 0.245472
0.125963 0.513436 0.247974
0.280476 0.565927 0.260441
0.516762 0.62649 0.238651
0.6916 0.631098 0.197818
0.791318 0.578317 0.134874
0.871885 0.594675 0.128313
0.914412 0.623667 0.138979
0.920012 0.627359 0.139803
0.0881971 0.598856 0.271885
0.157549 0.614099 0.28127
0.316045 0.665797 0.288563
0.530343 0.715251 0.2766
0.70161 0.752499 0.260319
0.814084 0.713191 0.212818
0.884993 0.684016 0.18117
0.923552 0.691722 0.179263
0.927199 0.693965 0.180102
0.106035 0.67364 0.293919
0.181918 0.690333 0.29781
0.334508 0.732967 0.304372
0.503594 0.76611 0.297459
0.658488 0.802167 0.287938
0.792126 0.820783 0.265721
0.884504 0.773693 0.225513
0.924956 0.750408 0.208103
0.929305 0.74873 0.206241
0.112276 0.69752 0.306325
0.193332 0.713252 0.325948
0.328557 0.745098 0.316503
0.488273 0.773236 0.304417
0.637415 0.804974 0.293111
0.762585 0.826139 0.275822
0.870253 0.798642 0.235859
0.916243 0.76051 0.210605
0.927382 0.757092 0.204517
0 0.0016022 0.106004
0.202914 0.0174716 0.0981003
0.377035 0.0479744 0.0929885
0.496422 0.0650797 0.0638132
0.59498 0.0904555 0.0580911
0.681804 0.13431 0.057145
0.752941 0.170504 0.0570993
0.816434 0.206882 0.0599985
0.834653 0.221653 0.0616464
0 0.12076 0.186282
0.133883 0.150881 0.173419
0.321523 0.173999 0.137652
0.483574 0.211261 0.125444
0.628763 0.235462 0.104692
0.725368 0.249378 0.0850233
0.791211 0.26009 0.0614176
0.846967 0.280598 0.0593881
0.858656 0.283574 0.0582589
0.0115663 0.233555 0.23183
0.0650034 0.21973 0.209705
0.315633 0.241398 0.157748
0.488365 0.265553 0.130297
0.645289 0.273091 0.0944076
0.746136 0.28072 0.0593271
0.811154 0.292836 0.0545815
0.863508 0.312261 0.0554513
0.870634 0.312428 0.0543069
0.0251469 0.328313 0.258015
0.0534676 0.307683 0.229618
0.254856 0.346777 0.226108
0.47071 0.330541 0.137743
0.645731 0.360174 0.0744945
0.763226 0.358251 0.055024
0.832547 0.356405 0.0508278
0.879332 0.372091 0.0547494
0.884138 0.363928 0.0522774
0.0464027 0.434623 0.287678
0.0743267 0.4177 0.260761
0.205844 0.444739 0.275792
0.463737 0.498299 0.223575
0.64033 0.439887 0.108248
0.775601 0.474266 0.0890211
0.858595 0.509056 0.0944686
0.904967 0.519738 0.0988479
0.907774 0.495354 0.0858473
0.0733501 0.535088 0.311574
0.106477 0.531502 0.296284
0.220905 0.561044 0.318563
0.46862 0.61825 0.290837
0.68719 0.658305 0.236805
0.794415 0.590417 0.159915
0.882048 0.610742 0.153567
0.924529 0.645747 0.170703
0.927886 0.641596 0.165835
0.0951858 0.617792 0.321324
0.138003 0.625223 0.32491
0.259998 0.661433 0.349569
0.486076 0.711482 0.330724
0.685191 0.755184 0.288853
0.817395 0.732021 0.242954
0.894545 0.699641 0.207828
0.931243 0.710887 0.210605
0.934371 0.711192 0.209949
0.109911 0.685252 0.329488
0.15848 0.696132 0.342702
0.289982 0.729976 0.366155
0.472251 0.764614 0.34847
0.645258 0.800046 0.311879
0.780468 0.822705 0.292622
0.888258 0.787396 0.252079
0.929839 0.762997 0.234043
0.934005 0.761456 0.233051
0.115053 0.705898 0.340871
0.144778 0.711254 0.347158
0.283452 0.741955 0.391959
0.449714 0.77113 0.371267
0.61857 0.801495 0.319677
0.749081 0.826246 0.302602
0.869001 0.819043 0.267292
0.919646 0.772213 0.235492
0.932387 0.76849 0.229282
0 0.0537118 0.205798
0.111177 0.00848402 0.161776
0.377539 0.0639353 0.168765
0.505226 0.092134 0.164126
0.605585 0.0915389 0.154772
0.673396 0.0950484 0.132982
0.728939 0.108324 0.0908675
0.786877 0.133028 0.0894026
0.808759 0.160281 0.0872053
0.0075227 0.188266 0.281865
0.0642252 0.170138 0.265293
0.327596 0.164034 0.196109
0.479377 0.178592 0.17084
0.612818 0.192065 0.144259
0.70634 0.229129 0.131365
0.771313 0.247456 0.118135
0.829099 0.275349 0.112749
0.846601 0.291295 0.117952
0.0191806 0.261646 0.312795
0.0482795 0.243519 0.295842
0.255634 0.279866 0.276143
0.451301 0.290974 0.221012
0.599924 0.328908 0.205356
0.725765 0.345464 0.176791
0.7991 0.349172 0.157473
0.855375 0.361685 0.147265
0.867292 0.359136 0.136553
0.035996 0.361898 0.349004
0.0513619 0.348028 0.329442
0.155261 0.346944 0.309209
0.443091 0.368795 0.246113
0.616144 0.3888 0.213642
0.747066 0.387304 0.172564
0.822828 0.387579 0.151843
0.875761 0.401877 0.144808
0.882353 0.395193 0.133242
0.0562142 0.460319 0.372427
0.0737621 0.454139 0.354955
0.143496 0.442359 0.3364
0.378683 0.487755 0.331472
0.614832 0.473106 0.235416
0.771771 0.505913 0.174456
0.861891 0.500481 0.128954
0.905257 0.504646 0.13048
0.906233 0.482185 0.118395
0.0810864 0.558358 0.393622
0.102373 0.55845 0.378241
0.170626 0.560265 0.368277
0.371252 0.6065 0.388937
0.637369 0.668208 0.346288
0.789029 0.608942 0.219287
0.888029 0.63595 0.194812
0.930266 0.668116 0.212634
0.932982 0.654231 0.200885
0.103304 0.639979 0.406729
0.125429 0.641611 0.388769
0.213977 0.657862 0.401114
0.418296 0.708888 0.420157
0.651316 0.758755 0.386435
0.812345 0.756619 0.289693
0.899382 0.718212 0.242252
0.935302 0.733623 0.251438
0.938521 0.731289 0.248035
0.11696 0.704067 0.416739
0.13904 0.70544 0.394369
0.249393 0.727459 0.424475
0.427131 0.764126 0.424628
0.617441 0.799908 0.396017
0.768933 0.823835 0.32166
0.889601 0.802258 0.282689
0.933028 0.776379 0.262898
0.937041 0.775372 0.264714
0.121462 0.72256 0.428626
0.142473 0.722042 0.411444
0.228077 0.73434 0.426444
0.407187 0.770153 0.44564
0.583124 0.800443 0.416785
0.737392 0.830549 0.348058
0.861112 0.835447 0.301915
0.921172 0.786099 0.264363
0.935256 0.780179 0.256306
0 0.110765 0.29575
0.084947 0.0276036 0.235782
0.289464 0.0582895 0.229648
0.501869 0.0992752 0.2318
0.612238 0.12163 0.222766
0.685405 0.128054 0.213458
0.738918 0.126604 0.20502
0.789593 0.129946 0.190265
0.802228 0.134066 0.173327
0.0172122 0.244175 0.368765
0.0448157 0.225132 0.362356
0.234592 0.167224 0.280568
0.480613 0.183551 0.242161
0.614893 0.203265 0.22565
0.701457 0.20557 0.210117
0.755062 0.200336 0.186465
0.804517 0.215045 0.160159
0.824735 0.24477 0.150103
0.0279545 0.30222 0.392737
0.0455177 0.29807 0.389151
0.162387 0.295262 0.372412
0.442679 0.2813 0.293919
0.591119 0.289036 0.243717
0.70721 0.300587 0.205798
0.780438 0.330968 0.198703
0.836072 0.352071 0.192782
0.854536 0.36759 0.194415
0.038941 0.366079 0.412039
0.0583658 0.364599 0.408835
0.134615 0.352712 0.393576
0.379431 0.403265 0.374899
0.593423 0.413306 0.30132
0.717372 0.444389 0.284199
0.809659 0.451225 0.256199
0.868681 0.459037 0.242985
0.877913 0.449577 0.226352
0.0623636 0.476448 0.452064
0.085069 0.481834 0.449378
0.136172 0.47631 0.435248
0.262242 0.490852 0.415549
0.604013 0.516777 0.339376
0.758495 0.533898 0.310933
0.852186 0.519478 0.269978
0.900359 0.527947 0.265156
0.901869 0.510292 0.245319
0.0875257 0.574228 0.4748
0.110307 0.581064 0.468467
0.153872 0.58439 0.456092
0.264912 0.597177 0.458305
0.569497 0.661112 0.451133
0.772 0.643763 0.361547
0.887709 0.668757 0.326818
0.932738 0.679881 0.321218
0.934905 0.657816 0.298009
0.108339 0.656397 0.488731
0.13164 0.660716 0.47538
0.180194 0.665415 0.459266
0.335058 0.700328 0.493996
0.592798 0.752728 0.483864
0.794369 0.793606 0.444266
0.899351 0.744976 0.366049
0.936706 0.766049 0.373663
0.9393 0.761349 0.355779
0.122301 0.71989 0.499519
0.144274 0.7205 0.477302
0.203082 0.72604 0.464347
0.378866 0.762142 0.498283
0.581994 0.799084 0.477806
0.755703 0.838972 0.449439
0.888594 0.828641 0.399649
0.935393 0.798917 0.345739
0.938964 0.797894 0.349355
0.126101 0.735927 0.509178
0.147189 0.734524 0.488807
0.196841 0.737118 0.477073
0.352682 0.765606 0.504234
0.547601 0.799771 0.489448
0.711177 0.833677 0.45716
0.843671 0.849973 0.405524
0.923064 0.807919 0.344656
0.936309 0.794171 0.287449
0.00810254 0.154604 0.377829
0.0666667 0.0686198 0.328435
0.242161 0.0592813 0.292821
0.414679 0.0943618 0.297673
0.610819 0.127001 0.293645
0.692851 0.147463 0.283879
0.752026 0.161501 0.279347
0.803571 0.178637 0.274144
0.81471 0.17969 0.262531
0.0282444 0.298009 0.452522
0.0492561 0.280064 0.453086
0.173022 0.192386 0.380865
0.353307 0.182712 0.325658
0.616358 0.206134 0.29926
0.710048 0.220554 0.286488
0.767361 0.22446 0.276677
0.811017 0.232929 0.26363
0.820661 0.230015 0.243137
0.0381476 0.350988 0.471916
0.0575265 0.352331 0.475486
0.131273 0.332174 0.461601
0.326116 0.285542 0.387015
0.596414 0.294636 0.319402
0.710582 0.300206 0.291188
0.775952 0.295872 0.272374
0.819287 0.295735 0.246128
0.832883 0.301411 0.223789
0.0458991 0.39498 0.48394
0.0674907 0.402594 0.490257
0.126101 0.406073 0.489464
0.251499 0.415839 0.481514
0.587655 0.39826 0.37705
0.701625 0.401877 0.325063
0.786786 0.406928 0.290608
0.844724 0.439582 0.289509
0.861036 0.445167 0.279332
0.0616159 0.468528 0.505745
0.0868238 0.482902 0.515846
0.132296 0.489494 0.518257
0.224506 0.494759 0.516228
0.540246 0.55671 0.488487
0.717388 0.571786 0.434669
0.833707 0.582849 0.398733
0.895186 0.58912 0.383734
0.899855 0.574975 0.363363
0.0942245 0.589456 0.554391
0.119753 0.603037 0.559792
0.142596 0.6094 0.556741
0.233127 0.620127 0.557549
0.479332 0.657847 0.547524
0.747738 0.694621 0.50312
0.880629 0.699611 0.458762
0.928588 0.684901 0.435843
0.929656 0.66598 0.415686
0.115892 0.674189 0.572976
0.138857 0.682734 0.570764
0.161318 0.687114 0.560143
0.253544 0.698589 0.557458
0.514 0.747845 0.573816
0.74667 0.802792 0.554864
0.888518 0.778073 0.490349
0.936889 0.798932 0.493797
0.939498 0.794827 0.483253
0.12726 0.735073 0.582101
0.149187 0.737865 0.568826
0.171405 0.73875 0.550637
0.282246 0.751842 0.548119
0.534279 0.798444 0.557321
0.725231 0.838132 0.535576
0.879423 0.859434 0.510445
0.935119 0.826062 0.471885
0.939193 0.825956 0.476616
0.130663 0.749645 0.589136
0.15172 0.74934 0.573709
0.172808 0.748531 0.55671
0.276005 0.758053 0.552377
0.49955 0.797467 0.561486
0.676112 0.83003 0.532815
0.819013 0.860456 0.504906
0.919295 0.83563 0.459449
0.938949 0.818814 0.407233
0.0229801 0.204974 0.459281
0.0670329 0.103136 0.40824
0.229343 0.0653086 0.354238
0.350042 0.0880751 0.350622
0.547036 0.126177 0.35642
0.691646 0.151247 0.350057
0.756573 0.169665 0.341665
0.813733 0.197269 0.341802
0.828397 0.204562 0.335073
0.0373693 0.341131 0.523125
0.0574044 0.319417 0.525597
0.127977 0.214923 0.465492
0.306386 0.179065 0.391119
0.505547 0.193271 0.362921
0.709056 0.22002 0.353994
0.775723 0.233875 0.343908
0.82536 0.25301 0.339437
0.836454 0.255116 0.32752
0.0476234 0.394446 0.540688
0.0677195 0.395987 0.54728
0.11931 0.377508 0.541741
0.266011 0.301137 0.47332
0.462348 0.284306 0.403693
0.713115 0.297124 0.356939
0.787198 0.306661 0.344991
0.833555 0.318547 0.337819
0.842847 0.314855 0.322728
0.0549477 0.434379 0.552163
0.076997 0.443595 0.560204
0.103593 0.453223 0.56817
0.215183 0.441032 0.555611
0.454994 0.395163 0.467918
0.710704 0.403586 0.392096
0.795163 0.403357 0.3673
0.842664 0.408011 0.357412
0.849699 0.398138 0.337819
0.0671397 0.487312 0.569238
0.0916915 0.501381 0.580224
0.118105 0.51165 0.588052
0.213718 0.528923 0.596902
0.44213 0.560098 0.576654
0.711788 0.554925 0.489113
0.803677 0.542855 0.442649
0.860853 0.548058 0.42237
0.869993 0.549584 0.412512
0.0916609 0.57615 0.601648
0.119799 0.596918 0.616464
0.145617 0.610254 0.624811
0.230488 0.632105 0.639841
0.401495 0.663081 0.647227
0.709621 0.726223 0.616983
0.856382 0.734371 0.572106
0.921126 0.730678 0.544961
0.924376 0.719203 0.529656
0.125139 0.693553 0.651728
0.149584 0.705577 0.65803
0.172503 0.713191 0.65893
0.230549 0.724437 0.661555
0.380102 0.746273 0.670939
0.671077 0.797604 0.649561
0.867353 0.825177 0.616175
0.936156 0.831846 0.598245
0.939956 0.825818 0.591058
0.136904 0.754208 0.661799
0.158114 0.759304 0.658167
0.178637 0.761578 0.649119
0.236866 0.766934 0.640238
0.393301 0.786023 0.637049
0.674388 0.836393 0.618814
0.853056 0.880171 0.609049
0.933577 0.857847 0.575021
0.939055 0.858228 0.579568
0.139452 0.767132 0.666896
0.159319 0.76817 0.658473
0.179171 0.7682 0.646952
0.237293 0.771832 0.636576
0.361334 0.784527 0.629664
0.620905 0.828504 0.610544
0.790768 0.867231 0.585504
0.911681 0.867475 0.553796
0.938857 0.840787 0.500191
0.0352636 0.24036 0.52781
0.0784009 0.121218 0.461997
0.234974 0.0806287 0.406302
0.337072 0.0937819 0.398322
0.462486 0.115099 0.401022
0.657679 0.156359 0.404883
0.754894 0.173373 0.401312
0.815656 0.200732 0.39556
0.83357 0.211994 0.393133
0.0449531 0.374304 0.581476
0.0661631 0.343862 0.58172
0.116426 0.235386 0.525353
0.286442 0.18352 0.44625
0.421271 0.189349 0.419928
0.654414 0.21471 0.407492
0.77232 0.232136 0.402701
0.830014 0.258106 0.396323
0.846372 0.26685 0.39266
0.0554971 0.428855 0.598001
0.0753033 0.42681 0.604334
0.107805 0.407874 0.603861
0.219181 0.3122 0.537255
0.403098 0.27422 0.461082
0.632425 0.284764 0.414893
0.783368 0.299214 0.403845
0.84152 0.325841 0.397787
0.857939 0.333104 0.394324
0.064744 0.472297 0.612665
0.0859541 0.477684 0.618143
0.110414 0.483543 0.626993
0.201175 0.458595 0.611841
0.398337 0.394293 0.533913
0.610498 0.38352 0.457115
0.793759 0.388632 0.416526
0.854627 0.417624 0.419226
0.868528 0.421454 0.416892
0.0752728 0.5178 0.628168
0.0986343 0.528969 0.636744
0.122652 0.5402 0.646586
0.201419 0.559686 0.658579
0.373007 0.564309 0.64361
0.618524 0.526818 0.547204
0.813214 0.531945 0.486717
0.875151 0.551583 0.488685
0.882338 0.545617 0.480079
0.0936294 0.583734 0.654002
0.120073 0.600519 0.666606
0.145708 0.614466 0.677134
0.220996 0.635554 0.692943
0.357794 0.666743 0.707546
0.646967 0.724453 0.685573
0.834318 0.718791 0.625727
0.886793 0.7019 0.592309
0.886671 0.69015 0.578866
0.122957 0.678752 0.693111
0.148836 0.69485 0.704845
0.174182 0.709056 0.714351
0.231998 0.727474 0.727382
0.351064 0.754665 0.745937
0.602975 0.80679 0.741451
0.836988 0.855817 0.711574
0.929519 0.856626 0.684016
0.934173 0.853101 0.678431
0.144427 0.76997 0.729351
0.167193 0.778195 0.733639
0.189441 0.784619 0.735775
0.213291 0.788998 0.735241
0.312642 0.801221 0.737575
0.533349 0.831754 0.725673
0.796902 0.88188 0.694438
0.92903 0.903243 0.684291
0.939513 0.902388 0.6813
0.147036 0.782467 0.733791
0.168582 0.787594 0.734737
0.189258 0.790585 0.732601
0.209232 0.792309 0.727062
0.290028 0.798795 0.719936
0.472694 0.818647 0.700374
0.736324 0.863081 0.659312
0.899641 0.896605 0.636378
0.938994 0.867964 0.585367
0.0409552 0.297185 0.596063
0.0853285 0.165499 0.528069
0.252934 0.109789 0.454719
0.347646 0.11191 0.441672
0.443 0.13135 0.440452
0.610178 0.166003 0.444312
0.741878 0.190402 0.447486
0.816297 0.210742 0.446189
0.834806 0.220493 0.44448
0.0531167 0.408042 0.631968
0.0738384 0.367514 0.629541
0.121218 0.256229 0.572091
0.30013 0.196429 0.486839
0.412665 0.19736 0.46244
0.586191 0.216785 0.446128
0.748257 0.239292 0.448142
0.826871 0.259648 0.446387
0.845579 0.269734 0.444282
0.0635843 0.459464 0.64651
0.0803693 0.449104 0.648463
0.110506 0.417868 0.643076
0.211719 0.31809 0.576059
0.383291 0.270527 0.502464
0.557382 0.2851 0.467094
0.749783 0.297566 0.4477
0.837079 0.320836 0.44651
0.856809 0.333394 0.44593
0.0733654 0.503182 0.661372
0.09308 0.50312 0.663172
0.114427 0.501503 0.669032
0.195666 0.46389 0.649088
0.360967 0.393179 0.577981
0.551995 0.372915 0.504829
0.750393 0.37734 0.458808
0.849515 0.403464 0.458946
0.867643 0.419379 0.464759
0.0831922 0.545678 0.676387
0.104494 0.550454 0.679927
0.127245 0.558404 0.687709
0.15584 0.568994 0.697505
0.32871 0.5552 0.68072
0.570672 0.499336 0.581064
0.757412 0.503182 0.517494
0.871214 0.530419 0.514183
0.885405 0.543969 0.523247
0.0982681 0.599588 0.697261
0.121462 0.60911 0.704295
0.146715 0.622629 0.714809
0.179583 0.637415 0.726589
0.32459 0.670451 0.746502
0.590387 0.695338 0.713664
0.77467 0.679149 0.646677
0.901503 0.695415 0.628931
0.909926 0.700374 0.631968
0.122423 0.677958 0.732677
0.14667 0.689998 0.741115
0.170916 0.701717 0.749142
0.225162 0.718242 0.761776
0.299672 0.738415 0.7776
0.532052 0.793271 0.791562
0.803082 0.854353 0.765332
0.923644 0.854475 0.736126
0.929152 0.852598 0.732677
0.142443 0.752087 0.760388
0.16553 0.761456 0.767102
0.188037 0.76965 0.772244
0.225757 0.779507 0.779217
0.30045 0.796918 0.791745
0.3729 0.816312 0.805097
0.695827 0.88571 0.795377
0.915724 0.929397 0.763867
0.933898 0.92459 0.753094
0.145068 0.765209 0.766415
0.167483 0.773831 0.771557
0.189181 0.78088 0.775097
0.213535 0.789319 0.778485
0.289357 0.806592 0.787701
0.352148 0.824109 0.792889
0.57995 0.859449 0.774121
0.852445 0.909255 0.717357
0.937591 0.911543 0.689342
0.0395209 0.316335 0.618311
0.0803082 0.175586 0.547112
0.248875 0.111864 0.466148
0.348287 0.109255 0.450584
0.441627 0.125322 0.448661
0.598123 0.159838 0.452384
0.73257 0.19115 0.456764
0.817624 0.217472 0.460929
0.835798 0.226566 0.459174
0.0545968 0.414328 0.642817
0.0716564 0.373007 0.63978
0.112032 0.266804 0.589105
0.298405 0.196292 0.495949
0.41033 0.190616 0.469078
0.570962 0.209247 0.454871
0.736187 0.239796 0.458762
0.826581 0.266728 0.463233
0.845502 0.276844 0.460853
0.0649729 0.465263 0.657069
0.0816663 0.455467 0.658579
0.105364 0.420737 0.653544
0.202243 0.317403 0.587533
0.37821 0.262501 0.509789
0.541833 0.275746 0.477455
0.734096 0.297993 0.459617
0.835035 0.325505 0.464454
0.856168 0.339498 0.463157
0.0750286 0.51017 0.673594
0.0950637 0.510826 0.676112
0.113451 0.504433 0.679332
0.189975 0.46244 0.659342
0.347692 0.383139 0.585824
0.538552 0.359701 0.512749
0.73344 0.377249 0.473594
0.846494 0.403128 0.473518
0.866148 0.421942 0.478538
0.0851911 0.55378 0.690715
0.106767 0.558648 0.694286
0.12784 0.562005 0.697536
0.1514 0.566918 0.705135
0.308766 0.543481 0.686168
0.556802 0.484092 0.584207
0.74255 0.495354 0.525368
0.866712 0.521813 0.519387
0.883009 0.541253 0.530632
0.0991836 0.604486 0.709133
0.121828 0.611582 0.714122
0.1458 0.622156 0.721035
0.171252 0.633021 0.729747
0.298085 0.660868 0.748302
0.576989 0.684672 0.716091
0.764508 0.665537 0.644205
0.897688 0.683482 0.625834
0.908553 0.695033 0.63331
0.122499 0.679026 0.740581
0.146227 0.68896 0.747021
0.170169 0.699596 0.753628
0.22269 0.715434 0.764752
0.288396 0.733425 0.778897
0.489204 0.78468 0.799924
0.788342 0.845197 0.768063
0.92079 0.845365 0.736278
0.926802 0.842481 0.733059
0.142367 0.751278 0.765896
0.165423 0.760128 0.771756
0.187564 0.767315 0.775891
0.226001 0.777417 0.782712
0.300389 0.793622 0.795193
0.358785 0.809812 0.807858
0.655451 0.87245 0.806226
0.906584 0.927977 0.77908
0.931624 0.922362 0.771023
0.144762 0.763394 0.770123
0.166873 0.770367 0.775021
0.188251 0.776806 0.778866
0.214542 0.783871 0.783642
0.289174 0.799176 0.794873
0.343389 0.812039 0.804547
0.418204 0.8336 0.819638
0.73434 0.90518 0.80499
0.92575 0.939696 0.777157
