src/assets/luts/Alen Palander - Zurich.cube
TITLE "Generated by Resolve"
LUT_3D_SIZE 5
0 0 0
0.159045 0.0216373 0.0205844
0.38143 0.00273136 0.00961318
0.56994 0.000457771 0.00366217
0.657877 0.000335698 0.00265507
0.00848402 0.155215 0.0494087
0.275944 0.220996 0.00753796
0.507134 0.235904 0.000167849
0.707622 0.214099 0.000122072
0.817792 0.18732 7.62951e-05
0.000106813 0.239689 0.00572213
0.25536 0.34136 6.10361e-05
0.521859 0.394354 1.5259e-05
0.75697 0.415442 0
0.907652 0.428702 0
0 0.325948 0
0.214969 0.462684 0
0.545892 0.557137 0
0.811124 0.606394 0
0.982589 0.632563 0
0 0.414313 0
0.17348 0.565438 0
0.564492 0.690867 0
0.853422 0.760479 0
0.999908 0.798733 0
0.00015259 0.0198367 0.143542
0.183963 0.0283665 0.226291
0.40499 0.00477607 0.260365
0.585885 0.000579843 0.2636
0.670863 0.000381476 0.264164
0.000228885 0.201068 0.272129
0.27805 0.274189 0.285237
0.52018 0.281971 0.300526
0.725383 0.261082 0.2822
0.836957 0.242908 0.277577
9.15541e-05 0.301289 0.254749
0.210346 0.4094 0.267353
0.547066 0.467094 0.242267
0.786038 0.485908 0.2038
0.927626 0.496773 0.185367
0 0.400534 0.23389
0.125765 0.547753 0.216114
0.5617 0.642191 0.133745
0.834348 0.684184 0.0821241
0.991226 0.7075 0.0649729
0 0.490349 0.236912
0.0499275 0.649058 0.20235
0.557137 0.775692 0.124086
0.860822 0.84239 0.0569314
0.999985 0.886885 0.0949264
0.000106813 0.0152285 0.290806
0.186862 0.01944 0.4038
0.408469 0.00518807 0.440452
0.586633 0.000549325 0.450172
0.671214 0.000274662 0.451896
0.000167849 0.229648 0.453437
0.216663 0.295567 0.517281
0.509789 0.30837 0.534417
0.719234 0.288975 0.535454
0.835462 0.275654 0.539239
7.62951e-05 0.341619 0.457206
0.128145 0.453162 0.518334
0.526848 0.522225 0.538048
0.773373 0.532128 0.541588
0.921843 0.542962 0.545205
0 0.451591 0.460929
0.0350195 0.597772 0.517388
0.517876 0.691539 0.533471
0.806851 0.733272 0.532357
0.982391 0.757412 0.529931
0 0.547799 0.495781
0.00543221 0.706172 0.54406
0.489433 0.834012 0.559853
0.828916 0.900893 0.563958
1 0.944854 0.603403
0.00015259 0.00924697 0.437125
0.177554 0.019791 0.565972
0.410971 0.00555428 0.603876
0.590875 0.00129702 0.616892
0.678614 0.00015259 0.61735
0.000167849 0.259648 0.618387
0.146792 0.324834 0.706218
0.498695 0.336522 0.734051
0.714992 0.319509 0.740383
0.838544 0.312032 0.747448
6.10361e-05 0.376608 0.632746
0.0328069 0.487098 0.717754
0.497597 0.546471 0.753735
0.761242 0.565896 0.76611
0.9149 0.578012 0.772656
0 0.488624 0.646097
0.0108339 0.630579 0.724361
0.469093 0.726665 0.762463
0.778881 0.774029 0.788983
0.96907 0.792218 0.783337
0 0.581384 0.673686
0.00300603 0.736095 0.746395
0.433433 0.864179 0.78822
0.805158 0.93225 0.813184
0.999939 0.976806 0.856291
0.000167849 0.0158083 0.51931
0.161257 0.0246586 0.630518
0.403922 0.00822461 0.671992
0.59266 0.000946059 0.692927
0.688502 0.000137331 0.700969
0.000167849 0.279347 0.684825
0.0720531 0.350134 0.791455
0.476875 0.36936 0.838636
0.709636 0.36199 0.862776
0.845472 0.357183 0.878035
3.0518e-05 0.401144 0.72961
0.017319 0.512352 0.839094
0.451652 0.57525 0.896559
0.740459 0.6009 0.925185
0.912535 0.617868 0.941115
0 0.514443 0.768795
0.00730907 0.649927 0.868299
0.401389 0.748684 0.93164
0.751812 0.794186 0.961654
0.95584 0.820859 0.976745
0 0.603052 0.798489
0.00215152 0.751171 0.887724
0.360418 0.880629 0.952651
0.778012 0.95111 0.987762
0.998032 0.994339 1
