src/assets/luts/Alen Palander - Cappadocia.cube
TITLE "Generated by Resolve"
LUT_3D_SIZE 33
0.0346075 0.0388952 0.0395056
0.0391699 0.036759 0.0373846
0.0447547 0.0348821 0.0350652
0.0529183 0.0340429 0.0323033
0.062089 0.0334936 0.0303349
0.0720531 0.0332952 0.029221
0.0821088 0.0337377 0.0288243
0.0918441 0.0343328 0.0286107
0.0995499 0.0349889 0.0287022
0.107088 0.0355535 0.0290532
0.114549 0.035935 0.0295567
0.124453 0.0364233 0.0302739
0.134813 0.0368963 0.0310063
0.14406 0.0370031 0.0315099
0.15378 0.0372015 0.0321965
0.163516 0.0372931 0.0327459
0.17026 0.0372168 0.0328985
0.177081 0.0372015 0.0330358
0.184222 0.0370947 0.0331884
0.191836 0.0370947 0.0332036
0.199649 0.0370947 0.0332189
0.207782 0.0370031 0.0332036
0.21416 0.0369268 0.0330968
0.220081 0.0368963 0.0330968
0.230182 0.0370642 0.0332647
0.24062 0.0373236 0.0335393
0.251164 0.0376745 0.0339361
0.252506 0.037705 0.0339971
0.252506 0.037705 0.0339971
0.252506 0.037705 0.0339971
0.252506 0.037705 0.0339971
0.252506 0.037705 0.0339971
0.252506 0.037705 0.0339971
0.0341344 0.0506447 0.0396582
0.0404974 0.0506294 0.0391241
0.0455787 0.0462501 0.0369116
0.0599832 0.0410773 0.0339818
0.0663767 0.0375372 0.031281
0.073579 0.0349432 0.0298466
0.0797284 0.0337224 0.0289616
0.0890516 0.0341192 0.0286564
0.0975509 0.0348516 0.0287022
0.105486 0.035462 0.0289616
0.113069 0.035874 0.0294499
0.122637 0.0363317 0.0301518
0.133196 0.0368353 0.0308995
0.142657 0.0370031 0.0314336
0.1523 0.0371557 0.0320897
0.162356 0.0372931 0.0327153
0.169314 0.0372473 0.0328985
0.176043 0.0372015 0.0330053
0.18323 0.0370947 0.0331426
0.190845 0.0370947 0.0332036
0.198581 0.0370947 0.0332494
0.206729 0.0370031 0.0332036
0.213443 0.0369573 0.0330968
0.219013 0.0368963 0.0330968
0.228946 0.0370336 0.0332341
0.239353 0.0372931 0.0334936
0.249897 0.037644 0.033875
0.252506 0.037705 0.0339971
0.252506 0.037705 0.0339971
0.252506 0.037705 0.0339971
0.252506 0.037705 0.0339971
0.252506 0.037705 0.0339971
0.252506 0.037705 0.0339971
0.033753 0.0632944 0.039826
0.0361334 0.0623941 0.0396735
0.0481727 0.0649424 0.0389258
0.0671092 0.0594492 0.0363622
0.0875563 0.0542306 0.033402
0.106432 0.0471199 0.0319829
0.118791 0.0451209 0.0311131
0.132448 0.043473 0.0312047
0.145541 0.0424048 0.0317235
0.153185 0.0422522 0.0318456
0.163561 0.0424201 0.0324559
0.170947 0.0416571 0.0329747
0.179355 0.0414588 0.0335851
0.186358 0.0412451 0.0340429
0.192004 0.0408331 0.0344244
0.198352 0.0404517 0.0348669
0.203021 0.0403296 0.0350042
0.205554 0.0397192 0.0348974
0.209384 0.0392004 0.0348363
0.211933 0.0387274 0.0346227
0.215778 0.0384222 0.0344244
0.219165 0.0378271 0.0341039
0.221881 0.0374914 0.0337987
0.224994 0.0372473 0.0336004
0.230915 0.037171 0.033463
0.238972 0.0373083 0.0335241
0.248539 0.0376135 0.033814
0.252506 0.037705 0.0339971
0.252506 0.037705 0.0339971
0.252506 0.037705 0.0339971
0.252506 0.037705 0.0339971
0.252506 0.037705 0.0339971
0.252506 0.037705 0.0339971
0.0342565 0.0788891 0.0400244
0.034165 0.0774853 0.0399939
0.0437324 0.0808576 0.0397498
0.0604105 0.0843366 0.0392462
0.0940871 0.0781872 0.0363775
0.13312 0.0727092 0.0346532
0.156512 0.063447 0.0334783
0.177356 0.0588235 0.0337835
0.194598 0.0544137 0.0344091
0.210834 0.0518959 0.0353857
0.226703 0.0518196 0.0363012
0.239994 0.0512551 0.0371405
0.252094 0.0494698 0.0378271
0.261326 0.0489052 0.0384222
0.269017 0.0484779 0.0389563
0.275792 0.0475166 0.0395361
0.282399 0.0472725 0.0399023
0.2869 0.0470436 0.0399481
0.289769 0.0456855 0.0398871
0.291508 0.0448157 0.0396277
0.292149 0.0439918 0.0392462
0.290929 0.0425269 0.0389563
0.290837 0.0415503 0.0386664
0.285328 0.0404517 0.0382239
0.282322 0.0398566 0.0375067
0.284901 0.0395972 0.0371405
0.280934 0.0391546 0.0361639
0.284276 0.0392004 0.0362402
0.283055 0.0391394 0.0361486
0.281544 0.0390631 0.0360418
0.28014 0.0390021 0.035935
0.278691 0.0389258 0.0358282
0.277409 0.0388647 0.0357366
0.0356756 0.0984512 0.0403754
0.0355688 0.0972915 0.0403296
0.0405432 0.0999313 0.0405737
0.0517281 0.104494 0.040528
0.0733043 0.11043 0.0410925
0.132952 0.111559 0.0396429
0.188708 0.110506 0.0387121
0.239918 0.104463 0.0378882
0.266987 0.0985885 0.0383459
0.292729 0.0924849 0.0393683
0.313375 0.0864729 0.0404822
0.326482 0.083238 0.0413214
0.332753 0.0767834 0.0417487
0.340154 0.0729534 0.0420996
0.347066 0.0706035 0.0425574
0.349889 0.066041 0.042771
0.355062 0.0632792 0.0431983
0.36025 0.0618601 0.0433967
0.364141 0.0582132 0.0435035
0.366217 0.0559548 0.043595
0.365652 0.0540475 0.0433356
0.364416 0.051606 0.0431678
0.361669 0.0492561 0.0428779
0.353719 0.0467689 0.0424811
0.34548 0.0446632 0.0419165
0.339605 0.0436866 0.0411383
0.331182 0.0420081 0.0401007
0.324819 0.0413977 0.0391852
0.322072 0.0412146 0.0389868
0.319234 0.0410163 0.0387732
0.316609 0.0408484 0.0385748
0.313878 0.0406653 0.0383612
0.312261 0.0405585 0.0382544
0.0394446 0.122789 0.0430457
0.0392004 0.121431 0.0428626
0.0437018 0.125048 0.0429694
0.0505837 0.129259 0.0430915
0.0638132 0.135378 0.0438239
0.0979477 0.14432 0.0453193
0.180804 0.151339 0.0448157
0.260288 0.155322 0.0440681
0.319249 0.149462 0.0431678
0.357626 0.140902 0.0437171
0.389731 0.131502 0.0443885
0.413184 0.12285 0.0455177
0.420172 0.113024 0.0458991
0.424002 0.105074 0.0460975
0.428199 0.10016 0.0461738
0.427176 0.0930953 0.0459602
0.426856 0.0868391 0.0458839
0.429297 0.0822003 0.0459602
0.432532 0.0769818 0.0460822
0.435782 0.0724041 0.0461585
0.434409 0.0691234 0.0463874
0.43267 0.0659342 0.0462654
0.430106 0.062501 0.046128
0.423774 0.0580148 0.0458991
0.415076 0.0545815 0.0455329
0.40647 0.0514076 0.0449989
0.396536 0.0476539 0.0447242
0.388708 0.0458839 0.0439612
0.38584 0.0456855 0.0437476
0.382864 0.0454719 0.0435187
0.380118 0.0452888 0.0433204
0.377691 0.0451057 0.0431373
0.375051 0.0449226 0.0429389
0.0449989 0.149859 0.0469062
0.0446937 0.148699 0.0467384
0.0480354 0.151385 0.0467994
0.0563058 0.159182 0.0471656
0.0617685 0.164996 0.0478218
0.0822309 0.172992 0.0492714
0.133715 0.186831 0.0524147
0.233524 0.20145 0.051957
0.319539 0.208301 0.0511788
0.384421 0.202838 0.0496529
0.428489 0.192325 0.0493019
0.465248 0.180865 0.0493172
0.493233 0.165576 0.0498207
0.498177 0.153231 0.0500191
0.497688 0.142061 0.0499123
0.492103 0.129412 0.0496223
0.487694 0.119677 0.0492256
0.482185 0.110491 0.0488746
0.480034 0.102266 0.0486915
0.482338 0.0954147 0.0486305
0.484443 0.090074 0.048661
0.483955 0.0858473 0.0487221
0.482918 0.08159 0.0487373
0.480522 0.0768139 0.0486152
0.474357 0.071397 0.0484016
0.465232 0.0663462 0.0480507
0.456657 0.0604868 0.0477607
0.447395 0.0561532 0.0475471
0.444892 0.055375 0.0474403
0.442756 0.0547036 0.047364
0.440253 0.0539254 0.0472572
0.437766 0.0531472 0.0471504
0.435447 0.05243 0.0470436
0.0614481 0.185214 0.0523384
0.0605936 0.183551 0.052079
0.0628214 0.184833 0.0517433
0.07187 0.193317 0.0517586
0.0742809 0.199207 0.0525368
0.079469 0.20502 0.0535744
0.112444 0.215335 0.0564584
0.178943 0.232563 0.06009
0.286732 0.25153 0.0599069
0.377554 0.260014 0.0589151
0.446174 0.255039 0.0570687
0.496162 0.243305 0.0559854
0.536553 0.226764 0.0544289
0.56376 0.208209 0.05449
0.564187 0.191455 0.0541543
0.561242 0.174319 0.0536202
0.551263 0.158145 0.0530404
0.540047 0.144701 0.0522621
0.530907 0.132631 0.051606
0.524117 0.121736 0.051194
0.525139 0.114611 0.0509804
0.52726 0.108858 0.0509957
0.527489 0.103899 0.0509499
0.527092 0.0990463 0.0509194
0.524407 0.0936599 0.0508431
0.516548 0.0867018 0.0506142
0.508629 0.0798962 0.0502022
0.500557 0.0729534 0.049897
0.498146 0.0720378 0.0498054
0.495705 0.0711681 0.0496986
0.493111 0.0703593 0.0495766
0.490425 0.0695201 0.0494545
0.487938 0.0687419 0.0493324
0.0827192 0.22298 0.0579385
0.0813153 0.221225 0.0577401
0.0816968 0.220874 0.0574044
0.0917678 0.22977 0.0567941
0.0950942 0.23653 0.0572366
0.0944533 0.241306 0.0583352
0.105577 0.247028 0.0608377
0.148913 0.259846 0.0642405
0.229221 0.280171 0.0683146
0.337957 0.301183 0.0686351
0.43064 0.310674 0.0677806
0.503548 0.307042 0.0658579
0.553506 0.291707 0.0626688
0.592676 0.273167 0.0602731
0.611032 0.249256 0.0593881
0.617182 0.229145 0.0585641
0.617685 0.209186 0.0575875
0.598001 0.185748 0.0558785
0.585306 0.169711 0.0548409
0.575723 0.155062 0.054078
0.567269 0.144518 0.053666
0.567498 0.137453 0.0534676
0.568597 0.131655 0.0533913
0.568887 0.126436 0.0533455
0.568246 0.121004 0.053315
0.563455 0.112978 0.0530251
0.556298 0.105043 0.0526894
0.549554 0.0970016 0.0522469
0.546288 0.0945754 0.0520638
0.543862 0.0932326 0.0519265
0.541436 0.0918746 0.0518044
0.53901 0.0905318 0.0516823
0.536919 0.0893721 0.0515755
0.120577 0.266148 0.0627756
0.119066 0.264424 0.0625772
0.117494 0.262608 0.0623636
0.124498 0.26865 0.0607004
0.125826 0.274418 0.0608377
0.120897 0.278035 0.0618906
0.120104 0.281239 0.0639658
0.138918 0.288777 0.0668803
0.197742 0.305348 0.071046
0.28397 0.326925 0.0757153
0.392828 0.348165 0.0764172
0.485054 0.356298 0.0760967
0.557092 0.352529 0.0745251
0.606653 0.335912 0.0705119
0.638376 0.314244 0.0673838
0.658457 0.290303 0.0658579
0.668681 0.267887 0.064332
0.663722 0.239704 0.0616159
0.644373 0.214496 0.0594492
0.633158 0.195972 0.0582284
0.623209 0.180453 0.0570993
0.613657 0.169619 0.0565347
0.611811 0.161959 0.0561379
0.611109 0.155581 0.0559548
0.61091 0.150057 0.0558785
0.60708 0.141573 0.0555276
0.602289 0.13286 0.0551461
0.59588 0.123857 0.0546883
0.592004 0.120119 0.05449
0.589334 0.118593 0.0543374
0.58674 0.117098 0.0542
0.584314 0.115709 0.054078
0.581964 0.114351 0.0539559
0.16347 0.310002 0.0671397
0.161837 0.308553 0.0670176
0.159777 0.306722 0.0668803
0.163668 0.309865 0.0653086
0.163684 0.313573 0.0642557
0.153643 0.315511 0.0652018
0.147616 0.317479 0.0670329
0.150576 0.321447 0.0695354
0.187961 0.33341 0.0731365
0.252522 0.350866 0.0777752
0.340566 0.372351 0.0829175
0.447303 0.391012 0.0844282
0.537835 0.398596 0.084596
0.607996 0.394446 0.0834669
0.650706 0.376135 0.0791333
0.681636 0.354482 0.0756085
0.704005 0.332128 0.0733501
0.712123 0.302464 0.0700389
0.708324 0.272175 0.0667124
0.697688 0.247822 0.0644541
0.68806 0.228122 0.0626841
0.678904 0.211551 0.0611734
0.670237 0.199649 0.0601053
0.66656 0.191409 0.0596933
0.66302 0.184649 0.0594186
0.655833 0.174105 0.0586862
0.649714 0.164141 0.0582437
0.642252 0.153933 0.0578622
0.637568 0.148592 0.057557
0.634775 0.146792 0.0573587
0.632319 0.14522 0.0571756
0.62945 0.143374 0.0569772
0.626657 0.141573 0.0567788
0.213855 0.354482 0.0708934
0.212039 0.35288 0.0707561
0.209964 0.351064 0.0706188
0.211139 0.351247 0.0693217
0.21146 0.353567 0.0679942
0.196094 0.352712 0.0686046
0.183764 0.352911 0.0700084
0.177981 0.354116 0.0720684
0.198352 0.361654 0.0747539
0.244038 0.374929 0.0787366
0.316365 0.3935 0.0839551
0.403998 0.414206 0.0902724
0.507668 0.430823 0.0925612
0.590539 0.434897 0.0940108
0.65095 0.428534 0.0932326
0.691493 0.410346 0.0888685
0.722164 0.390249 0.085008
0.739788 0.364858 0.0814374
0.746471 0.332464 0.0770428
0.74757 0.304906 0.0728618
0.740108 0.280934 0.0703136
0.733303 0.260609 0.06804
0.728191 0.243946 0.0660258
0.72076 0.23151 0.0647135
0.715663 0.222309 0.0639963
0.70837 0.21091 0.0629435
0.698116 0.19765 0.0618296
0.689723 0.185824 0.0611429
0.683375 0.178088 0.0607614
0.680491 0.176211 0.0605478
0.67744 0.174212 0.0603189
0.674311 0.172152 0.06009
0.67126 0.170153 0.0598611
0.269368 0.39675 0.0745403
0.267094 0.395132 0.074403
0.264714 0.393439 0.0742504
0.262806 0.392111 0.0740368
0.263676 0.393103 0.0725719
0.246662 0.391699 0.0727398
0.226703 0.388739 0.073106
0.212833 0.387457 0.0746624
0.223133 0.391928 0.0768444
0.250568 0.400687 0.0799725
0.307195 0.415839 0.0846113
0.382361 0.434409 0.090898
0.4692 0.454948 0.0985122
0.562249 0.465614 0.10219
0.635721 0.467308 0.103899
0.691569 0.460212 0.103441
0.730465 0.443565 0.0991836
0.756664 0.42153 0.0943313
0.768933 0.392798 0.0894026
0.777386 0.364034 0.0840009
0.779721 0.337423 0.0795148
0.775357 0.314763 0.0768902
0.772656 0.295689 0.0744945
0.769192 0.27921 0.0723888
0.764324 0.265827 0.070634
0.758114 0.253361 0.0692607
0.74931 0.238071 0.0675517
0.739925 0.222461 0.0657664
0.732158 0.211719 0.0650492
0.728634 0.209293 0.064744
0.725124 0.206851 0.0644388
0.721508 0.204349 0.0641337
0.717998 0.201907 0.0638285
0.326833 0.437369 0.0784009
0.324575 0.435843 0.078233
0.322103 0.43418 0.0780499
0.3196 0.432486 0.0780194
0.317281 0.431098 0.0779583
0.301122 0.429496 0.0775616
0.280186 0.426261 0.0774548
0.254597 0.420783 0.077348
0.253773 0.421332 0.0787823
0.270069 0.426642 0.0811017
0.310231 0.437095 0.0852369
0.373159 0.452934 0.0911116
0.45153 0.471733 0.0984817
0.538598 0.490944 0.109575
0.619913 0.498054 0.112963
0.682063 0.4963 0.114397
0.733272 0.489113 0.114305
0.767636 0.471733 0.109422
0.785 0.44773 0.103349
0.797009 0.422034 0.0977493
0.805646 0.394568 0.0918593
0.807996 0.369375 0.086656
0.806134 0.347295 0.0837415
0.806012 0.32845 0.081178
0.803388 0.311498 0.0784619
0.799313 0.296712 0.0763867
0.792905 0.279789 0.0741283
0.784695 0.262776 0.07187
0.776623 0.246281 0.0697642
0.773419 0.242756 0.0692454
0.770108 0.239994 0.0688487
0.766812 0.237217 0.0684367
0.763806 0.234699 0.0680705
0.383246 0.473289 0.0833753
0.380926 0.471839 0.0831617
0.37879 0.470512 0.0829633
0.374792 0.468193 0.0828107
0.370382 0.46566 0.0829633
0.354391 0.462806 0.0830396
0.333959 0.460029 0.0825666
0.305165 0.453651 0.0818494
0.291844 0.450706 0.0820172
0.297368 0.452415 0.0835584
0.326833 0.45977 0.0872511
0.371084 0.471107 0.0919509
0.439307 0.487846 0.0987259
0.518791 0.50605 0.109148
0.602441 0.524178 0.12108
0.667872 0.526375 0.124086
0.72488 0.523507 0.125597
0.772274 0.515694 0.1252
0.795407 0.496437 0.118914
0.812085 0.474495 0.112398
0.823804 0.450507 0.106218
0.83064 0.424399 0.0992142
0.833738 0.399725 0.0935988
0.834455 0.378241 0.0905776
0.832639 0.35877 0.0874189
0.829526 0.34165 0.0845655
0.823987 0.321736 0.0814679
0.815991 0.303334 0.0788739
0.806119 0.28484 0.0762951
0.801999 0.277897 0.0753338
0.799512 0.274754 0.0747692
0.797116 0.271748 0.0742504
0.794507 0.268467 0.0736553
0.43888 0.507515 0.0886397
0.436774 0.506249 0.0884413
0.434089 0.504631 0.0881666
0.430671 0.502586 0.0880598
0.424155 0.499046 0.0881514
0.409064 0.495521 0.0882582
0.388464 0.492042 0.0882277
0.357519 0.484886 0.0870222
0.337789 0.480125 0.0866102
0.332845 0.478569 0.087068
0.350408 0.482307 0.0902724
0.383032 0.490227 0.0944076
0.432761 0.502632 0.0999771
0.5019 0.518486 0.10901
0.579278 0.535683 0.120394
0.654627 0.551644 0.134417
0.71603 0.5523 0.137682
0.769345 0.548196 0.139284
0.800519 0.536538 0.136736
0.820783 0.517784 0.130205
0.835294 0.497566 0.123568
0.845289 0.474586 0.11635
0.851591 0.44921 0.108812
0.855283 0.427146 0.102129
0.855558 0.405921 0.0982528
0.853147 0.386557 0.0944076
0.849363 0.365118 0.0897231
0.84416 0.344488 0.0863508
0.835111 0.324331 0.0832074
0.828534 0.31249 0.0814374
0.825971 0.308965 0.0807965
0.823346 0.305379 0.0801556
0.820783 0.301854 0.0795148
0.493141 0.539193 0.0942397
0.490593 0.537697 0.0939803
0.487861 0.536095 0.0936904
0.48481 0.53431 0.0934615
0.479026 0.530846 0.0937972
0.466758 0.52726 0.0938735
0.44622 0.523262 0.0938735
0.415137 0.515801 0.092195
0.386969 0.508721 0.0911574
0.37438 0.504707 0.0910964
0.381552 0.505623 0.0938888
0.403861 0.510491 0.0978561
0.444419 0.520302 0.103365
0.493797 0.532082 0.110048
0.562234 0.547265 0.120195
0.632792 0.56289 0.133883
0.705257 0.57789 0.148104
0.761578 0.576562 0.151446
0.799603 0.56849 0.151095
0.825559 0.555825 0.147921
0.842832 0.538918 0.141619
0.855894 0.519188 0.134371
0.864744 0.496956 0.12665
0.870359 0.474372 0.117815
0.873152 0.452247 0.110613
0.871427 0.431266 0.105638
0.86833 0.409171 0.100237
0.864057 0.386343 0.0948196
0.858701 0.363668 0.0906539
0.850721 0.346395 0.0879683
0.848203 0.342473 0.0872053
0.84564 0.338491 0.0864271
0.843168 0.334646 0.0856794
0.546471 0.568215 0.100923
0.543816 0.566934 0.100511
0.540795 0.565454 0.100053
0.537774 0.563973 0.0995804
0.532387 0.560739 0.0997177
0.522194 0.556939 0.0997024
0.503014 0.55285 0.0996109
0.47393 0.546029 0.0980087
0.442283 0.538186 0.0960708
0.421332 0.53164 0.0955367
0.418891 0.529946 0.0973678
0.432349 0.531991 0.101472
0.46363 0.53904 0.10724
0.504295 0.548577 0.113451
0.553368 0.559792 0.121294
0.617273 0.573938 0.133745
0.685649 0.588846 0.148043
0.75378 0.601862 0.162371
0.798337 0.596841 0.16376
0.826612 0.586236 0.162066
0.84651 0.573816 0.159106
0.862211 0.557183 0.152544
0.872663 0.538033 0.144533
0.879683 0.516854 0.136187
0.884779 0.494911 0.126909
0.885817 0.474449 0.119677
0.884169 0.452705 0.113558
0.880919 0.428717 0.106325
0.876783 0.405035 0.100145
0.871183 0.381842 0.0956283
0.868544 0.375372 0.0941329
0.866377 0.371084 0.0929732
0.86424 0.367102 0.0919661
0.599161 0.593942 0.10898
0.596338 0.592554 0.108553
0.593225 0.591028 0.108064
0.590402 0.589654 0.107637
0.583978 0.586069 0.107027
0.575479 0.582162 0.106813
0.555184 0.576928 0.105776
0.528206 0.570642 0.104402
0.49543 0.562722 0.102235
0.468925 0.555489 0.101366
0.455116 0.551003 0.102174
0.463081 0.551888 0.106172
0.4869 0.557 0.112001
0.520607 0.564752 0.118181
0.56257 0.574563 0.125643
0.608698 0.585092 0.134783
0.669505 0.598596 0.14818
0.732097 0.610956 0.161761
0.794278 0.621729 0.174701
0.824842 0.613519 0.174624
0.848035 0.602991 0.1729
0.865751 0.590829 0.170062
0.877806 0.574395 0.16231
0.887068 0.55555 0.153948
0.89221 0.53518 0.145113
0.895537 0.514687 0.13666
0.896086 0.494438 0.129656
0.89337 0.469749 0.121477
0.889998 0.445396 0.114061
0.885878 0.421653 0.107805
0.882597 0.408621 0.104753
0.880934 0.404257 0.103243
0.879301 0.399985 0.101778
0.648173 0.618067 0.117372
0.645701 0.616846 0.116915
0.642634 0.61532 0.116365
0.639567 0.613794 0.115801
0.634165 0.61062 0.11487
0.626749 0.606485 0.114214
0.607355 0.600732 0.112703
0.582498 0.5944 0.111025
0.548562 0.586007 0.108644
0.51931 0.578408 0.107408
0.495537 0.571817 0.107027
0.497002 0.571481 0.111162
0.512276 0.574456 0.116472
0.54139 0.581094 0.123201
0.576623 0.589044 0.130587
0.616678 0.598123 0.138613
0.658778 0.607477 0.149477
0.714473 0.618769 0.16202
0.773892 0.629984 0.175128
0.820859 0.635996 0.185595
0.848417 0.628 0.185687
0.866224 0.617136 0.183703
0.880323 0.604868 0.17969
0.891646 0.588556 0.171771
0.898848 0.571267 0.163409
0.903258 0.551858 0.154757
0.905211 0.532631 0.14667
0.904967 0.510552 0.137896
0.902052 0.485451 0.129229
0.89865 0.461463 0.121767
0.895338 0.441657 0.116152
0.893538 0.437034 0.114549
0.891798 0.432547 0.112993
0.694835 0.641276 0.125933
0.691859 0.639811 0.125383
0.688624 0.638209 0.124804
0.685206 0.636515 0.124178
0.680598 0.633707 0.123201
0.673365 0.629068 0.121767
0.658366 0.623346 0.119921
0.636652 0.617044 0.118151
0.602762 0.60853 0.11545
0.570733 0.600351 0.113848
0.543435 0.592996 0.11313
0.534676 0.59028 0.115846
0.538598 0.590585 0.120562
0.560937 0.595529 0.127489
0.590356 0.602167 0.134905
0.62591 0.610269 0.142641
0.663188 0.618784 0.152483
0.703365 0.627771 0.163378
0.755215 0.6374 0.175311
0.803555 0.645365 0.186816
0.846433 0.650584 0.196933
0.866056 0.641398 0.196216
0.881941 0.630365 0.193759
0.893507 0.618036 0.189029
0.902907 0.602594 0.181353
0.909621 0.585184 0.1729
0.912322 0.566903 0.165194
0.913817 0.54725 0.156512
0.91281 0.524254 0.146548
0.909972 0.499443 0.137224
0.90663 0.475685 0.129702
0.904799 0.468208 0.12694
0.903349 0.463951 0.125063
0.736416 0.662104 0.134783
0.733608 0.6607 0.134157
0.73051 0.659159 0.133471
0.727245 0.657526 0.132753
0.723568 0.655528 0.131838
0.716731 0.650843 0.129976
0.704967 0.645106 0.127779
0.68629 0.638621 0.125383
0.655879 0.63032 0.12253
0.622629 0.621744 0.120058
0.592874 0.613977 0.119265
0.576669 0.609415 0.12079
0.572076 0.607507 0.124285
0.58352 0.609827 0.131121
0.605646 0.614618 0.138384
0.635172 0.621195 0.146395
0.669078 0.629129 0.155444
0.705104 0.637278 0.165621
0.742718 0.645884 0.17702
0.790402 0.654566 0.188678
0.832425 0.660868 0.199573
0.8645 0.662562 0.208392
0.882429 0.653513 0.207721
0.894362 0.64242 0.204059
0.904738 0.630274 0.199084
0.912886 0.615274 0.191226
0.91812 0.599069 0.183413
0.920913 0.581506 0.175753
0.92163 0.560678 0.165301
0.920439 0.537591 0.154986
0.917556 0.513054 0.145281
0.91516 0.498314 0.140017
0.91371 0.494133 0.138186
0.776104 0.682094 0.143603
0.772931 0.680507 0.142901
0.769619 0.678843 0.142153
0.766369 0.677211 0.141436
0.762829 0.675425 0.140642
0.755474 0.670832 0.138308
0.745953 0.665385 0.136095
0.729458 0.658473 0.133135
0.704829 0.650401 0.130022
0.672862 0.641657 0.126986
0.641062 0.633158 0.125078
0.615167 0.6262 0.125017
0.605615 0.623178 0.127871
0.60972 0.623789 0.133333
0.623941 0.626978 0.140887
0.647593 0.63241 0.149172
0.676722 0.639033 0.157733
0.709209 0.646708 0.167651
0.742885 0.654795 0.178622
0.778485 0.663081 0.190173
0.819776 0.670146 0.201602
0.856855 0.674907 0.21207
0.880659 0.674083 0.220249
0.894835 0.664485 0.218631
0.905806 0.653178 0.21474
0.91342 0.640787 0.209842
0.920516 0.626291 0.202502
0.924041 0.610559 0.19527
0.926146 0.592142 0.18584
0.926802 0.571176 0.174838
0.926162 0.549004 0.164172
0.92401 0.527016 0.154604
0.922957 0.523201 0.152438
0.808255 0.699138 0.152422
0.805539 0.697673 0.151644
0.802625 0.696117 0.15082
0.799542 0.694469 0.149935
0.796338 0.692744 0.149035
0.790188 0.689052 0.146685
0.78265 0.684184 0.144167
0.768231 0.677424 0.141024
0.749157 0.670024 0.137804
0.72076 0.661036 0.134218
0.689876 0.652323 0.13167
0.659205 0.643946 0.130037
0.641718 0.638941 0.131746
0.636469 0.637079 0.135622
0.646418 0.639261 0.142275
0.661707 0.642969 0.150546
0.685374 0.648524 0.159075
0.714275 0.655436 0.168505
0.745098 0.662928 0.178943
0.776425 0.670924 0.190799
0.81033 0.679011 0.202976
0.848737 0.685557 0.214313
0.873045 0.686564 0.223941
0.894774 0.684993 0.231708
0.906096 0.675044 0.22948
0.914916 0.663767 0.225711
0.921782 0.651423 0.220905
0.926131 0.637186 0.214237
0.929168 0.62118 0.206577
0.930526 0.601678 0.195789
0.931121 0.581018 0.18497
0.930434 0.558877 0.174334
0.929244 0.549935 0.169818
0.838483 0.715114 0.161044
0.835615 0.713588 0.160235
0.832334 0.711833 0.159304
0.828916 0.710018 0.158343
0.825452 0.708171 0.157366
0.820325 0.705303 0.155428
0.811994 0.700267 0.151904
0.801266 0.694087 0.148577
0.786145 0.687068 0.14522
0.762097 0.67837 0.141299
0.733318 0.66952 0.137942
0.702647 0.66096 0.135637
0.678447 0.654383 0.135729
0.664591 0.650401 0.138155
0.668986 0.651164 0.143816
0.680461 0.65391 0.15108
0.697536 0.658351 0.160021
0.722255 0.664561 0.16939
0.750744 0.671534 0.179171
0.777707 0.678676 0.190845
0.808087 0.686564 0.202914
0.839673 0.694636 0.215778
0.867918 0.698177 0.226642
0.888975 0.698375 0.236255
0.906081 0.695369 0.243412
0.916259 0.685237 0.241169
0.922881 0.673869 0.237568
0.92813 0.661707 0.233051
0.931655 0.647776 0.226627
0.933684 0.630594 0.21706
0.934936 0.611307 0.206104
0.935454 0.59086 0.195331
0.93518 0.57641 0.187716
0.861357 0.728618 0.168917
0.858854 0.727123 0.168032
0.856275 0.725567 0.167117
0.853651 0.72398 0.166186
0.850889 0.722316 0.165225
0.848096 0.720684 0.164263
0.839765 0.715618 0.160235
0.830625 0.710094 0.15642
0.818677 0.70338 0.152651
0.798779 0.695201 0.148684
0.773968 0.68632 0.144686
0.745007 0.677623 0.141649
0.716442 0.669642 0.140154
0.695537 0.66392 0.14136
0.689021 0.661982 0.145113
0.695781 0.663417 0.151278
0.708843 0.667018 0.159686
0.726757 0.671733 0.168811
0.752056 0.678157 0.178592
0.778637 0.685481 0.190112
0.80589 0.693034 0.202396
0.835599 0.701152 0.21529
0.864729 0.708751 0.228443
0.883558 0.710033 0.239063
0.901289 0.708949 0.247974
0.916793 0.705287 0.254795
0.924407 0.695277 0.253132
0.930373 0.68394 0.249775
0.933806 0.672267 0.246006
0.936522 0.65742 0.238224
0.938079 0.639948 0.227909
0.939605 0.621286 0.217456
0.940169 0.601434 0.206973
0.882643 0.741375 0.176608
0.880018 0.739788 0.175647
0.877256 0.738125 0.174655
0.874495 0.736461 0.173648
0.871824 0.734874 0.172686
0.868971 0.733166 0.171649
0.86183 0.728985 0.168246
0.853407 0.723796 0.164172
0.84123 0.716594 0.159457
0.82829 0.709697 0.155627
0.807568 0.701503 0.151476
