public/luts/Alen Palander - Los Angeles.cube
TITLE "Generated by Resolve"
LUT_3D_SIZE 9
0.021149 0.0229343 0.0231174
0.11519 0.0293431 0.0239872
0.229114 0.0321202 0.0247807
0.301122 0.030457 0.0251316
0.371771 0.0293278 0.0261234
0.450263 0.0286412 0.0273289
0.531121 0.0290837 0.0288701
0.608865 0.0306096 0.0314031
0.686015 0.0338293 0.03682
0.0254673 0.0899977 0.0250706
0.142855 0.111208 0.0248722
0.280339 0.127169 0.0265049
0.39939 0.141527 0.0291752
0.487465 0.14638 0.0311894
0.566613 0.149126 0.0331884
0.637812 0.143481 0.0346838
0.705165 0.137774 0.0360723
0.775891 0.150851 0.0403296
0.0517281 0.200641 0.0258793
0.227085 0.242893 0.0274205
0.366598 0.266209 0.0314946
0.484382 0.289174 0.0365454
0.577478 0.304906 0.0411536
0.656565 0.307088 0.0440681
0.726116 0.299199 0.0455482
0.789761 0.291066 0.0462348
0.849058 0.295399 0.0488746
0.100481 0.324681 0.0264897
0.295903 0.371084 0.0323491
0.448142 0.400229 0.0422217
0.548989 0.412879 0.0488136
0.638209 0.427344 0.055314
0.717021 0.43212 0.0595712
0.787045 0.425818 0.0614176
0.842908 0.412695 0.0606546
0.889998 0.404776 0.0599222
0.170459 0.434699 0.0313725
0.346349 0.471839 0.0401923
0.487526 0.496132 0.0522469
0.59147 0.508721 0.0611887
0.675135 0.517555 0.0671702
0.755505 0.524468 0.0723583
0.820081 0.520821 0.0740368
0.873884 0.509117 0.0729381
0.91812 0.497856 0.0710307
0.235737 0.528862 0.0381933
0.390082 0.556725 0.0487678
0.51838 0.57702 0.0607462
0.62414 0.59089 0.0713817
0.706874 0.59855 0.0780041
0.77966 0.604028 0.0826429
0.839857 0.598749 0.08336
0.890105 0.590021 0.0824598
0.936919 0.581888 0.0812238
0.270253 0.605295 0.0437934
0.427573 0.632471 0.0569924
0.550607 0.652827 0.0694743
0.651133 0.665873 0.0798352
0.730816 0.673594 0.0869764
0.799283 0.676707 0.0912795
0.855222 0.676249 0.0929274
0.90161 0.666682 0.0911727
0.948257 0.661662 0.0905623
0.25539 0.662867 0.044892
0.446036 0.698253 0.0621805
0.568002 0.718669 0.0750439
0.664652 0.731411 0.0850538
0.744411 0.739361 0.0924239
0.808499 0.744778 0.0974441
0.86331 0.745129 0.0995041
0.911284 0.744427 0.0998398
0.957473 0.740322 0.0992294
0.221164 0.708324 0.0434424
0.442573 0.753262 0.063508
0.568887 0.775998 0.0773632
0.661921 0.788983 0.0865492
0.743175 0.798581 0.0942702
0.810849 0.805936 0.100191
0.868009 0.8103 0.104021
0.91603 0.811521 0.105303
0.961532 0.811582 0.105364
0.0188144 0.0231174 0.089128
0.087068 0.0267643 0.103944
0.194324 0.0305333 0.112657
0.290822 0.0308232 0.114702
0.377539 0.0299687 0.112444
0.458412 0.0294499 0.112718
0.533608 0.029633 0.113313
0.606653 0.0306249 0.115251
0.684825 0.0343938 0.129702
0.0201572 0.101045 0.107332
0.122698 0.123598 0.123323
0.264439 0.109987 0.100465
0.35613 0.0924849 0.0845197
0.434424 0.0853285 0.0813001
0.510445 0.0800488 0.0797894
0.582162 0.0789197 0.0805219
0.660624 0.0883955 0.093019
0.759731 0.145678 0.145235
0.0341802 0.220859 0.12076
0.196017 0.280934 0.099733
0.415595 0.329671 0.106569
0.518166 0.310109 0.0934005
0.58616 0.282872 0.090837
0.641642 0.24828 0.0875868
0.697704 0.226139 0.0865797
0.757519 0.240101 0.0982071
0.836545 0.301915 0.162127
0.073991 0.338323 0.121813
0.260639 0.404974 0.0852369
0.471733 0.45127 0.102464
0.613825 0.471855 0.114382
0.685176 0.456123 0.112673
0.741207 0.427115 0.108125
0.786435 0.395636 0.103044
0.827955 0.387884 0.107271
0.875853 0.418128 0.165286
0.125032 0.438422 0.113787
0.299474 0.493645 0.0869917
0.491524 0.532387 0.104967
0.638498 0.558526 0.122637
0.73463 0.56524 0.130282
0.789258 0.544442 0.126726
0.834806 0.519692 0.121599
0.869551 0.502281 0.12018
0.899702 0.506569 0.162142
0.153292 0.51989 0.104723
0.314382 0.565255 0.090135
0.507012 0.603128 0.109483
0.650294 0.628321 0.126986
0.74992 0.641245 0.138277
0.815534 0.640391 0.141451
0.856901 0.618097 0.136095
0.894911 0.600168 0.132799
0.925414 0.593286 0.161868
0.147372 0.582513 0.0926223
0.291554 0.619196 0.090135
0.511177 0.663798 0.112062
0.651164 0.689479 0.128893
0.750332 0.703563 0.140551
0.820081 0.710109 0.147127
0.869139 0.710262 0.148272
0.910094 0.694408 0.145296
0.944045 0.681712 0.169451
0.128801 0.634165 0.0858473
0.282216 0.6692 0.0906233
0.498558 0.714031 0.112001
0.629129 0.737591 0.127001
0.730114 0.755062 0.138964
0.809766 0.767727 0.148013
0.868925 0.774258 0.153079
0.915511 0.775113 0.154055
0.956252 0.769131 0.179171
0.125597 0.687663 0.0849622
0.310094 0.728878 0.0974594
0.484581 0.765118 0.11812
0.599298 0.786114 0.134325
0.691066 0.803769 0.154513
0.777218 0.822644 0.174151
0.851759 0.837385 0.186969
0.911543 0.844648 0.191638
0.959213 0.845792 0.192309
0.0191653 0.0230106 0.162982
0.079118 0.0249027 0.184497
0.173495 0.0276951 0.191821
0.280446 0.0285191 0.202396
0.375982 0.0285191 0.207065
0.458671 0.0288396 0.208621
0.532815 0.0297704 0.209186
0.605753 0.0309606 0.210178
0.685557 0.0348211 0.221759
0.0222477 0.103883 0.202289
0.0738537 0.0899367 0.204868
0.220096 0.102937 0.229816
0.340536 0.090013 0.217197
0.431586 0.0831006 0.204868
0.507836 0.0792401 0.193332
0.579293 0.0788434 0.185504
0.663188 0.0919203 0.202304
0.768414 0.155886 0.252171
0.0259403 0.223606 0.245396
0.102388 0.278035 0.288411
0.289021 0.286488 0.276036
0.405722 0.266011 0.248005
0.496345 0.238453 0.220111
0.571923 0.207538 0.195163
0.63978 0.179065 0.176913
0.724773 0.20531 0.201129
0.835431 0.30779 0.283436
0.035584 0.336202 0.264866
0.143587 0.401846 0.275563
0.347189 0.421195 0.260548
0.512352 0.453513 0.280797
0.604181 0.435691 0.245335
0.676707 0.406149 0.215915
0.741939 0.372702 0.195804
0.808988 0.378927 0.224979
0.876493 0.433127 0.307286
0.0587015 0.433677 0.268116
0.189364 0.490593 0.229831
0.386267 0.513054 0.219837
0.549111 0.549279 0.250111
0.672404 0.563607 0.255009
0.743648 0.541848 0.223346
0.79942 0.510658 0.2
0.848051 0.499947 0.223484
0.893797 0.523125 0.306493
0.094255 0.522591 0.253101
0.197986 0.554498 0.175067
0.385504 0.579171 0.170535
0.56585 0.619364 0.203769
0.694118 0.645914 0.229877
0.789746 0.652003 0.232166
0.843259 0.625849 0.205707
0.881712 0.604456 0.219776
0.914473 0.607111 0.300725
0.123659 0.597894 0.225177
0.182712 0.603159 0.144564
0.363424 0.63122 0.142977
0.561975 0.674525 0.168704
0.694835 0.703441 0.195712
0.798672 0.727581 0.219837
0.865599 0.732891 0.223011
0.905989 0.710445 0.229648
0.93904 0.698558 0.30631
0.126787 0.657115 0.194614
0.197635 0.660563 0.147448
0.3626 0.685939 0.143435
0.545678 0.726131 0.166461
0.671946 0.75465 0.194278
0.778912 0.782727 0.229969
0.860731 0.800809 0.248798
0.91397 0.804303 0.25124
0.954803 0.791608 0.320745
0.124056 0.70927 0.179828
0.246448 0.73109 0.17496
0.390829 0.755138 0.178531
0.526665 0.786694 0.216709
0.639094 0.812665 0.256641
0.74255 0.838514 0.302785
0.833722 0.857908 0.329397
0.906554 0.869535 0.335683
0.957885 0.871321 0.335058
0.0198215 0.0225071 0.229435
0.0757153 0.024506 0.248615
0.15758 0.0263676 0.258396
0.255634 0.0274815 0.259205
0.357748 0.0276951 0.270726
0.44741 0.0280003 0.280598
0.527962 0.0293126 0.286168
0.604547 0.0311284 0.289265
0.685985 0.0349889 0.299153
0.0237736 0.10544 0.282673
0.068452 0.0776837 0.270115
0.163088 0.0849012 0.286763
0.308141 0.0879835 0.30454
0.417121 0.0822309 0.303258
0.503761 0.0790265 0.297841
0.578912 0.0793317 0.288869
0.664073 0.0918593 0.298054
0.769604 0.157748 0.332937
0.0263676 0.221469 0.331838
0.0776226 0.235065 0.361807
0.193774 0.233356 0.34107
0.36669 0.256825 0.361959
0.47361 0.234699 0.34464
0.559106 0.204791 0.32221
0.64062 0.184436 0.301808
0.735378 0.219852 0.318761
0.837003 0.312047 0.36788
0.03093 0.333043 0.37232
0.0932174 0.389059 0.423484
0.255634 0.411963 0.406821
0.426307 0.421912 0.404395
0.526268 0.405844 0.381537
0.616754 0.382269 0.353964
0.703334 0.354971 0.327611
0.788678 0.356619 0.329946
0.867475 0.429099 0.39263
0.0375525 0.426062 0.38146
0.10547 0.478264 0.401083
0.278508 0.50779 0.397055
0.460212 0.526787 0.400046
0.59881 0.550515 0.416922
0.68719 0.536233 0.38674
0.762631 0.512123 0.355352
0.836057 0.501152 0.354406
0.88838 0.528389 0.409415
0.0538186 0.514214 0.37818
0.12903 0.557473 0.358175
0.290959 0.582727 0.346609
0.472999 0.605737 0.35552
0.619181 0.638422 0.394629
0.738994 0.653407 0.401831
0.809583 0.630686 0.36231
0.865858 0.607691 0.351293
0.907317 0.618463 0.415396
0.0771191 0.595422 0.360418
0.145159 0.620768 0.308568
0.281056 0.639094 0.271534
0.459892 0.663401 0.272541
0.62182 0.703349 0.331579
0.749065 0.733089 0.375402
0.84596 0.745937 0.380194
0.898116 0.720104 0.36321
0.932296 0.712291 0.429068
0.0856641 0.660395 0.335378
0.167361 0.678737 0.2869
0.291737 0.694697 0.250813
0.442679 0.713008 0.234379
0.605127 0.754345 0.286275
0.73756 0.790204 0.349966
0.8439 0.815976 0.383246
0.91107 0.823133 0.385382
0.952377 0.804456 0.44802
0.0997635 0.721614 0.316548
0.203952 0.745083 0.318029
0.332616 0.766629 0.31635
0.474235 0.792264 0.333288
0.6 0.821469 0.379156
0.719051 0.848905 0.422873
0.821027 0.870298 0.451591
0.902937 0.883955 0.4589
0.958465 0.887388 0.460853
0.0208896 0.0227665 0.297627
0.0728161 0.0241398 0.308049
0.142596 0.0257725 0.316442
0.234379 0.0265202 0.318135
0.337026 0.0268101 0.332708
0.434699 0.0270695 0.347753
0.520897 0.0284886 0.35613
0.600015 0.0306554 0.36025
0.682048 0.0343023 0.368368
0.0248569 0.104585 0.357259
0.0687419 0.0745098 0.337163
0.133227 0.0776379 0.341176
0.253681 0.0805982 0.357794
0.39527 0.0810101 0.386862
0.492546 0.0781872 0.382879
0.573037 0.0786297 0.374121
0.658457 0.0887007 0.377859
0.758816 0.147951 0.396704
0.0271305 0.221012 0.409537
0.073518 0.206577 0.425483
0.141634 0.193561 0.389425
0.288533 0.214969 0.40827
0.441672 0.229343 0.431113
0.54403 0.204166 0.416587
0.630961 0.179767 0.395651
0.727077 0.213672 0.39855
0.824491 0.300755 0.425772
0.0307164 0.329763 0.450324
0.0802777 0.353368 0.490364
0.179797 0.36672 0.467765
0.334127 0.374792 0.460761
0.490364 0.397543 0.476661
0.592279 0.376608 0.457053
0.686931 0.34876 0.429419
0.7841 0.356786 0.42266
0.854658 0.419867 0.456001
0.0344701 0.422599 0.47776
0.0840009 0.45742 0.518776
0.202533 0.49482 0.509392
0.391135 0.518318 0.507622
0.533196 0.527672 0.509377
0.62829 0.513619 0.487892
0.721935 0.494987 0.461311
0.813458 0.486503 0.448142
0.875532 0.521599 0.480705
0.039353 0.50576 0.475578
0.0869001 0.531609 0.490364
0.184771 0.563928 0.485817
0.381994 0.601312 0.49836
0.553201 0.618311 0.505928
0.684993 0.639582 0.522362
0.771328 0.624231 0.491798
0.846906 0.60827 0.470832
0.89604 0.619577 0.501259
0.0465705 0.580316 0.464607
0.0906233 0.597604 0.45922
0.181628 0.628641 0.444526
0.353658 0.664408 0.452735
0.552392 0.694697 0.470024
0.700282 0.727016 0.509514
0.817136 0.744656 0.519417
0.882628 0.724575 0.493278
0.920897 0.717586 0.52549
0.047837 0.643793 0.449165
0.107958 0.667948 0.436591
0.207065 0.695125 0.420829
0.353353 0.724743 0.414069
0.533532 0.753491 0.4177
0.694514 0.793027 0.477684
0.822278 0.821714 0.512749
0.906661 0.832807 0.520211
0.94522 0.811826 0.551125
0.0551003 0.70663 0.435279
0.140398 0.739284 0.438209
0.262272 0.769162 0.450858
0.426581 0.803067 0.472541
0.565316 0.828443 0.490135
0.694362 0.855741 0.526848
0.807919 0.87837 0.553445
0.896437 0.893874 0.564736
0.957702 0.899519 0.571496
0.0218357 0.0230869 0.36553
0.0704814 0.0238651 0.367269
0.132494 0.0254215 0.373434
0.215259 0.0258946 0.379614
0.315938 0.0260929 0.394293
0.420462 0.0265202 0.415427
0.513405 0.0278172 0.426917
0.594705 0.0300908 0.428656
0.672618 0.033463 0.431937
0.0260166 0.10634 0.431189
0.0697795 0.0731518 0.400748
0.120012 0.0734874 0.393774
0.210468 0.0763561 0.411307
0.341878 0.0771496 0.439826
0.474083 0.0770886 0.462974
0.562448 0.0778668 0.455238
0.644038 0.0855421 0.449622
0.743191 0.137652 0.462318
0.0281376 0.220493 0.483803
0.073991 0.189914 0.486259
0.120516 0.166155 0.442206
0.221149 0.182712 0.45333
0.372213 0.196658 0.479896
0.515969 0.201816 0.501015
0.608942 0.172137 0.478752
0.702815 0.196368 0.471061
0.804166 0.287678 0.490272
0.0312047 0.326986 0.523842
0.0772564 0.326314 0.548943
0.131487 0.31725 0.519417
0.238911 0.324361 0.504799
0.408591 0.351659 0.52459
0.555474 0.368383 0.542046
0.65771 0.337438 0.514336
0.75697 0.338338 0.494575
0.836988 0.410529 0.51873
0.0337072 0.4159 0.552728
0.0800793 0.425681 0.583017
0.1458 0.448844 0.571023
0.287938 0.478264 0.566659
0.448615 0.488136 0.562173
0.592432 0.506783 0.575616
0.693858 0.486152 0.550484
0.788617 0.471717 0.52398
0.85713 0.513909 0.54699
0.0355535 0.491951 0.568475
0.0812543 0.500313 0.593179
0.142504 0.535195 0.58912
0.293309 0.583963 0.598871
0.490196 0.609812 0.602426
0.628046 0.620417 0.604913
0.724269 0.606195 0.580484
0.811902 0.590417 0.554009
0.881712 0.612177 0.570352
0.0371405 0.564431 0.555611
0.0810101 0.565713 0.568597
0.132937 0.588785 0.564538
0.242298 0.640742 0.576181
0.464714 0.691096 0.594965
0.641428 0.709026 0.602625
0.771908 0.729732 0.618189
0.853117 0.716091 0.592584
0.907927 0.714122 0.603326
0.0369726 0.623056 0.540764
0.0835737 0.632532 0.543099
0.143511 0.662516 0.543359
0.244556 0.707042 0.551629
0.448005 0.759274 0.5738
0.63917 0.787427 0.587488
0.787396 0.81799 0.618814
0.892073 0.834684 0.632914
0.9346 0.813886 0.638071
0.0380407 0.67985 0.527062
0.0979629 0.711788 0.534615
0.188861 0.753857 0.552377
0.356085 0.803647 0.583047
0.523095 0.836957 0.607172
0.661265 0.859342 0.619364
0.784543 0.882795 0.641611
0.885893 0.900236 0.659205
0.955093 0.907546 0.668147
0.0229191 0.0237278 0.430671
0.0690013 0.0238041 0.423926
0.123903 0.0251011 0.429938
0.19939 0.0261234 0.43975
0.293294 0.0263066 0.456565
0.397513 0.0264897 0.476387
0.500038 0.0271916 0.493004
0.587472 0.0295262 0.497932
0.666606 0.0331884 0.498573
0.0273899 0.107958 0.501534
0.0705577 0.0731365 0.460929
0.115404 0.0722515 0.446693
0.178973 0.0749523 0.462715
0.288411 0.0762188 0.487572
0.414572 0.076051 0.510369
0.538445 0.0764935 0.527657
0.631174 0.085069 0.523552
0.724529 0.129763 0.529747
0.0296025 0.223362 0.555383
0.0748608 0.18143 0.542199
0.11809 0.147601 0.497047
0.174121 0.155169 0.501122
0.292988 0.172198 0.527306
0.445228 0.179171 0.553491
0.578424 0.174212 0.564508
0.677531 0.189853 0.553292
0.779492 0.274754 0.564843
0.0315862 0.324285 0.59057
0.0771038 0.311818 0.602213
0.121218 0.278309 0.569711
0.174624 0.27303 0.548577
0.298634 0.304173 0.568811
0.470039 0.326604 0.593744
0.616342 0.333104 0.608881
0.722347 0.326192 0.584878
0.812192 0.403433 0.596628
0.0336004 0.407126 0.615793
0.0794995 0.406027 0.634455
0.124849 0.39968 0.621149
0.193469 0.416693 0.613794
0.328252 0.435721 0.610407
0.505226 0.462776 0.627848
0.650416 0.476677 0.641489
0.755566 0.464652 0.616388
0.834592 0.512261 0.62475
0.0348363 0.476112 0.632776
0.081239 0.478538 0.651362
0.128389 0.494972 0.651179
0.208423 0.535927 0.656626
0.380362 0.572534 0.663279
0.547295 0.583413 0.659144
0.68867 0.600275 0.671183
0.7823 0.585763 0.643137
0.860716 0.609827 0.650324
0.0355688 0.541695 0.637919
0.0813001 0.539971 0.652476
0.128618 0.559976 0.65922
0.195178 0.608347 0.674601
0.365988 0.669749 0.693401
0.581247 0.701595 0.700542
0.726879 0.715465 0.703288
0.818204 0.695827 0.668833
0.897154 0.704417 0.674052
0.0356603 0.605081 0.624125
0.0813611 0.608286 0.632853
0.129732 0.628367 0.644343
0.189242 0.667292 0.658839
0.340612 0.739208 0.685008
0.571084 0.789975 0.704906
0.73402 0.804791 0.701823
0.867185 0.826429 0.722271
0.928542 0.811749 0.715251
0.0354009 0.660197 0.60795
0.0850385 0.681971 0.620295
0.146532 0.720867 0.639582
0.280339 0.781979 0.671733
0.460044 0.83621 0.703044
0.628336 0.868421 0.720546
0.750927 0.882658 0.722637
0.867124 0.902129 0.7411
0.950866 0.912047 0.754101
0.0241093 0.0248112 0.494057
0.0688182 0.0242313 0.479835
0.117937 0.0248417 0.484489
0.183291 0.0263371 0.498512
0.270848 0.0270695 0.514824
0.368765 0.0274205 0.53167
0.468788 0.027512 0.547845
0.571389 0.0284733 0.562463
0.658427 0.0328527 0.566659
0.0283055 0.10956 0.564477
0.0721599 0.0802777 0.527306
0.117144 0.07953 0.51696
0.170962 0.0855268 0.529595
0.268223 0.0892042 0.551919
0.381262 0.0886702 0.568399
0.492927 0.0869154 0.583535
0.608438 0.0866712 0.595712
0.709697 0.132082 0.603159
0.0307774 0.225177 0.618448
0.075288 0.187366 0.595911
0.119112 0.158175 0.565164
0.166339 0.166064 0.570153
0.25481 0.188235 0.593393
0.395178 0.201328 0.616663
0.527794 0.203723 0.63386
0.647257 0.197711 0.641505
0.75494 0.276326 0.650233
0.0319829 0.324758 0.652155
0.0771191 0.302678 0.646601
0.121828 0.274571 0.625422
0.166857 0.257191 0.606958
0.238041 0.285359 0.624567
0.387915 0.313146 0.649317
0.548424 0.328527 0.673014
0.683055 0.332738 0.687434
0.787488 0.402823 0.684398
0.0336767 0.401465 0.673121
0.0788739 0.393164 0.677134
0.123537 0.380346 0.666468
0.171878 0.380575 0.66212
0.240146 0.390204 0.658946
0.39173 0.425498 0.679469
0.569909 0.446677 0.699535
0.714229 0.460945 0.717739
0.813993 0.511528 0.709484
0.0350195 0.466011 0.687037
0.0808118 0.466957 0.695979
0.126635 0.474342 0.697612
0.181247 0.496818 0.704997
0.279652 0.525643 0.712505
0.42681 0.541604 0.712901
0.609491 0.567041 0.729351
0.745266 0.579217 0.742367
0.843748 0.611124 0.733837
0.0357671 0.52636 0.694728
0.0819409 0.532341 0.706523
0.128756 0.550088 0.714824
0.185504 0.587488 0.730053
0.303563 0.63801 0.747906
0.495705 0.672679 0.763058
0.652598 0.68098 0.761028
0.791684 0.694911 0.773938
0.884504 0.705516 0.761013
0.0357366 0.58468 0.695079
0.0815747 0.587686 0.706767
0.12929 0.608789 0.720394
0.180362 0.641611 0.735485
0.274952 0.708629 0.760815
0.488991 0.776287 0.789075
0.68043 0.805188 0.806027
0.836942 0.813947 0.804929
0.925231 0.808118 0.795163
0.0356146 0.646021 0.682673
0.0838483 0.665202 0.701701
0.136385 0.697444 0.724926
0.229648 0.755108 0.7514
0.397421 0.820874 0.781598
0.590326 0.869093 0.805432
0.726864 0.888716 0.815991
0.838849 0.897368 0.814404
0.945144 0.91313 0.828473
0.0256657 0.0282139 0.559701
0.0701457 0.0268864 0.542519
0.116854 0.0285191 0.548119
0.178515 0.0307622 0.564248
0.259205 0.0315251 0.578302
0.349874 0.031281 0.590768
0.443748 0.0314031 0.604212
0.540017 0.0308995 0.616709
0.639139 0.0315251 0.628504
0.0290074 0.117327 0.624475
0.0734874 0.106676 0.604685
0.119188 0.109972 0.605081
0.173907 0.125414 0.619348
0.269245 0.138949 0.637263
0.380468 0.14345 0.652399
0.488823 0.144183 0.664164
0.587716 0.141253 0.672938
0.686641 0.138735 0.679545
0.0313573 0.229877 0.675349
0.0760052 0.211383 0.657862
0.121035 0.207309 0.651423
0.173159 0.223758 0.661631
0.257252 0.246342 0.677592
0.386069 0.264073 0.695033
0.514214 0.275013 0.712215
0.626444 0.28188 0.727214
0.729381 0.281941 0.734997
0.0322423 0.32398 0.705562
0.0772412 0.307012 0.693904
0.123812 0.308522 0.692592
0.179538 0.320989 0.6972
0.263935 0.345403 0.710689
0.39379 0.368048 0.726497
0.532906 0.382269 0.741741
0.649378 0.391791 0.75639
0.761105 0.402014 0.76965
0.0337987 0.396735 0.725078
0.0788739 0.391745 0.71989
0.128161 0.404211 0.725078
0.195941 0.427024 0.735485
0.28716 0.444541 0.742657
0.422858 0.470588 0.758419
0.564279 0.485618 0.770901
0.677302 0.494011 0.781231
0.7888 0.505348 0.795453
0.0351415 0.460502 0.738308
0.0811627 0.467613 0.73962
0.134142 0.49575 0.75198
0.218158 0.527581 0.766339
0.333165 0.552819 0.779782
0.46067 0.569131 0.788373
0.603098 0.587686 0.80119
0.715511 0.596613 0.810864
0.818524 0.604196 0.82031
0.0360266 0.520882 0.746807
0.0830091 0.537469 0.753964
0.138552 0.575601 0.771099
0.23505 0.618692 0.789807
0.373404 0.654978 0.8103
0.521141 0.676234 0.82356
0.639765 0.682963 0.829313
0.761334 0.696696 0.842023
0.863462 0.705226 0.850843
0.0362402 0.576226 0.750072
0.0837873 0.59765 0.761929
0.13753 0.636759 0.780148
0.228519 0.687877 0.800824
0.374273 0.736843 0.824796
0.545495 0.771862 0.845899
0.683299 0.789242 0.860548
0.801556 0.799252 0.86891
0.912566 0.809262 0.879896
0.0357366 0.627802 0.747677
0.0834821 0.649638 0.764035
0.133379 0.682994 0.780362
0.207889 0.738079 0.803082
0.35613 0.806607 0.833082
0.547112 0.861784 0.862089
0.702998 0.886961 0.882612
0.834104 0.903319 0.898344
0.946685 0.923751 0.918654
