public/luts/Alen Palander - Arizona.cube
TITLE "Generated by Resolve"
LUT_3D_SIZE 5
0.0189212 0.02916 0.0252232
0.0723888 0.0640269 0.0548409
0.150607 0.0890211 0.0676127
0.28333 0.113466 0.076112
0.435492 0.129809 0.0840009
0.043183 0.12311 0.0983749
0.148135 0.162737 0.119402
0.292149 0.207675 0.140841
0.450996 0.245808 0.156756
0.598505 0.27335 0.169574
0.0425116 0.268971 0.184558
0.255741 0.332296 0.209186
0.447745 0.396719 0.235309
0.628992 0.459739 0.270069
0.777752 0.521385 0.309468
0.163989 0.49958 0.307576
0.445014 0.596963 0.353902
0.673854 0.684886 0.414023
0.843229 0.760693 0.478264
0.939391 0.81767 0.552132
0.452827 0.764553 0.525719
0.722271 0.845563 0.606806
0.882994 0.899672 0.681422
0.96466 0.933211 0.751934
0.994965 0.956298 0.818173
0.0229038 0.0478523 0.0619974
0.0738994 0.0726177 0.09514
0.168566 0.101411 0.127214
0.307271 0.126284 0.15491
0.460731 0.144884 0.178714
0.0119783 0.140673 0.163348
0.152544 0.18407 0.201556
0.306325 0.228992 0.236027
0.468025 0.266026 0.265415
0.618097 0.297841 0.296025
0.020676 0.299657 0.282872
0.264454 0.367819 0.324285
0.464164 0.434897 0.364309
0.648951 0.499367 0.408042
0.795697 0.565454 0.45623
0.119356 0.546471 0.436377
0.458473 0.644266 0.496147
0.694713 0.731991 0.558267
0.855344 0.802777 0.621714
0.946273 0.856764 0.686305
0.475898 0.804746 0.656031
0.741482 0.879469 0.729686
0.89276 0.9252 0.791547
0.965606 0.953841 0.848585
0.993851 0.972976 0.897337
0.0165408 0.0624704 0.104433
0.0720226 0.0821698 0.157336
0.182971 0.11249 0.20267
0.328405 0.139574 0.242878
0.481147 0.15877 0.275486
0.0155337 0.165164 0.235279
0.154711 0.206622 0.293675
0.320989 0.252171 0.336278
0.488396 0.291371 0.374228
0.637095 0.325292 0.409567
0.0204929 0.332067 0.37612
0.267277 0.405463 0.435309
0.483452 0.474952 0.483452
0.66836 0.538994 0.528435
0.811658 0.608423 0.580011
0.0709697 0.590707 0.550744
0.477333 0.688014 0.61355
0.715908 0.774502 0.674769
0.870115 0.838239 0.734722
0.952636 0.889464 0.789944
0.508019 0.839918 0.76144
0.761379 0.906661 0.824155
0.904967 0.945983 0.872465
0.968612 0.968597 0.91284
0.993301 0.983093 0.94406
0.0124208 0.0823529 0.154055
0.0705272 0.0947127 0.235721
0.197436 0.123751 0.288289
0.351812 0.153277 0.335561
0.501732 0.172961 0.372915
0.0118868 0.194278 0.31078
0.151858 0.229664 0.386709
0.337972 0.276432 0.433829
0.510094 0.317143 0.475135
0.654276 0.352102 0.511437
0.0314488 0.3673 0.458762
0.26746 0.439536 0.534813
0.501854 0.511513 0.586419
0.68893 0.57911 0.633433
0.82829 0.648554 0.684871
0.107683 0.63035 0.64802
0.500816 0.72781 0.713008
0.73727 0.810285 0.771939
0.884184 0.868772 0.822644
0.956436 0.91162 0.86743
0.549081 0.869825 0.842725
0.784848 0.926421 0.890227
0.91516 0.961028 0.926741
0.972488 0.978851 0.951858
0.993652 0.988724 0.969802
0.0052491 0.106188 0.214939
0.0716411 0.108568 0.316625
0.214679 0.135729 0.374807
0.374762 0.166995 0.424018
0.522148 0.186358 0.462425
0.00424201 0.222049 0.382208
0.150881 0.251835 0.471473
0.355978 0.29984 0.522835
0.529061 0.341711 0.564431
0.671977 0.379004 0.601312
0.0240787 0.401373 0.537346
0.268803 0.471473 0.623056
0.522393 0.546593 0.675746
0.71223 0.618372 0.724575
0.845685 0.686717 0.77232
0.15642 0.667887 0.730404
0.529885 0.765438 0.795468
0.759274 0.840131 0.846906
0.897734 0.895811 0.887755
0.961166 0.930144 0.920943
0.582132 0.891554 0.898238
0.808484 0.942046 0.934249
0.924804 0.970245 0.959182
0.97583 0.985489 0.974166
0.994614 0.992691 0.984787
