public/luts/Alen Palander - Arizona.cube
TITLE "Generated by Resolve"
LUT_3D_SIZE 9
0.0189212 0.02916 0.0252232
0.044007 0.0507973 0.0453193
0.0723888 0.0640269 0.0548409
0.106035 0.076051 0.0608377
0.150607 0.0890211 0.0676127
0.208972 0.102083 0.0727703
0.28333 0.113466 0.076112
0.358862 0.122271 0.0778515
0.435492 0.129809 0.0840009
0.037644 0.0792401 0.0687572
0.0670939 0.0908675 0.0763867
0.107164 0.10573 0.0846265
0.155138 0.122316 0.091783
0.218479 0.140764 0.0997177
0.293202 0.158633 0.107439
0.368765 0.17319 0.114839
0.446784 0.18555 0.120302
0.518715 0.194675 0.124987
0.043183 0.12311 0.0983749
0.0900587 0.14226 0.108125
0.148135 0.162737 0.119402
0.216892 0.18555 0.130541
0.292149 0.207675 0.140841
0.370382 0.228199 0.149096
0.450996 0.245808 0.156756
0.527413 0.260578 0.162921
0.598505 0.27335 0.169574
0.0514382 0.186007 0.140581
0.120211 0.210086 0.151339
0.199039 0.23563 0.162646
0.27895 0.263035 0.172519
0.365545 0.289769 0.181827
0.451316 0.314565 0.191882
0.534447 0.337545 0.203464
0.612696 0.360006 0.21799
0.682277 0.380911 0.232624
0.0425116 0.268971 0.184558
0.139162 0.30016 0.195773
0.255741 0.332296 0.209186
0.352682 0.364508 0.221424
0.447745 0.396719 0.235309
0.541436 0.428855 0.251728
0.628992 0.459739 0.270069
0.709041 0.490517 0.288624
0.777752 0.521385 0.309468
0.0687724 0.373556 0.239155
0.214786 0.415976 0.254551
0.337301 0.45568 0.271244
0.446967 0.494865 0.287968
0.551537 0.533288 0.30898
0.649165 0.57142 0.332616
0.738796 0.609796 0.359106
0.814588 0.647684 0.385855
0.870649 0.681636 0.419501
0.163989 0.49958 0.307576
0.307317 0.549569 0.328008
0.445014 0.596963 0.353902
0.565576 0.642298 0.383062
0.673854 0.684886 0.414023
0.767391 0.724453 0.445853
0.843229 0.760693 0.478264
0.89929 0.790753 0.513939
0.939391 0.81767 0.552132
0.260884 0.639002 0.400671
0.445762 0.691447 0.435615
0.583383 0.738582 0.472328
0.698146 0.778958 0.506722
0.792142 0.814084 0.542046
0.866285 0.844038 0.579568
0.920501 0.868269 0.617319
0.955535 0.888426 0.652735
0.978149 0.907179 0.689906
0.452827 0.764553 0.525719
0.603998 0.807691 0.564218
0.722271 0.845563 0.606806
0.814115 0.876295 0.64564
0.882994 0.899672 0.681422
0.931426 0.917617 0.716777
0.96466 0.933211 0.751934
0.984039 0.945815 0.784863
0.994965 0.956298 0.818173
0.0223239 0.0392767 0.0424811
0.0456092 0.0561532 0.0614786
0.073518 0.068452 0.0738994
0.110002 0.0811322 0.0835737
0.159579 0.0950179 0.0931258
0.21976 0.108354 0.104311
0.295323 0.119844 0.11545
0.372 0.129488 0.1252
0.448585 0.137331 0.13254
0.0377508 0.083299 0.0872053
0.0649729 0.0961166 0.0978561
0.108049 0.112444 0.111254
0.161776 0.130648 0.125719
0.226383 0.149401 0.139406
0.303853 0.166766 0.151797
0.380362 0.181399 0.161593
0.457847 0.193973 0.17052
0.528817 0.20325 0.180179
0.0273136 0.131456 0.130037
0.0863966 0.151949 0.145693
0.150317 0.173251 0.159747
0.221988 0.195972 0.17258
0.300465 0.217929 0.185
0.379583 0.238056 0.198337
0.460182 0.255634 0.210513
0.536492 0.27129 0.223346
0.60827 0.285023 0.236072
0.0518044 0.196658 0.178119
0.116991 0.221927 0.19379
0.199969 0.248997 0.20885
0.284794 0.276936 0.224201
0.37145 0.304006 0.239048
0.458946 0.329244 0.254505
0.542794 0.352895 0.268696
0.621759 0.375448 0.284977
0.691341 0.397757 0.302296
0.0306859 0.283864 0.233738
0.136385 0.316472 0.251316
0.260349 0.350088 0.268116
0.358572 0.382498 0.283421
0.455589 0.415351 0.300221
0.550637 0.447471 0.319371
0.638758 0.479316 0.340612
0.718456 0.51136 0.362783
0.786725 0.543511 0.385855
0.0751049 0.392264 0.298131
0.219654 0.436179 0.317113
0.339467 0.476631 0.336858
0.453223 0.516457 0.358648
0.561181 0.555825 0.3832
0.660029 0.595148 0.409506
0.748043 0.633738 0.436744
0.82269 0.671778 0.465751
0.877089 0.705089 0.498741
0.142763 0.522362 0.37348
0.307439 0.57348 0.400443
0.450858 0.620935 0.428489
0.577066 0.666941 0.460044
0.68455 0.708949 0.490517
0.775296 0.747753 0.521401
0.849287 0.782864 0.553948
0.903853 0.811261 0.590036
0.942535 0.837888 0.624475
0.241962 0.663661 0.47364
0.453864 0.714855 0.508721
0.594537 0.760937 0.543511
0.708461 0.800534 0.578576
0.799466 0.834043 0.614298
0.871519 0.86186 0.648219
0.923506 0.884367 0.681712
0.957595 0.904143 0.71722
0.978668 0.921065 0.749599
0.461738 0.785641 0.595239
0.614527 0.827329 0.633295
0.731929 0.863218 0.671077
0.822126 0.892134 0.707378
0.886976 0.913237 0.741482
0.9337 0.929976 0.772839
0.964965 0.944289 0.804334
0.983474 0.955734 0.834897
0.994461 0.965362 0.861646
0.0229038 0.0478523 0.0619974
0.0439765 0.0608988 0.0818189
0.0738994 0.0726177 0.09514
0.113115 0.0863661 0.110765
0.168566 0.101411 0.127214
0.231083 0.114534 0.141344
0.307271 0.126284 0.15491
0.384787 0.136751 0.167117
0.460731 0.144884 0.178714
0.0315557 0.0887922 0.112367
0.0571603 0.1028 0.12961
0.108309 0.1205 0.146639
0.168383 0.139254 0.162371
0.234867 0.157321 0.178225
0.31281 0.174624 0.1944
0.389761 0.18941 0.209201
0.467124 0.20235 0.221897
0.538949 0.212589 0.235309
0.0119783 0.140673 0.163348
0.0779736 0.16199 0.182986
0.152544 0.18407 0.201556
0.226703 0.206973 0.218952
0.306325 0.228992 0.236027
0.385748 0.248753 0.251194
0.468025 0.266026 0.265415
0.545007 0.281865 0.28011
0.618097 0.297841 0.296025
0.0472725 0.208942 0.221759
0.110521 0.235279 0.241718
0.202625 0.263783 0.260166
0.29073 0.291417 0.276722
0.377325 0.317845 0.292943
0.466163 0.343481 0.310399
0.551766 0.367651 0.329091
0.631632 0.390845 0.347936
0.699657 0.414359 0.366461
0.020676 0.299657 0.282872
0.135256 0.333318 0.303792
0.264454 0.367819 0.324285
0.365667 0.401846 0.343679
0.464164 0.434897 0.364309
0.560204 0.467567 0.386053
0.648951 0.499367 0.408042
0.727504 0.531823 0.431022
0.795697 0.565454 0.45623
0.0771496 0.411841 0.354559
0.213504 0.457954 0.378195
0.343526 0.498787 0.402182
0.460777 0.53872 0.4262
0.572106 0.578546 0.452628
0.670741 0.617914 0.478447
0.757305 0.657282 0.506539
0.829969 0.694636 0.53611
0.883375 0.72723 0.569085
0.119356 0.546471 0.436377
0.292912 0.596719 0.465995
0.458473 0.644266 0.496147
0.587732 0.690105 0.527138
0.694713 0.731991 0.558267
0.783475 0.77052 0.590082
0.855344 0.802777 0.621714
0.909087 0.83032 0.653758
0.946273 0.856764 0.686305
0.259205 0.687053 0.538979
0.463004 0.737697 0.574502
0.605463 0.781689 0.608713
0.71899 0.819867 0.641886
0.808881 0.851926 0.675395
0.876905 0.878065 0.708721
0.926589 0.899626 0.740597
0.959197 0.917708 0.770565
0.979568 0.933227 0.800366
0.475898 0.804746 0.656031
0.624979 0.8448 0.692927
0.741482 0.879469 0.729686
0.830045 0.905943 0.760769
0.89276 0.9252 0.791547
0.936446 0.94139 0.822538
0.965606 0.953841 0.848585
0.98349 0.963897 0.872923
0.993851 0.972976 0.897337
0.0210574 0.0547646 0.0816663
0.0415656 0.0657511 0.106935
0.0725567 0.0771344 0.125475
0.115969 0.0915541 0.142962
0.175921 0.106508 0.160281
0.242115 0.120226 0.179416
0.318212 0.132998 0.198169
0.395651 0.143389 0.214115
0.470771 0.151827 0.227817
0.0215152 0.0959487 0.138201
0.0507973 0.109926 0.162402
0.108278 0.128649 0.184817
0.173617 0.147463 0.205142
0.241505 0.165209 0.223651
0.319814 0.182239 0.24181
0.397894 0.19733 0.25771
0.475792 0.210575 0.272099
0.547936 0.221561 0.286809
0.0114137 0.152605 0.199619
0.0765087 0.172976 0.22678
0.154574 0.195102 0.247303
0.23122 0.217105 0.265507
0.312215 0.23859 0.28275
0.393393 0.259297 0.302052
0.477058 0.277729 0.319326
0.554574 0.293523 0.336309
0.62771 0.311513 0.353811
0.0447395 0.22269 0.260868
0.101884 0.249516 0.288945
0.203387 0.278569 0.310063
0.297826 0.307576 0.330785
0.385504 0.335195 0.351385
0.476295 0.360525 0.371267
0.562005 0.384207 0.390127
0.641398 0.406561 0.40885
0.708431 0.4309 0.427619
0.0195315 0.315618 0.330144
0.137194 0.351293 0.358404
0.266011 0.386969 0.381613
0.372412 0.421836 0.403738
0.474311 0.455482 0.426261
0.570779 0.487724 0.44889
0.658946 0.519112 0.470237
0.736767 0.55285 0.494026
0.803693 0.587106 0.519982
0.0846265 0.431815 0.406577
0.206638 0.479286 0.437049
0.345037 0.520058 0.462409
0.469474 0.560647 0.488151
0.580972 0.600305 0.514244
0.681208 0.640497 0.541512
0.765881 0.680125 0.571099
0.836423 0.715984 0.601007
0.890211 0.74876 0.630991
0.0931868 0.568887 0.494926
0.300099 0.619272 0.526238
0.467384 0.667018 0.557702
0.59794 0.712169 0.589792
0.705455 0.753826 0.61915
0.793912 0.791165 0.650416
0.862791 0.821225 0.681682
0.914427 0.848493 0.712413
0.949813 0.873564 0.740337
0.283711 0.709529 0.599832
0.474083 0.757961 0.632837
0.615076 0.800366 0.665919
0.72929 0.837797 0.700114
0.817411 0.868132 0.730907
0.883253 0.892561 0.760494
0.929686 0.913069 0.790814
0.960754 0.930007 0.819135
0.980148 0.943542 0.842908
0.487617 0.822782 0.711955
0.637507 0.861479 0.746563
0.751476 0.893706 0.779232
0.837125 0.917967 0.809049
0.898711 0.936324 0.836118
0.940139 0.950668 0.86099
0.966949 0.962036 0.885191
0.983551 0.971054 0.905867
0.993576 0.978485 0.922499
0.0165408 0.0624704 0.104433
0.0378271 0.0714275 0.132128
0.0720226 0.0821698 0.157336
0.119249 0.0974289 0.180545
0.182971 0.11249 0.20267
0.25211 0.125902 0.223117
0.328405 0.139574 0.242878
0.406394 0.150271 0.259419
0.481147 0.15877 0.275486
0.00883497 0.105287 0.17261
0.0471046 0.120073 0.202136
0.108217 0.137499 0.227161
0.178424 0.155566 0.247837
0.249332 0.172717 0.267857
0.328054 0.190539 0.288701
0.407645 0.206546 0.307317
0.486076 0.220783 0.323903
0.558419 0.232792 0.340841
0.0155337 0.165164 0.235279
0.0755779 0.184741 0.267643
0.154711 0.206622 0.293675
0.235431 0.22887 0.314809
0.320989 0.252171 0.336278
0.403632 0.272496 0.355673
0.488396 0.291371 0.374228
0.565484 0.307668 0.392126
0.637095 0.325292 0.409567
0.0173495 0.236667 0.308141
0.0889906 0.264546 0.338293
0.202533 0.294209 0.362036
0.304921 0.323857 0.384527
0.395331 0.351553 0.406485
0.486931 0.377066 0.42739
0.571725 0.400137 0.446983
0.650721 0.422827 0.465415
0.717723 0.448371 0.484688
0.0204929 0.332067 0.37612
0.143557 0.368826 0.407095
0.267277 0.405463 0.435309
0.380163 0.44152 0.460258
0.483452 0.474952 0.483452
0.579217 0.506981 0.506065
0.66836 0.538994 0.528435
0.745464 0.573373 0.553185
0.811658 0.608423 0.580011
0.0731975 0.451118 0.457572
0.191226 0.49839 0.490883
0.350256 0.540429 0.518441
0.478309 0.581445 0.545403
0.590875 0.622126 0.572778
0.692302 0.662776 0.599557
0.776516 0.70193 0.628717
0.844404 0.736599 0.658091
0.896651 0.769131 0.687556
0.0709697 0.590707 0.550744
0.30454 0.641184 0.583139
0.477333 0.688014 0.61355
0.607248 0.732616 0.644358
0.715908 0.774502 0.674769
0.803693 0.810193 0.706661
0.870115 0.838239 0.734722
0.918776 0.864363 0.762066
0.952636 0.889464 0.789944
0.305486 0.730556 0.653574
0.484184 0.776898 0.6869
0.625406 0.818097 0.719188
0.739162 0.853773 0.750011
0.825742 0.882795 0.779736
0.889113 0.905928 0.808927
0.933394 0.924788 0.833799
0.962493 0.939925 0.857618
0.980407 0.952224 0.880903
0.508019 0.839918 0.76144
0.651194 0.877195 0.795224
0.761379 0.906661 0.824155
0.845136 0.928359 0.847776
0.904967 0.945983 0.872465
0.944076 0.959258 0.895766
0.968612 0.968597 0.91284
0.984146 0.976547 0.929412
0.993301 0.983093 0.94406
0.0128634 0.0707103 0.127886
0.0287327 0.0775158 0.167132
0.0706035 0.0888685 0.197131
0.123613 0.103227 0.221012
0.189303 0.117952 0.243809
0.262333 0.132052 0.266758
0.339971 0.146609 0.289311
0.417548 0.157595 0.308019
0.491508 0.166491 0.325567
0.00166323 0.116823 0.205127
0.0373236 0.130526 0.241398
0.108064 0.146273 0.270329
0.183719 0.164401 0.294179
0.257771 0.181689 0.315892
0.337713 0.200046 0.337636
0.418204 0.216251 0.356664
0.496941 0.231128 0.374609
0.56878 0.243275 0.391852
0.0129397 0.17908 0.274723
0.0547646 0.196521 0.314702
0.152834 0.218463 0.341497
0.241123 0.240726 0.363806
0.328237 0.263874 0.385687
0.41387 0.284886 0.406546
0.499443 0.304479 0.426017
0.575631 0.321355 0.443946
0.645655 0.339025 0.461631
0.00361639 0.252888 0.350072
0.0684977 0.279637 0.385611
0.200565 0.308766 0.411292
0.312413 0.3393 0.435294
0.404822 0.367468 0.45861
0.497124 0.392462 0.480262
0.581369 0.41532 0.500038
0.65977 0.439048 0.519142
0.72697 0.465812 0.539147
0.0248417 0.349477 0.418952
0.1364 0.385367 0.456733
0.267597 0.422965 0.486595
0.387808 0.4598 0.512947
0.492592 0.493385 0.536889
0.589105 0.526177 0.560464
0.678309 0.558801 0.58262
0.755749 0.593988 0.60766
0.819852 0.628702 0.63389
0.0627146 0.471092 0.505089
0.174868 0.517372 0.542748
0.355276 0.559945 0.571267
0.488075 0.601968 0.598291
0.60058 0.643229 0.625467
0.704143 0.684962 0.653147
0.786633 0.722698 0.683223
0.852018 0.756054 0.710353
0.901473 0.787762 0.736202
0.081651 0.611048 0.601038
0.321538 0.661616 0.634455
0.488182 0.708614 0.66598
0.617411 0.75259 0.69601
0.726772 0.793256 0.725124
0.813489 0.826474 0.754742
0.876951 0.853895 0.78204
0.923049 0.879637 0.807721
0.954574 0.901137 0.830533
0.32285 0.750439 0.704204
0.500679 0.795529 0.735943
0.638224 0.834867 0.766644
0.748531 0.868757 0.796475
0.833829 0.895872 0.822278
0.896223 0.917723 0.846754
0.937484 0.93521 0.870619
0.964187 0.948745 0.89134
0.98117 0.959594 0.908568
0.527321 0.856046 0.807034
0.667277 0.890364 0.834806
0.773083 0.917067 0.859663
0.852705 0.937896 0.882597
0.910506 0.954269 0.902617
0.947768 0.965713 0.919783
0.970657 0.97438 0.93579
0.984955 0.981338 0.948608
0.993439 0.986068 0.957992
0.0124208 0.0823529 0.154055
0.0232547 0.0850538 0.19968
0.0705272 0.0947127 0.235721
0.12874 0.109117 0.26363
0.197436 0.123751 0.288289
0.273747 0.138628 0.312825
0.351812 0.153277 0.335561
0.429282 0.16437 0.354818
0.501732 0.172961 0.372915
1.5259e-05 0.131579 0.236957
0.0390631 0.141833 0.281819
0.108583 0.154894 0.314641
0.187182 0.172641 0.339437
0.266056 0.190692 0.36228
0.347753 0.209659 0.384756
0.429267 0.226322 0.404425
0.507118 0.241474 0.422858
0.578546 0.253574 0.44062
0.0118868 0.194278 0.31078
0.0490578 0.208194 0.357046
0.151858 0.229664 0.386709
0.246601 0.252369 0.410666
0.337972 0.276432 0.433829
0.424643 0.297322 0.455253
0.510094 0.317143 0.475135
0.585885 0.334722 0.493599
0.654276 0.352102 0.511437
1.5259e-05 0.269047 0.388952
0.0712596 0.294743 0.429557
0.200977 0.322698 0.45832
0.317861 0.354238 0.484047
0.414923 0.382544 0.508156
0.507988 0.407889 0.531212
0.591379 0.431067 0.550362
0.669261 0.455802 0.569177
0.736965 0.48394 0.589837
0.0314488 0.3673 0.458762
0.134676 0.403143 0.502495
0.26746 0.439536 0.534813
0.395529 0.477073 0.56199
0.501854 0.511513 0.586419
0.598321 0.544976 0.609827
0.68893 0.57911 0.633433
0.766491 0.614404 0.659556
0.82829 0.648554 0.684871
0.0400244 0.489708 0.551507
0.175555 0.535058 0.589746
0.367285 0.579232 0.619959
0.497215 0.62153 0.647501
0.610925 0.663828 0.675654
0.71487 0.705837 0.703288
0.797024 0.741314 0.730785
0.859983 0.774426 0.757137
0.906203 0.805066 0.782025
0.107683 0.63035 0.64802
0.339467 0.681453 0.683421
0.500816 0.72781 0.713008
0.629374 0.771405 0.742473
0.73727 0.810285 0.771939
0.822416 0.841962 0.799481
0.884184 0.868772 0.822644
0.927474 0.893431 0.84535
0.956436 0.91162 0.86743
0.333333 0.768078 0.749752
0.515373 0.812589 0.781323
0.652689 0.850675 0.809445
0.759747 0.882109 0.834348
0.842359 0.907851 0.858808
0.902037 0.928267 0.88127
0.942 0.943999 0.899565
0.966506 0.955779 0.916411
0.981903 0.966186 0.932723
0.549081 0.869825 0.842725
0.683589 0.902266 0.869551
0.784848 0.926421 0.890227
0.860945 0.945953 0.90898
0.91516 0.961028 0.926741
0.950835 0.971298 0.94081
0.972488 0.978851 0.951858
0.986023 0.984848 0.961593
0.993652 0.988724 0.969802
0.0104982 0.0938888 0.182025
0.0201267 0.0966049 0.233112
0.0721447 0.102144 0.277653
0.134737 0.1149 0.30721
0.205615 0.129854 0.332387
0.284245 0.145373 0.357198
0.36347 0.160388 0.380545
0.440406 0.171878 0.400488
0.511803 0.180453 0.41886
0 0.147372 0.267506
0.0432136 0.155962 0.314305
0.107103 0.163012 0.357946
0.19263 0.18117 0.383352
0.275746 0.200381 0.407294
0.358618 0.219959 0.430137
0.440299 0.236469 0.45034
0.517693 0.251499 0.469337
0.588464 0.263005 0.48716
0.00640879 0.207874 0.348516
0.0471962 0.220768 0.396551
0.152102 0.240955 0.430518
0.253056 0.263996 0.455894
0.346685 0.288457 0.480095
0.435279 0.309972 0.502129
0.520348 0.33022 0.522179
0.595636 0.347601 0.539757
0.663432 0.366094 0.55787
9.15541e-05 0.285054 0.425391
0.0826123 0.310704 0.467338
0.204639 0.336294 0.503594
0.321996 0.367636 0.52929
0.423606 0.396338 0.553613
0.517449 0.421866 0.575936
0.601526 0.446677 0.596338
0.679332 0.473045 0.616464
0.747265 0.501717 0.637995
0.0309148 0.384588 0.49865
0.107622 0.41828 0.548211
0.273686 0.455817 0.580087
0.402655 0.493568 0.607614
0.510689 0.528572 0.632975
0.608896 0.563882 0.657237
0.700008 0.5991 0.680934
0.777844 0.633951 0.70573
0.836835 0.667964 0.730404
0.0137789 0.50779 0.595697
0.157702 0.552743 0.634852
0.377111 0.59765 0.665644
0.508644 0.641016 0.692805
0.624292 0.684855 0.720974
0.725704 0.724697 0.748531
0.807736 0.759762 0.775738
0.867811 0.791745 0.798657
0.911131 0.820478 0.819547
0.129564 0.649317 0.691157
0.350683 0.700206 0.727321
0.513878 0.746822 0.757229
0.641733 0.789319 0.785428
0.74786 0.82533 0.811261
0.831403 0.856336 0.836118
0.890883 0.882856 0.859464
0.93196 0.905364 0.878996
0.958663 0.921065 0.895796
0.345144 0.784619 0.790295
0.535958 0.82855 0.818723
0.668315 0.864805 0.845563
0.771588 0.894835 0.869871
0.850599 0.918334 0.888792
0.90779 0.936934 0.907195
0.946029 0.951659 0.924788
0.968566 0.962173 0.938048
0.9832 0.971679 0.949233
0.56463 0.881605 0.87454
0.699702 0.911879 0.895598
0.797009 0.934676 0.914397
0.86891 0.953201 0.932509
0.91989 0.966201 0.944884
0.953414 0.975387 0.95552
0.974014 0.98291 0.965652
0.986969 0.987503 0.971969
0.994171 0.990784 0.977783
0.0052491 0.106188 0.214939
0.0133516 0.104387 0.270481
0.0716411 0.108568 0.316625
0.141146 0.120104 0.349233
0.214679 0.135729 0.374807
0.295796 0.152346 0.400885
0.374762 0.166995 0.424018
0.45127 0.177798 0.44419
0.522148 0.186358 0.462425
3.0518e-05 0.161471 0.296956
0.0298161 0.163333 0.357259
0.101244 0.170855 0.400183
0.196445 0.189792 0.426078
0.284459 0.209949 0.450843
0.369314 0.229526 0.474006
0.451225 0.246326 0.493935
0.527108 0.260609 0.5122
0.597223 0.272419 0.529778
0.00424201 0.222049 0.382208
0.0367437 0.23125 0.436942
0.150881 0.251835 0.471473
0.259129 0.274876 0.498695
0.355978 0.29984 0.522835
0.444602 0.32076 0.544152
0.529061 0.341711 0.564431
0.605173 0.359869 0.583001
0.671977 0.379004 0.601312
0.00209049 0.300511 0.459098
0.079469 0.323842 0.508766
0.2 0.348837 0.546029
0.327153 0.380774 0.572351
0.431693 0.409354 0.59678
0.527092 0.436439 0.619715
0.612024 0.462669 0.64007
0.689601 0.490089 0.660258
0.757244 0.519493 0.68191
0.0240787 0.401373 0.537346
0.0899825 0.43331 0.591867
0.268803 0.471473 0.623056
0.410361 0.509697 0.65037
0.522393 0.546593 0.675746
0.62211 0.582788 0.700313
0.71223 0.618372 0.724575
0.78909 0.652934 0.74966
0.845685 0.686717 0.77232
0.00285344 0.525811 0.637156
0.169863 0.570581 0.676555
0.383749 0.615961 0.707469
0.521813 0.661006 0.735775
0.636667 0.704463 0.763531
0.736934 0.742428 0.7888
0.817136 0.776242 0.812528
0.875181 0.807614 0.83444
0.916136 0.83534 0.854551
0.15642 0.667887 0.730404
0.363149 0.718608 0.768368
0.529885 0.765438 0.795468
0.65713 0.806348 0.821927
0.759274 0.840131 0.846906
0.839521 0.869673 0.868971
0.897734 0.895811 0.887755
0.936507 0.914443 0.904738
0.961166 0.930144 0.920943
0.361486 0.800626 0.825132
0.553918 0.843183 0.853101
0.685008 0.877882 0.876097
0.784253 0.905241 0.895277
0.859098 0.927474 0.913832
0.913252 0.944732 0.929839
0.949401 0.957656 0.942214
0.970687 0.967834 0.953185
0.984588 0.976547 0.963272
0.582132 0.891554 0.898238
0.714794 0.920607 0.918486
0.808484 0.942046 0.934249
0.877897 0.958602 0.947829
0.924804 0.970245 0.959182
0.955978 0.979019 0.967865
0.97583 0.985489 0.974166
0.987732 0.989349 0.979782
0.994614 0.992691 0.984787
