public/luts/Alen Palander - Los Angeles.cube
TITLE "Generated by Resolve"
LUT_3D_SIZE 33
0.021149 0.0229343 0.0231174
0.0379339 0.023682 0.0229953
0.0551614 0.0244907 0.0229343
0.0849165 0.0269474 0.0234226
0.11519 0.0293431 0.0239872
0.147112 0.0307774 0.0243687
0.178592 0.0320745 0.0248112
0.204364 0.032166 0.0247807
0.229114 0.0321202 0.0247807
0.248936 0.0317235 0.0248417
0.267918 0.031342 0.0249485
0.284657 0.0308995 0.0250095
0.301122 0.030457 0.0251316
0.317937 0.0301366 0.0253605
0.335042 0.0298009 0.0255589
0.353277 0.0295872 0.025803
0.371771 0.0293278 0.0261234
0.390448 0.0290532 0.0263676
0.409384 0.0287938 0.0266423
0.429725 0.0287022 0.0269627
0.450263 0.0286412 0.0273289
0.470573 0.0286717 0.0276951
0.490867 0.028687 0.0280308
0.51104 0.0288853 0.0284581
0.531121 0.0290837 0.0288701
0.550927 0.0293889 0.0294347
0.570611 0.0297246 0.0299992
0.589776 0.0301671 0.0306859
0.608865 0.0306096 0.0314031
0.628229 0.0312505 0.0324102
0.647532 0.0318761 0.0334936
0.666773 0.0328222 0.0351263
0.686015 0.0338293 0.03682
0.0215305 0.0373999 0.0234989
0.0407874 0.0395819 0.0234379
0.0581064 0.0404059 0.0233158
0.0882887 0.0433509 0.0233768
0.118746 0.0458839 0.0238651
0.153201 0.0487831 0.0242466
0.185367 0.0503853 0.0246738
0.21677 0.0526284 0.0250095
0.242893 0.0529946 0.0250706
0.269886 0.0544289 0.0254215
0.290349 0.0543221 0.0255741
0.310887 0.0542916 0.0259098
0.328313 0.0539559 0.0260624
0.34757 0.0536507 0.0264286
0.365042 0.0532998 0.0267185
0.383444 0.0526741 0.0270542
0.402029 0.0523384 0.0274052
0.421134 0.0518959 0.0277714
0.439994 0.0516365 0.0281224
0.459693 0.0516365 0.0285954
0.479973 0.0515297 0.0289311
0.499275 0.0510872 0.0294041
0.519203 0.0509346 0.0297246
0.537911 0.0501869 0.0301061
0.557549 0.0501106 0.0305333
0.575509 0.0490272 0.030869
0.594919 0.0491798 0.0313725
0.613031 0.0493935 0.0318303
0.631922 0.0498665 0.0325322
0.650111 0.0507973 0.0333562
0.669398 0.0515755 0.0344244
0.688151 0.0551308 0.035996
0.707347 0.056199 0.0376898
0.0219577 0.0520027 0.0239414
0.0414435 0.0542611 0.0238651
0.0611582 0.0565194 0.0237583
0.0914168 0.0595102 0.0238041
0.122286 0.0625772 0.0238193
0.156909 0.0655833 0.0241703
0.191592 0.0685435 0.0245518
0.223804 0.0711528 0.0249332
0.255375 0.0736706 0.0252995
0.283909 0.0756085 0.025742
0.311269 0.0772564 0.0261692
0.333364 0.0775616 0.0265354
0.354513 0.0776837 0.0269474
0.374731 0.0774548 0.0273899
0.394568 0.0771344 0.0277867
0.413413 0.076463 0.0282139
0.43212 0.0758221 0.0286259
0.451377 0.075349 0.0290684
0.470665 0.0749371 0.0295262
0.490272 0.0749065 0.0300603
0.50988 0.0748913 0.0305028
0.528893 0.074403 0.0309911
0.547829 0.0738231 0.0314794
0.566171 0.0728618 0.0318456
0.58439 0.0718395 0.0322118
0.601984 0.0704814 0.0325322
0.619547 0.0692607 0.0327916
0.637324 0.0692912 0.0332341
0.655238 0.0695354 0.0336461
0.673228 0.0705425 0.0344701
0.691402 0.0716869 0.0353094
0.710033 0.0753796 0.0369421
0.728786 0.078996 0.0385748
0.023621 0.0707408 0.0244907
0.0482643 0.0755169 0.0244907
0.0682383 0.0779126 0.0244297
0.101228 0.0834058 0.0243076
0.132174 0.0865949 0.0243076
0.166018 0.0901198 0.0245518
0.200916 0.0932784 0.0248569
0.235584 0.0973831 0.025452
0.267918 0.100252 0.0259098
0.300069 0.10425 0.026566
0.328649 0.106477 0.0270848
0.355169 0.108858 0.0276341
0.377462 0.109514 0.0280766
0.400366 0.111101 0.0285649
0.420905 0.111223 0.0290074
0.440955 0.111223 0.0294652
0.460105 0.110918 0.0298772
0.480247 0.111925 0.0303197
0.499718 0.111788 0.0308232
0.518898 0.111727 0.0313268
0.538323 0.111681 0.0318151
0.556909 0.11104 0.0322423
0.575586 0.110277 0.0326848
0.593118 0.108507 0.033051
0.611124 0.10724 0.0334325
0.628244 0.105058 0.0337224
0.645594 0.103624 0.0340124
0.66247 0.103075 0.0344244
0.680156 0.103273 0.0348363
0.697627 0.104509 0.035584
0.715648 0.105653 0.0364233
0.73373 0.110826 0.0378271
0.752361 0.114641 0.0394446
0.0254673 0.0899977 0.0250706
0.0506905 0.0950637 0.0250706
0.0757916 0.099855 0.0250553
0.109346 0.105592 0.0249332
0.142855 0.111208 0.0248722
0.176745 0.114961 0.0250401
0.210788 0.118608 0.0252384
0.245686 0.122881 0.0258946
0.280339 0.127169 0.0265049
0.313237 0.131594 0.0272068
0.345205 0.135836 0.027924
0.372869 0.138796 0.0285496
0.39939 0.141527 0.0291752
0.423392 0.143725 0.0296941
0.446448 0.145586 0.0302586
0.467155 0.145983 0.0307012
0.487465 0.14638 0.0311894
0.508034 0.147799 0.0316625
0.528374 0.149096 0.0321355
0.547585 0.149248 0.0326543
0.566613 0.149126 0.0331884
0.585031 0.148425 0.0336004
0.603281 0.147494 0.0339818
0.6206 0.145586 0.0343023
0.637812 0.143481 0.0346838
0.654749 0.141146 0.0349889
0.671672 0.138903 0.0352941
0.688396 0.138201 0.0356756
0.705165 0.137774 0.0360723
0.722438 0.138979 0.0367742
0.73991 0.140398 0.0375525
0.757855 0.145617 0.03888
0.775891 0.150851 0.0403296
0.0304265 0.115038 0.0256352
0.061326 0.123079 0.02533
0.0871748 0.128283 0.0252842
0.128099 0.136065 0.0254826
0.162356 0.141985 0.0253758
0.197513 0.147601 0.0257725
0.23154 0.151431 0.0260319
0.265049 0.156237 0.026627
0.299641 0.160678 0.0272984
0.332631 0.165743 0.0281529
0.364981 0.170367 0.0289158
0.39411 0.175067 0.0298161
0.421271 0.178363 0.030518
0.446723 0.182544 0.0314031
0.470237 0.184894 0.0320134
0.491295 0.185977 0.0324865
0.511757 0.186618 0.0330053
0.532845 0.188754 0.0337682
0.553216 0.190188 0.0343023
0.571756 0.189761 0.0347448
0.59057 0.189487 0.0352483
0.608652 0.188434 0.035584
0.626825 0.187457 0.0359503
0.644251 0.185672 0.0362707
0.661494 0.183642 0.0365911
0.678691 0.181537 0.0368811
0.695628 0.179278 0.0371557
0.712169 0.178561 0.0375219
0.728786 0.178073 0.0379187
0.745373 0.178882 0.0385595
0.762661 0.18024 0.0393072
0.779095 0.184405 0.0404212
0.79704 0.1897 0.0417945
0.0357671 0.140841 0.0260777
0.0678874 0.149325 0.0257725
0.0992752 0.157397 0.0255283
0.141146 0.16553 0.0257572
0.182391 0.173327 0.0259861
0.218143 0.179263 0.0263981
0.253101 0.184863 0.0268254
0.286503 0.189776 0.0274815
0.319768 0.194736 0.0281224
0.352605 0.199969 0.0290227
0.384924 0.205173 0.0299687
0.414328 0.210254 0.03093
0.442756 0.215167 0.0319066
0.46865 0.219928 0.0328985
0.493507 0.22414 0.0338598
0.514809 0.225696 0.0343786
0.535576 0.226902 0.0348974
0.556756 0.229267 0.0357366
0.57763 0.231342 0.0365454
0.596063 0.230869 0.0370184
0.614176 0.230045 0.0374456
0.632136 0.22884 0.0377966
0.650004 0.227481 0.0381018
0.667399 0.225681 0.0383764
0.684733 0.223774 0.0386664
0.701991 0.221698 0.038941
0.719112 0.219699 0.0392004
0.735576 0.218936 0.0395819
0.752041 0.218433 0.0399634
0.76846 0.219104 0.040589
0.784985 0.220066 0.0412299
0.801144 0.224002 0.0423133
0.817578 0.228275 0.0434577
0.0435035 0.170474 0.0260014
0.0838483 0.181369 0.025803
0.116609 0.18999 0.0255589
0.162509 0.199847 0.0263828
0.204822 0.208011 0.0267033
0.243885 0.215183 0.0276646
0.279164 0.220996 0.0282139
0.310201 0.225483 0.0290684
0.343023 0.230442 0.0297704
0.37435 0.236133 0.030808
0.406424 0.241505 0.0317998
0.435279 0.247211 0.0331121
0.463691 0.252415 0.0341802
0.489235 0.257939 0.0355383
0.514168 0.262501 0.0365759
0.535958 0.26482 0.0373846
0.556848 0.266224 0.0379339
0.577996 0.268666 0.0388495
0.598886 0.270695 0.0396887
0.617563 0.269795 0.0402533
0.635676 0.268818 0.0406958
0.653895 0.267659 0.0412299
0.671702 0.266209 0.0415656
0.688441 0.263752 0.0417487
0.705608 0.261692 0.0420081
0.722622 0.259556 0.0422522
0.739666 0.257465 0.0425116
0.754971 0.255756 0.0426642
0.771176 0.255024 0.0429999
0.78648 0.25478 0.0434577
0.802731 0.255528 0.0440528
0.817563 0.258244 0.0449989
0.833707 0.262242 0.0461128
0.0517281 0.200641 0.0258793
0.0935836 0.211994 0.025742
0.134157 0.222889 0.0255894
0.180911 0.233051 0.0265049
0.227085 0.242893 0.0274205
0.26685 0.250309 0.0285801
0.305257 0.257282 0.029633
0.336309 0.26183 0.0305791
0.366598 0.266209 0.0314946
0.39736 0.271839 0.0325933
0.428 0.277623 0.0337377
0.456489 0.283436 0.0351568
0.484382 0.289174 0.0365454
0.509728 0.294896 0.0380255
0.53434 0.30013 0.0393683
0.556176 0.302724 0.0402991
0.577478 0.304906 0.0411536
0.598718 0.307469 0.0420996
0.619593 0.30959 0.0429847
0.63827 0.308583 0.0435492
0.656565 0.307088 0.0440681
0.674891 0.305898 0.0446326
0.692973 0.304509 0.0451209
0.709606 0.301885 0.0453498
0.726116 0.299199 0.0455482
0.742947 0.296849 0.0457313
0.75967 0.294682 0.0459449
0.774685 0.292729 0.0460822
0.789761 0.291066 0.0462348
0.804669 0.290471 0.0466163
0.819852 0.290288 0.0470283
0.834302 0.292638 0.0479286
0.849058 0.295399 0.0488746
0.0619364 0.23209 0.0256504
0.109377 0.244587 0.0260166
0.151598 0.255909 0.0259403
0.2 0.266682 0.0273289
0.24683 0.276799 0.0283513
0.289326 0.285588 0.0301823
0.328405 0.292805 0.0314183
0.36083 0.298009 0.0328832
0.390997 0.302358 0.0339055
0.417914 0.305928 0.0351873
0.447791 0.311452 0.0363622
0.474784 0.316854 0.0380102
0.502342 0.32256 0.0395361
0.527153 0.328099 0.0412146
0.551629 0.333471 0.04271
0.573648 0.336751 0.0439612
0.595071 0.339147 0.0449378
0.616541 0.342153 0.0460975
0.637446 0.344381 0.0470893
0.656168 0.34374 0.0476539
0.674525 0.34229 0.0481575
0.692943 0.340841 0.0486763
0.711116 0.339422 0.0491951
0.727962 0.336553 0.0493782
0.744381 0.3337 0.0495613
0.760449 0.330861 0.0496376
0.776959 0.328496 0.0498207
0.791104 0.325978 0.0497902
0.805798 0.324025 0.0499123
0.819303 0.322179 0.049958
0.834012 0.321675 0.0503243
0.846845 0.322454 0.0507973
0.861234 0.324865 0.0516976
0.072755 0.263523 0.0255436
0.121096 0.27631 0.0260014
0.168612 0.288762 0.0263828
0.21738 0.299611 0.027863
0.265766 0.310277 0.0293278
0.308675 0.319219 0.0313573
0.350271 0.327688 0.0333104
0.383185 0.333089 0.0349126
0.414633 0.338003 0.0364538
0.441199 0.34139 0.0377813
0.467338 0.344823 0.0390936
0.493675 0.349828 0.0407874
0.519814 0.355108 0.0425422
0.54432 0.360571 0.0443122
0.568246 0.365713 0.0460059
0.590219 0.36907 0.047364
0.611811 0.37203 0.0486763
0.633249 0.375174 0.0499428
0.654383 0.37789 0.0511482
0.673152 0.377432 0.0517586
0.691539 0.376349 0.0522774
0.710018 0.374975 0.0528267
0.728313 0.373342 0.0532998
0.745205 0.370428 0.0535134
0.761761 0.367346 0.0536202
0.777646 0.364416 0.0536812
0.793439 0.361532 0.0537423
0.807309 0.358785 0.053666
0.821103 0.356207 0.0536049
0.834257 0.354116 0.0535897
0.847578 0.352346 0.0536812
0.859922 0.352651 0.0540322
0.872679 0.353506 0.0544747
0.0862593 0.294286 0.0259709
0.135561 0.307347 0.0268406
0.183902 0.320043 0.0273747
0.232685 0.330419 0.0292058
0.281193 0.341085 0.0307774
0.324086 0.349935 0.0332799
0.366033 0.358541 0.0354162
0.400351 0.36466 0.0376745
0.432135 0.369711 0.0393378
0.459495 0.373449 0.0410315
0.485328 0.376638 0.0424201
0.509087 0.379507 0.0438849
0.534707 0.384375 0.045655
0.558694 0.389258 0.0475319
0.582422 0.394278 0.0492714
0.603891 0.397284 0.0506905
0.625315 0.400198 0.052018
0.646113 0.402884 0.0533455
0.66714 0.405585 0.0545815
0.686198 0.405661 0.0554055
0.704707 0.404868 0.0560006
0.723293 0.404425 0.0566873
0.741604 0.402975 0.0572213
0.758343 0.400137 0.057435
0.774838 0.39704 0.0575418
0.790127 0.394095 0.0575418
0.805631 0.391073 0.0575418
0.818814 0.387655 0.0572518
0.83238 0.384878 0.057145
0.845106 0.382376 0.0569924
0.858137 0.38027 0.0569467
0.869291 0.37908 0.0568704
0.881559 0.379461 0.0571908
0.100481 0.324681 0.0264897
0.149722 0.337697 0.0275273
0.198962 0.350698 0.0284581
0.247501 0.360922 0.0304112
0.295903 0.371084 0.0323491
0.338552 0.379797 0.0349584
0.380514 0.388357 0.037583
0.415122 0.394583 0.0400244
0.448142 0.400229 0.0422217
0.475776 0.404059 0.0441138
0.502297 0.407568 0.0458076
0.525795 0.410101 0.0473182
0.548989 0.412879 0.0488136
0.572549 0.417334 0.05066
0.595895 0.421881 0.0525216
0.617197 0.42472 0.0539406
0.638209 0.427344 0.055314
0.658839 0.429938 0.056672
0.679225 0.432212 0.0579385
0.698283 0.43238 0.0588083
0.717021 0.43212 0.0595712
0.735698 0.431983 0.0603494
0.754101 0.431479 0.0610208
0.770733 0.428809 0.0612497
0.787045 0.425818 0.0614176
0.802106 0.422782 0.061387
0.816968 0.41976 0.0613107
0.829984 0.416175 0.0609445
0.842908 0.412695 0.0606546
0.855451 0.409995 0.0603952
0.86804 0.407538 0.0602274
0.878935 0.405982 0.0600443
0.889998 0.404776 0.0599222
0.117067 0.353689 0.0273442
0.165057 0.365988 0.0288701
0.214206 0.378912 0.0299077
0.26096 0.388418 0.0321813
0.308965 0.398367 0.0341955
0.349676 0.406043 0.0369573
0.391302 0.414435 0.0396429
0.427161 0.421088 0.042771
0.460624 0.426902 0.0452125
0.488731 0.430701 0.047364
0.515404 0.434211 0.0491951
0.538811 0.436515 0.0507057
0.561669 0.438926 0.0522011
0.583185 0.441566 0.053666
0.606134 0.445762 0.0554513
0.627558 0.448783 0.0569924
0.648585 0.451423 0.058381
0.669718 0.454307 0.0599222
0.69012 0.456657 0.0612345
0.709316 0.457374 0.0621958
0.728099 0.457313 0.063035
0.746517 0.457343 0.0638743
0.764843 0.457023 0.0645609
0.781109 0.455055 0.0648356
0.797238 0.452201 0.0650034
0.811765 0.44892 0.0648661
0.826429 0.445792 0.064744
0.839063 0.442039 0.0643015
0.851789 0.438376 0.0638895
0.863722 0.434943 0.0634775
0.876158 0.432303 0.0632639
0.886702 0.430167 0.0629129
0.897505 0.428656 0.0627298
0.134157 0.382208 0.0282902
0.181643 0.394095 0.0299535
0.229572 0.406271 0.0315099
0.275563 0.415534 0.0338293
0.321706 0.424842 0.0361181
0.361685 0.432181 0.03888
0.401434 0.439567 0.0417029
0.437232 0.446174 0.0449531
0.471946 0.45243 0.0480812
0.500359 0.456321 0.0504005
0.527398 0.459754 0.0524453
0.550866 0.462013 0.0540169
0.573602 0.464164 0.0555123
0.594797 0.466484 0.0569467
0.6159 0.468986 0.058381
0.63711 0.471855 0.0598917
0.658244 0.474678 0.0614023
0.67953 0.477638 0.062974
0.700481 0.480308 0.0644694
0.719753 0.481178 0.0654765
0.738613 0.481682 0.066392
0.756924 0.481788 0.0672313
0.77496 0.481621 0.0680247
0.791043 0.47982 0.0682689
0.80676 0.477623 0.0684367
0.82118 0.474418 0.0682994
0.835325 0.471046 0.0680705
0.847852 0.467292 0.0676127
0.860258 0.463462 0.0671092
0.872053 0.459937 0.0666361
0.883879 0.456519 0.0662089
0.894316 0.454261 0.0658579
0.904768 0.452171 0.0655375
0.152285 0.408682 0.0298009
0.197757 0.419333 0.0316167
0.245106 0.431159 0.0333257
0.288762 0.439612 0.0357824
0.334081 0.4486 0.0381628
0.371572 0.455177 0.0408942
0.410544 0.462257 0.0437171
0.445197 0.468315 0.046952
0.479912 0.474586 0.0502174
0.509499 0.47892 0.0530251
0.536782 0.482399 0.0552377
0.560006 0.484596 0.0568551
0.582727 0.486686 0.058381
0.603922 0.488975 0.0599069
0.624842 0.491279 0.0613413
0.645701 0.493507 0.0627756
0.666804 0.496269 0.0643015
0.688167 0.499184 0.0659342
0.709163 0.501839 0.0674449
0.728481 0.5028 0.0684977
0.74728 0.503349 0.069398
0.764813 0.503532 0.0701762
0.782605 0.50341 0.0709239
0.798154 0.501656 0.0711528
0.813718 0.499596 0.0712902
0.828244 0.497047 0.0712139
0.842344 0.493812 0.0710002
0.854994 0.490318 0.0705577
0.867338 0.486564 0.0700542
0.879072 0.48333 0.0695811
0.890822 0.479835 0.0691081
0.901167 0.477363 0.0686503
0.911589 0.475135 0.0682689
0.170459 0.434699 0.0313725
0.215274 0.444953 0.0332799
0.260655 0.455543 0.0351415
0.303334 0.463676 0.0376593
0.346349 0.471839 0.0401923
0.383001 0.478157 0.0429389
0.419623 0.484504 0.045716
0.453773 0.490364 0.0489662
0.487526 0.496132 0.0522469
0.517189 0.500496 0.0551614
0.545632 0.504463 0.057847
0.569024 0.506722 0.0596323
0.59147 0.508721 0.0611887
0.61265 0.510979 0.0627146
0.6336 0.513268 0.0642252
0.654398 0.515373 0.0657054
0.675135 0.517555 0.0671702
0.69633 0.520348 0.0687877
0.717403 0.522988 0.0703441
0.736736 0.523919 0.071397
0.755505 0.524468 0.0723583
0.772854 0.524666 0.0730755
0.789822 0.524575 0.0737469
0.805051 0.522866 0.0739452
0.820081 0.520821 0.0740368
0.834516 0.518441 0.0739757
0.848707 0.515877 0.0738231
0.861418 0.512566 0.0734112
0.873884 0.509117 0.0729381
0.885664 0.505959 0.0724651
0.897337 0.502815 0.0719615
0.907774 0.500282 0.0714885
0.91812 0.497856 0.0710307
0.188235 0.460136 0.0329442
0.231006 0.469078 0.035172
0.275639 0.479194 0.0371099
0.315373 0.486351 0.0398108
0.357443 0.494209 0.042359
0.392752 0.499977 0.0451667
0.428672 0.506081 0.0479744
0.461936 0.511559 0.051133
0.495354 0.517159 0.0543679
0.525078 0.521508 0.057435
0.55375 0.525612 0.0602731
0.578393 0.528603 0.0625162
0.601038 0.530724 0.0641794
0.621912 0.532509 0.0656443
0.642802 0.534722 0.0671702
0.663447 0.536675 0.0686503
0.684016 0.538735 0.0700847
0.703685 0.540902 0.071458
0.724483 0.543404 0.0729992
0.743816 0.544366 0.0740826
0.762585 0.544915 0.0750439
0.779751 0.544884 0.0757305
0.796475 0.544778 0.0763714
0.810681 0.54313 0.0764782
0.825406 0.541176 0.0765545
0.839277 0.538842 0.0764172
0.853452 0.536416 0.0763256
0.866224 0.533883 0.076051
0.878721 0.530602 0.075639
0.890654 0.527535 0.0751354
0.902373 0.524422 0.0746319
0.913268 0.521996 0.0741894
0.923705 0.519554 0.0737163
0.205585 0.484977 0.0345312
0.247715 0.493553 0.0368505
0.290349 0.502419 0.0391089
0.329244 0.509285 0.0418402
0.368444 0.516228 0.0445716
0.403128 0.521813 0.0473945
0.437736 0.527367 0.0502022
0.470588 0.532692 0.0533608
0.503197 0.537942 0.0565347
0.532815 0.54226 0.0596017
0.561563 0.546365 0.062562
0.58645 0.549477 0.0649424
0.610285 0.5523 0.0670939
0.631312 0.554116 0.0686046
0.65185 0.555886 0.0700694
0.672419 0.557778 0.071519
0.692821 0.55967 0.0729839
0.712184 0.561715 0.0743114
0.73138 0.563638 0.0755932
0.750454 0.564584 0.0766918
0.769207 0.565148 0.0776532
0.786374 0.565042 0.0783398
0.802884 0.564691 0.0789349
0.816831 0.563027 0.0790112
0.830518 0.561166 0.078996
0.844175 0.558862 0.0788434
0.857801 0.556481 0.078706
0.870512 0.554177 0.0784466
0.883162 0.551659 0.0781872
0.895094 0.548684 0.0777447
0.907012 0.545632 0.0772717
0.918029 0.543297 0.0768597
0.928893 0.540917 0.0764172
0.220981 0.507195 0.0363775
0.261494 0.515023 0.038819
0.303502 0.523537 0.0411383
0.340871 0.529946 0.0439155
0.379294 0.536629 0.0466926
0.412482 0.541924 0.0495155
0.44654 0.547356 0.052369
0.478477 0.552438 0.0554665
0.510689 0.557565 0.0586404
0.539834 0.561685 0.061677
0.568505 0.565728 0.0646525
0.593362 0.568872 0.0670481
0.617365 0.571756 0.069276
0.639017 0.573846 0.0710613
0.659617 0.575647 0.0725567
0.679698 0.577356 0.0740673
0.699992 0.579248 0.0755169
0.719127 0.581033 0.0768444
0.738094 0.582895 0.0780957
0.755932 0.58407 0.0791943
0.774502 0.584665 0.0801556
0.791562 0.584421 0.0807813
0.808026 0.583993 0.0813306
0.82182 0.581933 0.0812238
0.835279 0.579995 0.0811933
0.848295 0.577707 0.0809949
0.861708 0.575387 0.0808118
0.874144 0.573281 0.0806134
0.886732 0.570947 0.0803693
0.898817 0.568673 0.0800488
0.910735 0.565759 0.0795911
0.922072 0.563775 0.0792554
0.933059 0.561502 0.0788434
0.235737 0.528862 0.0381933
0.275822 0.536446 0.0407263
0.316213 0.544213 0.0431983
0.35314 0.550484 0.0460059
0.390082 0.556725 0.0487678
0.422812 0.561944 0.0516518
0.455512 0.567147 0.054551
0.487053 0.572122 0.0576638
0.51838 0.57702 0.0607462
0.547265 0.581079 0.0637675
0.575433 0.584894 0.0667124
0.600168 0.587991 0.0691234
0.62414 0.59089 0.0713817
0.64593 0.593057 0.0732586
0.667079 0.595056 0.0749676
0.687083 0.596826 0.0764935
0.706874 0.59855 0.0780041
0.725933 0.600244 0.0793011
0.744701 0.601923 0.0805829
0.762325 0.603082 0.081651
0.77966 0.604028 0.0826429
0.796506 0.60383 0.083238
0.812894 0.603204 0.083711
0.826596 0.601083 0.0835889
0.839857 0.598749 0.08336
0.852674 0.596414 0.0831464
0.865522 0.59411 0.0829023
0.877852 0.592096 0.0827039
0.890105 0.590021 0.0824598
0.902205 0.58793 0.0822156
0.914214 0.585687 0.0819104
0.925597 0.58381 0.0815747
0.936919 0.581888 0.0812238
0.248325 0.549554 0.0399329
0.287709 0.556649 0.0427558
0.327718 0.564202 0.0452583
0.363867 0.570245 0.0481422
0.400366 0.576379 0.0509651
0.432349 0.581582 0.0538949
0.464668 0.586725 0.0567941
0.495796 0.591608 0.0599222
0.526864 0.59649 0.0630655
0.555337 0.600519 0.0660258
0.583307 0.604318 0.0689403
0.607217 0.607095 0.0712596
0.631067 0.609979 0.073579
0.653162 0.612375 0.0755779
0.674403 0.614466 0.0773632
0.694087 0.616297 0.078996
0.713726 0.61796 0.0804761
0.732403 0.619242 0.0817578
0.75108 0.620752 0.0830243
0.768612 0.621775 0.0840772
0.785733 0.622736 0.0850233
0.801129 0.622995 0.0856489
0.817304 0.622492 0.0861067
0.830716 0.620508 0.0859998
0.843885 0.618112 0.0857862
0.856123 0.615427 0.085359
0.868788 0.613123 0.0850843
0.880873 0.611566 0.084947
0.893065 0.609583 0.0847791
0.905104 0.607782 0.084535
0.917113 0.605707 0.0842298
0.928496 0.6038 0.0839246
0.939834 0.601923 0.0835889
0.2598 0.569848 0.0415351
0.299458 0.576867 0.04448
0.338735 0.583917 0.0472877
0.374701 0.589914 0.050248
0.410452 0.595865 0.0531319
0.442267 0.601083 0.0560311
0.473838 0.606165 0.0590372
0.504738 0.611063 0.0621958
0.535409 0.615854 0.0653544
0.563684 0.619852 0.0683146
0.591226 0.623652 0.0711986
0.614923 0.626398 0.073518
0.63798 0.628977 0.0757
0.659983 0.631403 0.0777447
0.681514 0.633722 0.0796979
0.701137 0.635538 0.0813611
0.720378 0.637263 0.0829328
0.738888 0.638468 0.084184
0.757183 0.639521 0.0853895
0.774655 0.640452 0.0864118
0.791669 0.641245 0.0873579
0.80679 0.64155 0.0879835
0.821576 0.641581 0.0885023
0.834943 0.63978 0.0884413
0.847807 0.637522 0.0881666
0.859876 0.634745 0.0877089
0.871946 0.63212 0.0872969
0.883925 0.630594 0.0871443
0.895949 0.62916 0.0870222
0.907958 0.627451 0.0868391
0.919936 0.625696 0.0865949
0.931273 0.623804 0.086244
0.942611 0.621897 0.0859083
0.26566 0.587823 0.04271
0.308064 0.595376 0.0461128
0.347631 0.602396 0.0490883
0.383536 0.608347 0.0521553
0.419181 0.614282 0.0550546
0.451148 0.619654 0.0581369
0.482597 0.624796 0.0611582
0.512642 0.629648 0.0642863
0.543069 0.634424 0.0674296
0.570901 0.638453 0.0703899
0.598306 0.642237 0.0732891
0.621775 0.644968 0.0756085
0.644587 0.647501 0.0777905
0.665843 0.649683 0.0797436
0.687205 0.651942 0.0817121
0.706645 0.653849 0.0834058
0.725704 0.655543 0.0849775
0.743404 0.656764 0.0862593
0.761486 0.65774 0.0874647
0.778698 0.658289 0.0884413
0.795621 0.658991 0.0893416
0.810285 0.659068 0.0898756
0.824994 0.659236 0.090425
0.838727 0.659022 0.0907912
0.851575 0.656962 0.0905928
0.863157 0.653956 0.0899672
0.87509 0.651225 0.0895094
0.886824 0.649317 0.0892195
0.898772 0.647898 0.0890822
0.910811 0.646906 0.0890364
0.92282 0.645258 0.0888533
0.934096 0.643671 0.0885481
0.945434 0.641779 0.0882277
0.270253 0.605295 0.0437934
0.313649 0.613062 0.0473182
0.355917 0.620615 0.0507362
0.391989 0.626566 0.0538949
0.427573 0.632471 0.0569924
0.459617 0.637903 0.0601205
0.491203 0.643183 0.0632029
0.521004 0.648051 0.0663462
0.550607 0.652827 0.0694743
0.578164 0.656825 0.0724193
0.605112 0.660609 0.075288
0.628489 0.66334 0.0776226
0.651133 0.665873 0.0798352
0.672145 0.667948 0.0817731
0.692744 0.670008 0.0836194
0.712032 0.671839 0.0853132
0.730816 0.673594 0.0869764
0.748302 0.6748 0.0882734
0.76556 0.675837 0.0895094
0.782605 0.676341 0.0904402
0.799283 0.676707 0.0912795
0.81384 0.676677 0.0917983
0.828016 0.676616 0.0922713
0.841779 0.676585 0.0926375
0.855222 0.676249 0.0929274
0.866819 0.673487 0.0923934
0.878233 0.670451 0.0917525
0.889921 0.668482 0.0914321
0.90161 0.666682 0.0911727
0.913603 0.66569 0.0911116
0.925673 0.664775 0.0910506
0.93698 0.663279 0.0908217
0.948257 0.661662 0.0905623
0.270787 0.621485 0.04448
0.319631 0.630411 0.0487678
0.36286 0.638148 0.0522927
0.399191 0.64416 0.0556191
0.434867 0.650065 0.058793
0.467308 0.655665 0.0620584
0.498909 0.661036 0.065156
0.528008 0.665736 0.0682383
0.557275 0.670436 0.0713664
0.583917 0.674266 0.0741894
0.610651 0.678004 0.0770275
0.633921 0.680827 0.0794385
0.656504 0.68333 0.081651
0.677287 0.685405 0.0835737
0.697734 0.687404 0.08542
0.716594 0.689082 0.0870222
0.735225 0.690791 0.0886549
0.752102 0.69218 0.0899825
0.769131 0.693309 0.0912184
0.785611 0.694163 0.0922866
0.802136 0.694545 0.0931716
0.816464 0.694255 0.0936141
0.830564 0.694087 0.0940261
0.844053 0.693843 0.0943465
0.857557 0.693751 0.0946975
0.869963 0.693248 0.0947738
0.881468 0.690486 0.0941939
0.893004 0.688273 0.0938277
0.904646 0.686381 0.0935073
0.916335 0.684825 0.0932631
0.928313 0.683909 0.0932326
0.939834 0.683223 0.0931868
0.951141 0.681743 0.0928969
0.270191 0.637263 0.0451057
0.320378 0.646525 0.049485
