public/luts/Alen Palander - Arizona.cube
TITLE "Generated by Resolve"
LUT_3D_SIZE 33
0.0189212 0.02916 0.0252232
0.0246891 0.0354162 0.03093
0.0311589 0.0413062 0.0363165
0.0375677 0.0463417 0.0410773
0.044007 0.0507973 0.0453193
0.0505379 0.0543679 0.0482948
0.0580301 0.0577707 0.050782
0.0657054 0.0610666 0.0530098
0.0723888 0.0640269 0.0548409
0.0797436 0.0669566 0.0564736
0.0881666 0.0699626 0.0579232
0.0970626 0.0729992 0.0593423
0.106035 0.076051 0.0608377
0.114611 0.0790265 0.0624247
0.124331 0.0820783 0.0640269
0.135805 0.0853285 0.0656596
0.150607 0.0890211 0.0676127
0.165881 0.0927138 0.0695659
0.180377 0.0959793 0.0708324
0.194705 0.0990768 0.0718395
0.208972 0.102083 0.0727703
0.227008 0.105058 0.0740673
0.245701 0.108003 0.0754406
0.264729 0.110887 0.0765393
0.28333 0.113466 0.076112
0.301732 0.115923 0.0749676
0.320562 0.118227 0.0751812
0.339498 0.120363 0.0762341
0.358862 0.122271 0.0778515
0.378027 0.124163 0.0794385
0.397375 0.126146 0.0811017
0.416526 0.128099 0.0827039
0.435492 0.129809 0.0840009
0.0273594 0.0470436 0.0421607
0.0336767 0.0512856 0.0462043
0.040177 0.0550851 0.0497902
0.0467536 0.0585184 0.0527962
0.0535286 0.0617533 0.0551156
0.060441 0.0649119 0.057145
0.0670024 0.0677348 0.0588235
0.0734112 0.0705425 0.0603647
0.080293 0.0734417 0.0619364
0.0892195 0.0767224 0.0634775
0.0985122 0.0800641 0.0651713
0.1075 0.0832685 0.066865
0.116152 0.0863508 0.0685435
0.124544 0.0893416 0.0701152
0.137987 0.0929122 0.0719768
0.152636 0.0966659 0.0740368
0.168261 0.100526 0.0763104
0.183032 0.103944 0.0776837
0.197192 0.107118 0.0785229
0.212482 0.110445 0.0796216
0.229114 0.113695 0.0809644
0.248142 0.116869 0.0824598
0.267048 0.120058 0.0833753
0.285954 0.123293 0.084062
0.304555 0.126406 0.0840314
0.323354 0.129412 0.0847486
0.34258 0.132113 0.0859846
0.361898 0.134508 0.0873121
0.381567 0.136965 0.0888075
0.4009 0.139284 0.0903029
0.420218 0.141711 0.091722
0.439399 0.143923 0.09308
0.457572 0.145541 0.0936751
0.0331731 0.0598611 0.0540932
0.0389563 0.0628824 0.0565652
0.0457465 0.06598 0.0586404
0.0528878 0.0690166 0.0604868
0.0598001 0.0719921 0.0622263
0.0661936 0.0747845 0.0639353
0.0722057 0.0774395 0.0655985
0.0802319 0.0805829 0.0673228
0.0892195 0.0839094 0.0691997
0.0991379 0.0873274 0.0712902
0.108248 0.0904402 0.0729839
0.117037 0.093492 0.0745098
0.126452 0.0965591 0.0759899
0.138369 0.0999466 0.0777752
0.153628 0.103746 0.0799268
0.168902 0.107591 0.0819104
0.184176 0.111513 0.083711
0.199039 0.115267 0.0848096
0.21471 0.119036 0.0861677
0.231571 0.122667 0.0876783
0.25034 0.126375 0.08925
0.269581 0.130358 0.0906691
0.288624 0.134203 0.0915389
0.307393 0.13785 0.0925765
0.325963 0.141451 0.0940108
0.345327 0.144671 0.0953841
0.365026 0.147799 0.0967269
0.384833 0.15082 0.0979629
0.404395 0.153643 0.0993973
0.423514 0.155978 0.100893
0.44242 0.15816 0.10219
0.461204 0.160357 0.103471
0.478614 0.162142 0.104097
0.0357824 0.0701457 0.0619516
0.0418708 0.0729076 0.0638285
0.0496681 0.0758526 0.0656291
0.0568399 0.078645 0.0674449
0.0636759 0.0813458 0.0692149
0.0705119 0.0840162 0.0709392
0.0785229 0.0869306 0.0727855
0.0880903 0.0902876 0.0748608
0.0979477 0.0936141 0.0768597
0.107698 0.096849 0.0787518
0.116793 0.0999924 0.0800031
0.127214 0.103578 0.0815595
0.139254 0.10753 0.0834211
0.154437 0.111894 0.0856184
0.170138 0.116365 0.0877546
0.185534 0.120897 0.0894942
0.200977 0.125368 0.0911269
0.216358 0.129717 0.0928359
0.23418 0.134081 0.0945144
0.252811 0.138476 0.0961929
0.272404 0.142901 0.0978256
0.291569 0.147005 0.0994125
0.310185 0.150713 0.100954
0.328634 0.154131 0.102861
0.347478 0.157595 0.104707
0.367208 0.160815 0.105943
0.387045 0.163973 0.107317
0.406775 0.167163 0.108797
0.425757 0.169543 0.11014
0.444877 0.171969 0.111391
0.463706 0.174334 0.112322
0.481605 0.176272 0.113313
0.498863 0.177935 0.114549
0.037644 0.0792401 0.0687572
0.0449836 0.0821698 0.0708019
0.052079 0.0851453 0.0729076
0.0592508 0.0879225 0.0746166
0.0670939 0.0908675 0.0763867
0.0756847 0.0940719 0.0782788
0.0861219 0.0979171 0.0805371
0.0969406 0.101854 0.0827344
0.107164 0.10573 0.0846265
0.117006 0.109514 0.086244
0.126558 0.113252 0.0878462
0.140215 0.117662 0.0897536
0.155138 0.122316 0.091783
0.171633 0.127214 0.0937057
0.187472 0.131868 0.095491
0.202853 0.136309 0.0974136
0.218479 0.140764 0.0997177
0.235157 0.145174 0.101839
0.254276 0.149722 0.103624
0.273716 0.154177 0.105409
0.293202 0.158633 0.107439
0.311742 0.162402 0.109438
0.330404 0.16611 0.111376
0.349279 0.169848 0.113329
0.368765 0.17319 0.114839
0.388434 0.176455 0.116457
0.407889 0.179568 0.118074
0.427482 0.182696 0.119524
0.446784 0.18555 0.120302
0.465736 0.188312 0.121218
0.484382 0.19089 0.12221
0.501549 0.192782 0.123613
0.518715 0.194675 0.124987
0.0394446 0.0887465 0.0761273
0.0465858 0.0919661 0.0781567
0.054078 0.095079 0.0800336
0.0619211 0.0981765 0.0818036
0.0716411 0.102098 0.0839704
0.0826276 0.106294 0.0862135
0.0951858 0.110842 0.0885176
0.106325 0.115129 0.090486
0.116594 0.119158 0.092256
0.126772 0.123064 0.0939956
0.139254 0.127413 0.0959029
0.155169 0.13225 0.0976883
0.171679 0.13724 0.099794
0.188312 0.14226 0.101976
0.203738 0.146746 0.104356
0.219532 0.151339 0.10692
0.235752 0.155871 0.109377
0.254627 0.160479 0.111498
0.274281 0.164981 0.113527
0.293599 0.169345 0.115785
0.312673 0.173541 0.117906
0.331609 0.177798 0.119921
0.350545 0.181765 0.121691
0.369802 0.185702 0.123537
0.389364 0.188983 0.125261
0.409064 0.19234 0.127001
0.428687 0.195789 0.128466
0.448234 0.199176 0.129396
0.467735 0.202823 0.13022
0.486122 0.205768 0.131502
0.504021 0.20856 0.133089
0.521294 0.211032 0.135073
0.538613 0.213504 0.136294
0.0400244 0.100435 0.0839551
0.0472419 0.103822 0.0859083
0.0547494 0.107027 0.0878004
0.0642252 0.110796 0.0898604
0.0778363 0.115526 0.0920882
0.0920272 0.120333 0.0942702
0.105409 0.12491 0.0962844
0.11519 0.12871 0.098024
0.125963 0.132662 0.0999771
0.137835 0.136873 0.102373
0.153811 0.141802 0.104555
0.170428 0.146853 0.106828
0.186999 0.151827 0.109255
0.203204 0.156649 0.111864
0.219257 0.16144 0.114473
0.236378 0.166155 0.117021
0.254459 0.17084 0.119448
0.274022 0.17528 0.121782
0.293446 0.180011 0.124178
0.312825 0.184848 0.126452
0.332067 0.189914 0.128313
0.351278 0.194797 0.130144
0.370642 0.199313 0.131991
0.390311 0.203449 0.133974
0.41001 0.207385 0.135988
0.429847 0.211292 0.137438
0.449485 0.215076 0.138811
0.469001 0.218753 0.139788
0.48777 0.222095 0.141238
0.50605 0.225315 0.143023
0.523751 0.22826 0.145327
0.541344 0.231098 0.147295
0.558648 0.23357 0.147768
0.0417487 0.111955 0.0913252
0.0492561 0.115373 0.0931106
0.0573739 0.119036 0.0950332
0.0704051 0.123644 0.0972
0.0842451 0.128374 0.0993515
0.0975052 0.132921 0.101595
0.110002 0.137285 0.104036
0.122255 0.141604 0.106615
0.136522 0.14641 0.109255
0.151675 0.151461 0.111833
0.168399 0.156786 0.114336
0.185183 0.162219 0.116976
0.201953 0.167605 0.119661
0.218326 0.172946 0.122362
0.235218 0.178241 0.124956
0.25362 0.183581 0.127459
0.273121 0.188739 0.129931
0.293324 0.193896 0.13254
0.312978 0.199115 0.134707
0.332235 0.204196 0.136751
0.351308 0.209186 0.138689
0.370886 0.213916 0.140642
0.390692 0.218402 0.142641
0.410681 0.222629 0.144793
0.430686 0.226841 0.146639
0.450462 0.230671 0.14786
0.469993 0.234379 0.14902
0.48954 0.238132 0.150134
0.507668 0.241337 0.152071
0.525704 0.244541 0.154253
0.543648 0.247868 0.156466
0.561181 0.250675 0.157412
0.578653 0.253269 0.157809
0.043183 0.12311 0.0983749
0.0514992 0.127474 0.10042
0.061738 0.132204 0.102892
0.0760204 0.137316 0.10547
0.0900587 0.14226 0.108125
0.104128 0.14728 0.110887
0.117723 0.152224 0.113741
0.132235 0.157351 0.116594
0.148135 0.162737 0.119402
0.165377 0.168353 0.122179
0.183047 0.17406 0.125017
0.200107 0.179797 0.127749
0.216892 0.18555 0.130541
0.23328 0.191165 0.133303
0.251759 0.196674 0.135882
0.271397 0.202197 0.138354
0.292149 0.207675 0.140841
0.312383 0.213077 0.143145
0.331777 0.218158 0.14519
0.351003 0.223224 0.147189
0.370382 0.228199 0.149096
0.390463 0.232807 0.151186
0.410864 0.237385 0.153414
0.431312 0.241901 0.155581
0.450996 0.245808 0.156756
0.470726 0.249714 0.157778
0.49044 0.253605 0.159014
0.509392 0.257237 0.160693
0.527413 0.260578 0.162921
0.545388 0.263905 0.165331
0.563226 0.26717 0.167483
0.580865 0.270146 0.168139
0.598505 0.27335 0.169574
0.0416266 0.136126 0.107027
0.0524605 0.141466 0.109697
0.0669261 0.147051 0.112428
0.0829175 0.15288 0.115373
0.0975662 0.158297 0.118318
0.111955 0.163745 0.121431
0.125948 0.16907 0.124575
0.142733 0.174884 0.127489
0.160769 0.18088 0.130388
0.180194 0.187152 0.133394
0.198291 0.193149 0.136339
0.214939 0.198779 0.139101
0.231266 0.204288 0.141741
0.248463 0.209766 0.144259
0.26894 0.215381 0.146609
0.289738 0.22092 0.148974
0.310811 0.226459 0.151461
0.330465 0.231662 0.153353
0.350103 0.236851 0.155154
0.370047 0.24213 0.15697
0.390249 0.246967 0.158984
0.410376 0.251408 0.161151
0.430793 0.255863 0.163394
0.45098 0.260273 0.16524
0.470817 0.264408 0.166354
0.490929 0.268833 0.167803
0.510979 0.273518 0.169696
0.529244 0.277501 0.17229
0.547295 0.281437 0.174945
0.565591 0.285496 0.177539
0.583825 0.289555 0.179751
0.602045 0.293721 0.181994
0.619287 0.297795 0.185092
0.0414893 0.152636 0.117571
0.0580606 0.158648 0.120317
0.0757763 0.164904 0.123247
0.0914931 0.170657 0.12636
0.105394 0.175982 0.129656
0.119478 0.181323 0.132815
0.135317 0.186847 0.135729
0.154498 0.19295 0.138582
0.174151 0.19913 0.141482
0.194141 0.205341 0.144381
0.211002 0.210971 0.146838
0.228122 0.216632 0.149233
0.245594 0.222293 0.151598
0.265522 0.227909 0.154055
0.286351 0.233433 0.156588
0.307454 0.239002 0.159121
0.328161 0.244739 0.161334
0.34844 0.250477 0.163073
0.369055 0.256291 0.164996
0.3897 0.262074 0.167071
0.410101 0.267048 0.169406
0.430579 0.271992 0.171603
0.451087 0.276967 0.17377
0.471397 0.281895 0.175525
0.491661 0.286854 0.17734
0.511696 0.291752 0.179614
0.531167 0.296605 0.182376
0.54963 0.301076 0.185306
0.568429 0.305898 0.18819
0.587304 0.310811 0.191241
0.605692 0.315343 0.194232
0.623545 0.320027 0.197833
0.640345 0.32459 0.201053
0.0470436 0.169421 0.128786
0.0641489 0.175662 0.131868
0.0806287 0.181781 0.135042
0.0957046 0.18735 0.138125
0.111345 0.192889 0.140902
0.127962 0.198581 0.143572
0.147173 0.204623 0.146349
0.167071 0.210834 0.14931
0.18677 0.216999 0.152117
0.205646 0.223117 0.154696
0.223728 0.229236 0.156985
0.242329 0.23534 0.159335
0.261753 0.241474 0.161791
0.282948 0.247395 0.164431
0.304067 0.253361 0.166964
0.325261 0.259419 0.169345
0.346303 0.265553 0.171359
0.367407 0.271717 0.173449
0.388464 0.277882 0.175631
0.409415 0.283833 0.177951
0.430198 0.289494 0.180331
0.451179 0.295094 0.182574
0.472068 0.300664 0.184863
0.492622 0.306142 0.187182
0.513024 0.311589 0.189822
0.532937 0.316976 0.192752
0.552407 0.322454 0.196063
0.571694 0.327871 0.199374
0.590646 0.332982 0.202777
0.609384 0.337957 0.206226
0.627924 0.342733 0.209628
0.644831 0.347585 0.213001
0.661234 0.352529 0.216449
0.0514382 0.186007 0.140581
0.0677958 0.192081 0.143572
0.0845808 0.198108 0.146426
0.101991 0.204074 0.148867
0.120211 0.210086 0.151339
0.13901 0.216297 0.15404
0.158968 0.222599 0.15697
0.179004 0.229023 0.159869
0.199039 0.23563 0.162646
0.218204 0.242512 0.165026
0.237568 0.249454 0.167468
0.25774 0.256291 0.16994
0.27895 0.263035 0.172519
0.300847 0.269734 0.175006
0.322728 0.276478 0.177203
0.344381 0.283192 0.179431
0.365545 0.289769 0.181827
0.386816 0.296193 0.184314
0.408042 0.30248 0.186847
0.429648 0.308522 0.189364
0.451316 0.314565 0.191882
0.472557 0.320394 0.1944
0.493492 0.326131 0.197147
0.51429 0.331884 0.200137
0.534447 0.337545 0.203464
0.554406 0.343297 0.206973
0.57406 0.349111 0.210666
0.593484 0.35465 0.21442
0.612696 0.360006 0.21799
0.631876 0.365408 0.221561
0.650278 0.370733 0.225147
0.666484 0.375814 0.228763
0.682277 0.380911 0.232624
0.0530709 0.203281 0.151904
0.068925 0.210163 0.154711
0.0859388 0.216968 0.157031
0.103349 0.223789 0.159442
0.122805 0.230854 0.162158
0.144884 0.23798 0.165118
0.169146 0.245274 0.168109
0.191089 0.252293 0.170825
0.212482 0.259373 0.17348
0.23183 0.26627 0.175998
0.252399 0.273243 0.178531
0.273808 0.280156 0.180972
0.29691 0.287221 0.183215
0.319554 0.294224 0.185473
0.341634 0.301122 0.187839
0.363226 0.307866 0.190478
0.384802 0.31458 0.19321
0.406531 0.321019 0.195987
0.428412 0.327398 0.19884
0.450294 0.3337 0.201724
0.471977 0.339818 0.204639
0.493416 0.345846 0.207721
0.514824 0.352087 0.211017
0.536034 0.358343 0.21445
0.556329 0.364416 0.218173
0.576425 0.370535 0.222156
0.596368 0.376684 0.226291
0.616098 0.38265 0.229999
0.635828 0.388754 0.23389
0.65536 0.394903 0.237751
0.672419 0.400717 0.241749
0.688365 0.406424 0.245899
0.704509 0.41239 0.250187
0.0487984 0.224948 0.162707
0.0637369 0.232227 0.165225
0.0797436 0.239246 0.167758
0.100664 0.246479 0.170504
0.125078 0.253895 0.173342
0.15407 0.261479 0.176272
0.180667 0.268788 0.178943
0.203479 0.275959 0.181628
0.224659 0.282948 0.18436
0.245899 0.290028 0.187106
0.268528 0.29723 0.189624
0.291691 0.304402 0.192035
0.315129 0.311711 0.194278
0.337667 0.318822 0.196948
0.360143 0.325917 0.199847
0.382406 0.332967 0.202823
0.404715 0.339818 0.205905
0.426688 0.346242 0.209064
0.448966 0.352789 0.21239
0.47129 0.359396 0.215854
0.493355 0.365957 0.218997
0.515602 0.372717 0.222309
0.538186 0.379705 0.225635
0.55874 0.386114 0.229603
0.578973 0.392508 0.233875
0.599329 0.399023 0.238346
0.61973 0.406088 0.24271
0.640192 0.41323 0.24683
0.659861 0.420172 0.251072
0.678691 0.427039 0.255436
0.695064 0.433661 0.260029
0.711498 0.440421 0.264408
0.728099 0.447303 0.268757
0.0421149 0.247517 0.173495
0.0575875 0.254612 0.176059
0.0745861 0.261921 0.178836
0.10341 0.269535 0.181537
0.134051 0.277134 0.184253
0.165682 0.284886 0.187182
0.189807 0.292149 0.18996
0.213443 0.299504 0.192981
0.23798 0.306889 0.196109
0.262272 0.314351 0.199069
0.285878 0.321736 0.201816
0.30927 0.329061 0.204471
0.332708 0.336522 0.207385
0.355779 0.343893 0.210376
0.379065 0.351232 0.213413
0.402716 0.358801 0.216403
0.425238 0.365789 0.219715
0.447974 0.373022 0.223331
0.470863 0.380438 0.227298
0.493919 0.388037 0.230991
0.516762 0.395712 0.234577
0.539422 0.403342 0.2383
0.561654 0.410971 0.242283
0.582452 0.418204 0.246967
0.603387 0.425498 0.251698
0.62446 0.432837 0.256474
0.645014 0.440116 0.261036
0.665232 0.447395 0.265599
0.684153 0.454597 0.270024
0.701869 0.461921 0.274434
0.718975 0.469306 0.27892
0.735759 0.476509 0.283406
0.752529 0.483711 0.288045
0.0425116 0.268971 0.184558
0.0548104 0.276768 0.186862
0.0774548 0.284642 0.189593
0.107958 0.292378 0.192615
0.139162 0.30016 0.195773
0.168551 0.308003 0.199054
0.195956 0.315801 0.202228
0.225528 0.32398 0.205692
0.255741 0.332296 0.209186
0.279896 0.340246 0.212131
0.304128 0.34818 0.215061
0.328618 0.35642 0.218204
0.352682 0.364508 0.221424
0.37673 0.372763 0.224582
0.40087 0.381094 0.227878
0.424567 0.389136 0.231418
0.447745 0.396719 0.235309
0.471519 0.404669 0.239353
0.495476 0.412818 0.24361
0.518486 0.420813 0.247593
0.541436 0.428855 0.251728
0.564324 0.436942 0.256092
0.58613 0.444663 0.260792
0.607614 0.45214 0.265461
0.628992 0.459739 0.270069
0.650172 0.467353 0.274586
0.671412 0.475029 0.279164
0.690761 0.48275 0.283864
0.709041 0.490517 0.288624
0.72639 0.498222 0.293568
0.743648 0.505898 0.298604
0.761044 0.513619 0.303944
0.777752 0.521385 0.309468
0.0399786 0.291859 0.196185
0.051606 0.300618 0.198611
0.0839551 0.308995 0.201877
0.116442 0.317479 0.205173
0.149294 0.32607 0.20853
0.181048 0.334554 0.211963
0.213336 0.343221 0.215656
0.245289 0.351797 0.219318
0.273838 0.360403 0.222873
0.299031 0.369024 0.226154
0.324712 0.377935 0.229648
0.350149 0.386694 0.233112
0.374701 0.395499 0.236683
0.398993 0.404105 0.240314
0.423407 0.412787 0.244007
0.447868 0.421241 0.24828
0.472465 0.429679 0.252659
0.496559 0.437903 0.256931
0.520531 0.446265 0.261006
0.544152 0.454673 0.265141
0.567041 0.462898 0.269627
0.589837 0.471092 0.274144
0.611872 0.47892 0.279026
0.633799 0.486946 0.283864
0.65568 0.495109 0.288869
0.677333 0.503334 0.294072
0.698497 0.51162 0.299443
0.716457 0.519615 0.304753
0.734157 0.527657 0.310201
0.75198 0.535882 0.315816
0.769757 0.544228 0.321553
0.787182 0.552453 0.327367
0.80209 0.560281 0.333547
0.0382391 0.31693 0.208957
0.0627146 0.326452 0.211933
0.0978256 0.335973 0.215274
0.132631 0.345296 0.218677
0.167559 0.354833 0.222354
0.202075 0.364004 0.226535
0.235004 0.373159 0.230594
0.266361 0.3823 0.234638
0.293538 0.391501 0.23827
0.320546 0.400656 0.242084
0.347066 0.409903 0.245899
0.372381 0.418845 0.249668
0.397116 0.427832 0.253193
0.422171 0.436805 0.257191
0.447395 0.445594 0.261387
0.472923 0.454444 0.265858
0.497887 0.463233 0.270268
0.522332 0.471855 0.274418
0.547112 0.480858 0.278538
0.571283 0.489708 0.282918
0.593988 0.498116 0.288014
0.616312 0.506325 0.293446
0.638743 0.514763 0.299214
0.661204 0.523354 0.304555
0.683619 0.532082 0.310338
0.705165 0.540841 0.316274
0.724376 0.54931 0.322148
0.742214 0.557488 0.327932
0.76022 0.56611 0.333989
0.778195 0.574823 0.340185
0.796048 0.583673 0.346319
0.811414 0.592096 0.353079
0.824979 0.600259 0.360342
0.0478218 0.344701 0.223209
0.0834516 0.355047 0.226246
0.120104 0.365484 0.229862
0.155718 0.375494 0.23386
0.190982 0.385214 0.238178
0.225986 0.394781 0.242481
0.256794 0.404196 0.246448
0.286748 0.41384 0.250446
0.315038 0.423316 0.25452
0.342184 0.432593 0.258244
0.368933 0.441993 0.261982
0.395193 0.451347 0.2654
0.421408 0.460746 0.269337
0.447272 0.469871 0.273747
0.473136 0.479072 0.278737
0.498894 0.488457 0.283833
0.523949 0.497551 0.288197
0.549371 0.506981 0.29305
0.574762 0.516472 0.298192
0.598047 0.525292 0.303655
0.620813 0.533898 0.309346
0.643717 0.542809 0.315282
0.666728 0.551781 0.321309
0.689799 0.560784 0.327474
0.711025 0.569741 0.33373
0.731594 0.579034 0.340124
0.750286 0.588006 0.346319
0.768704 0.597055 0.352728
0.787045 0.606195 0.359136
0.804471 0.615167 0.365942
0.821332 0.624308 0.373114
0.834699 0.632898 0.381109
0.848096 0.641596 0.389151
0.0687724 0.373556 0.239155
0.105699 0.384695 0.242741
0.141955 0.3953 0.246662
0.178027 0.405661 0.250721
0.214786 0.415976 0.254551
0.248768 0.426184 0.258442
0.279194 0.436057 0.262654
0.308431 0.44593 0.266972
0.337301 0.45568 0.271244
0.364767 0.465354 0.275105
0.392538 0.475303 0.278965
0.420401 0.485206 0.282963
0.446967 0.494865 0.287968
0.473121 0.504326 0.293248
0.499535 0.513954 0.298451
0.525643 0.523552 0.3037
0.551537 0.533288 0.30898
0.577173 0.543038 0.314763
0.601984 0.552499 0.320607
0.625452 0.561868 0.326436
0.649165 0.57142 0.332616
0.672755 0.581003 0.338994
0.696239 0.590555 0.345815
0.719112 0.60032 0.352575
0.738796 0.609796 0.359106
0.757992 0.619058 0.365682
0.777005 0.628534 0.372427
0.795941 0.638071 0.378988
0.814588 0.647684 0.385855
0.830045 0.656626 0.39382
0.84416 0.664988 0.402213
0.857389 0.673304 0.410971
0.870649 0.681636 0.419501
0.0906539 0.403479 0.256352
0.127214 0.415106 0.260563
0.165393 0.426093 0.263981
0.203525 0.437293 0.267384
0.241581 0.448631 0.270695
0.271702 0.458579 0.275059
0.301244 0.468498 0.279637
0.331365 0.478706 0.284382
0.360662 0.489128 0.288869
0.389517 0.499428 0.293141
0.41828 0.509819 0.297932
0.446647 0.520027 0.302998
0.473808 0.530068 0.308614
0.500938 0.540276 0.314412
0.527916 0.550286 0.320104
0.554803 0.56051 0.326162
0.581048 0.570672 0.332357
0.606027 0.580545 0.338369
0.630503 0.590585 0.344686
0.655024 0.600595 0.350973
0.67921 0.610742 0.357931
0.703243 0.620951 0.364996
0.72639 0.631052 0.372229
0.746609 0.640314 0.37908
0.765789 0.649546 0.386252
0.78497 0.658839 0.393484
0.803784 0.667826 0.400534
0.822248 0.676951 0.408026
0.837873 0.685588 0.416373
0.851728 0.693889 0.425299
0.864927 0.701946 0.434073
0.878035 0.70985 0.443061
0.891157 0.718105 0.452552
0.112779 0.434424 0.273777
0.150546 0.446479 0.277272
0.189441 0.458183 0.280598
0.226352 0.46981 0.284367
0.261067 0.48098 0.28864
0.293294 0.491569 0.293614
0.325353 0.502297 0.298421
0.357076 0.513039 0.303181
0.386679 0.52369 0.308034
0.416281 0.534463 0.313237
0.445533 0.545144 0.318883
0.474083 0.555947 0.324834
0.502556 0.567025 0.331212
0.530221 0.577585 0.337484
0.558114 0.588479 0.344182
0.585885 0.599298 0.350896
0.611521 0.609934 0.357656
0.636423 0.620432 0.364279
0.661402 0.630884 0.371237
0.68658 0.641413 0.37818
0.711498 0.651637 0.385107
0.73373 0.661463 0.392401
0.754467 0.670649 0.399908
0.773342 0.679088 0.407614
0.792508 0.687831 0.415396
0.811734 0.696651 0.422965
0.829023 0.70515 0.431083
0.845258 0.713695 0.439734
0.858732 0.72195 0.449149
0.872221 0.73022 0.458167
0.885649 0.738369 0.466957
0.8981 0.746731 0.475929
0.909834 0.755154 0.484916
0.13579 0.46685 0.290227
0.174762 0.478935 0.29369
0.212055 0.491081 0.297658
0.248127 0.503044 0.302312
0.283146 0.514443 0.3075
0.317662 0.525887 0.312856
0.350118 0.537316 0.318151
0.382574 0.548699 0.323644
0.415152 0.560143 0.329488
0.444678 0.571221 0.335653
0.474006 0.582589 0.342199
0.503075 0.593835 0.348882
0.532418 0.605142 0.355901
0.561852 0.61648 0.363012
0.589822 0.627375 0.37023
0.61709 0.638178 0.377462
0.642374 0.648356 0.384833
0.667643 0.658595 0.392203
0.692683 0.66862 0.399588
0.717342 0.67863 0.407095
0.740612 0.688258 0.414801
0.760632 0.697307 0.422644
0.780102 0.706218 0.430396
0.79942 0.715007 0.438254
0.818753 0.723995 0.446311
0.836851 0.732845 0.454627
0.851362 0.741024 0.463478
0.865415 0.74934 0.472541
0.879255 0.757565 0.481544
0.892622 0.765347 0.490364
0.905486 0.773159 0.499352
0.915694 0.780728 0.508598
0.925155 0.788098 0.5178
0.163989 0.49958 0.307576
0.200137 0.51284 0.31133
0.23566 0.5252 0.316365
0.271153 0.537499 0.321965
0.307317 0.549569 0.328008
0.342397 0.561486 0.334005
0.37731 0.57348 0.340398
0.411856 0.585306 0.347021
0.445014 0.596963 0.353902
0.475074 0.608225 0.360983
0.505241 0.619638 0.368215
0.535637 0.631022 0.375708
0.565576 0.642298 0.383062
0.594644 0.653468 0.390585
0.621149 0.66389 0.398169
0.647623 0.674464 0.406043
0.673854 0.684886 0.414023
0.699275 0.695186 0.421592
0.723949 0.705303 0.42945
0.746777 0.715206 0.437675
0.767391 0.724453 0.445853
0.786969 0.733608 0.454124
0.806622 0.742809 0.462074
0.825635 0.751812 0.470039
0.843229 0.760693 0.478264
0.858259 0.76875 0.486931
0.872251 0.776608 0.49601
0.885954 0.783948 0.504875
0.89929 0.790753 0.513939
0.911788 0.797696 0.523384
0.921859 0.80441 0.532845
0.930678 0.811093 0.542504
0.939391 0.81767 0.552132
0.18883 0.535134 0.327092
0.220737 0.549035 0.331624
0.256779 0.561227 0.337636
0.294286 0.573281 0.344106
0.332967 0.585489 0.350927
0.371954 0.597925 0.358053
0.409491 0.610086 0.365423
0.444404 0.621897 0.372992
0.476646 0.633371 0.380652
0.508553 0.64506 0.388602
0.539223 0.656474 0.396567
0.569711 0.667887 0.40441
0.599619 0.679301 0.412345
0.626871 0.690059 0.42031
0.653407 0.700648 0.428153
0.679637 0.71136 0.436164
0.705989 0.722072 0.444327
0.732509 0.732876 0.452613
0.753902 0.741985 0.461158
0.773999 0.750774 0.469474
0.793606 0.759197 0.477684
0.81326 0.767636 0.485801
0.832654 0.77583 0.493874
0.849165 0.783612 0.502617
0.864225 0.791028 0.511467
0.878035 0.797986 0.520592
0.891844 0.805005 0.529747
0.905653 0.811978 0.539025
0.916915 0.818875 0.548592
0.926772 0.825635 0.558129
0.935531 0.832212 0.567849
0.944244 0.838773 0.577737
0.952789 0.845136 0.587396
0.20354 0.570214 0.348501
0.244007 0.583032 0.355108
0.288487 0.595438 0.362432
0.329915 0.607858 0.369757
0.370382 0.620295 0.377218
0.410208 0.63299 0.384863
0.444587 0.645197 0.39295
0.478157 0.65745 0.401282
0.511604 0.669886 0.409827
0.543557 0.68188 0.418189
0.575174 0.693828 0.426413
0.604364 0.704936 0.434607
0.632456 0.715648 0.442847
0.659236 0.726116 0.451362
0.685954 0.736355 0.459815
0.712795 0.746639 0.468452
0.737423 0.756176 0.476692
0.760281 0.765209 0.48484
0.78027 0.773709 0.493431
0.800061 0.781765 0.501656
0.819883 0.789639 0.510018
0.838621 0.797192 0.51838
0.855863 0.804761 0.527276
0.869947 0.811948 0.536553
0.883879 0.819059 0.545815
0.898009 0.826368 0.555261
