public/luts/Alen Palander - Los Angeles.cube
TITLE "Generated by Resolve"
LUT_3D_SIZE 5
0.021149 0.0229343 0.0231174
0.229114 0.0321202 0.0247807
0.371771 0.0293278 0.0261234
0.531121 0.0290837 0.0288701
0.686015 0.0338293 0.03682
0.0517281 0.200641 0.0258793
0.366598 0.266209 0.0314946
0.577478 0.304906 0.0411536
0.726116 0.299199 0.0455482
0.849058 0.295399 0.0488746
0.170459 0.434699 0.0313725
0.487526 0.496132 0.0522469
0.675135 0.517555 0.0671702
0.820081 0.520821 0.0740368
0.91812 0.497856 0.0710307
0.270253 0.605295 0.0437934
0.550607 0.652827 0.0694743
0.730816 0.673594 0.0869764
0.855222 0.676249 0.0929274
0.948257 0.661662 0.0905623
0.221164 0.708324 0.0434424
0.568887 0.775998 0.0773632
0.743175 0.798581 0.0942702
0.868009 0.8103 0.104021
0.961532 0.811582 0.105364
0.0191653 0.0230106 0.162982
0.173495 0.0276951 0.191821
0.375982 0.0285191 0.207065
0.532815 0.0297704 0.209186
0.685557 0.0348211 0.221759
0.0259403 0.223606 0.245396
0.289021 0.286488 0.276036
0.496345 0.238453 0.220111
0.63978 0.179065 0.176913
0.835431 0.30779 0.283436
0.0587015 0.433677 0.268116
0.386267 0.513054 0.219837
0.672404 0.563607 0.255009
0.79942 0.510658 0.2
0.893797 0.523125 0.306493
0.123659 0.597894 0.225177
0.363424 0.63122 0.142977
0.694835 0.703441 0.195712
0.865599 0.732891 0.223011
0.93904 0.698558 0.30631
0.124056 0.70927 0.179828
0.390829 0.755138 0.178531
0.639094 0.812665 0.256641
0.833722 0.857908 0.329397
0.957885 0.871321 0.335058
0.0208896 0.0227665 0.297627
0.142596 0.0257725 0.316442
0.337026 0.0268101 0.332708
0.520897 0.0284886 0.35613
0.682048 0.0343023 0.368368
0.0271305 0.221012 0.409537
0.141634 0.193561 0.389425
0.441672 0.229343 0.431113
0.630961 0.179767 0.395651
0.824491 0.300755 0.425772
0.0344701 0.422599 0.47776
0.202533 0.49482 0.509392
0.533196 0.527672 0.509377
0.721935 0.494987 0.461311
0.875532 0.521599 0.480705
0.0465705 0.580316 0.464607
0.181628 0.628641 0.444526
0.552392 0.694697 0.470024
0.817136 0.744656 0.519417
0.920897 0.717586 0.52549
0.0551003 0.70663 0.435279
0.262272 0.769162 0.450858
0.565316 0.828443 0.490135
0.807919 0.87837 0.553445
0.957702 0.899519 0.571496
0.0229191 0.0237278 0.430671
0.123903 0.0251011 0.429938
0.293294 0.0263066 0.456565
0.500038 0.0271916 0.493004
0.666606 0.0331884 0.498573
0.0296025 0.223362 0.555383
0.11809 0.147601 0.497047
0.292988 0.172198 0.527306
0.578424 0.174212 0.564508
0.779492 0.274754 0.564843
0.0336004 0.407126 0.615793
0.124849 0.39968 0.621149
0.328252 0.435721 0.610407
0.650416 0.476677 0.641489
0.834592 0.512261 0.62475
0.0355688 0.541695 0.637919
0.128618 0.559976 0.65922
0.365988 0.669749 0.693401
0.726879 0.715465 0.703288
0.897154 0.704417 0.674052
0.0354009 0.660197 0.60795
0.146532 0.720867 0.639582
0.460044 0.83621 0.703044
0.750927 0.882658 0.722637
0.950866 0.912047 0.754101
0.0256657 0.0282139 0.559701
0.116854 0.0285191 0.548119
0.259205 0.0315251 0.578302
0.443748 0.0314031 0.604212
0.639139 0.0315251 0.628504
0.0313573 0.229877 0.675349
0.121035 0.207309 0.651423
0.257252 0.246342 0.677592
0.514214 0.275013 0.712215
0.729381 0.281941 0.734997
0.0337987 0.396735 0.725078
0.128161 0.404211 0.725078
0.28716 0.444541 0.742657
0.564279 0.485618 0.770901
0.7888 0.505348 0.795453
0.0360266 0.520882 0.746807
0.138552 0.575601 0.771099
0.373404 0.654978 0.8103
0.639765 0.682963 0.829313
0.863462 0.705226 0.850843
0.0357366 0.627802 0.747677
0.133379 0.682994 0.780362
0.35613 0.806607 0.833082
0.702998 0.886961 0.882612
0.946685 0.923751 0.918654
