luts/Alen Palander - Big Sur.cube
TITLE "Generated by Resolve"
LUT_3D_SIZE 33
0 0 0
0.00828565 0 0.000488289
0.0286564 0.000610361 0.000961318
0.0485084 0.00479133 0.000289921
0.0747234 0.00756847 1.5259e-05
0.106157 0.00418097 0
0.137789 0.00077821 0
0.172869 0.000198367 0
0.209033 1.5259e-05 0
0.247944 0 0
0.290013 0 0
0.336889 0 0
0.380896 0 0
0.423651 0 0
0.471901 0 0
0.517693 0 0
0.55668 0 0
0.585565 0 0
0.606989 0 0
0.606989 0 0
0.606989 0 0
0.606989 0 0
0.606989 0 0
0.606989 0 0
0.606989 0 0
0.606989 0 0
0.606989 0 0
0.606989 0 0
0.606989 0 0
0.606989 0 0
0.606989 0 0
0.606989 0 0
0.606989 0 0
0 0.00270085 0.000198367
0.000335698 0.00030518 4.57771e-05
0.0219577 4.57771e-05 0.00123598
0.0408331 0.0021973 0.000503548
0.0641337 0.00781262 3.0518e-05
0.0952468 0.00579843 0
0.127596 0.00175479 0
0.161715 0.000289921 0
0.19762 4.57771e-05 0
0.236316 0 0
0.276616 0 0
0.322972 0 0
0.36849 0 0
0.411124 0 0
0.45774 0 0
0.506523 0 0
0.546075 0 0
0.578256 0 0
0.603922 0 0
0.606989 0 0
0.606989 0 0
0.606989 0 0
0.606989 0 0
0.606989 0 0
0.606989 0 0
0.606989 0 0
0.606989 0 0
0.606989 0 0
0.606989 0 0
0.606989 0 0
0.606989 0 0
0.606989 0 0
0.606989 0 0
0 0.0166171 0.00120546
0 0.0142977 0.00103761
0.0144808 0.0123751 0.00134279
0.0350805 0.0123751 0.00289921
0.0569467 0.0151522 0.00195315
0.0873579 0.0124514 0.000320439
0.119112 0.00471504 1.5259e-05
0.151507 0.000381476 0
0.187457 0.000106813 0
0.225406 0 0
0.264622 0 0
0.309987 0 0
0.356802 0 0
0.399817 0 0
0.445243 0 0
0.494881 0 0
0.536095 0 0
0.57145 0 0
0.597467 0 0
0.606989 0 0
0.606989 0 0
0.606989 0 0
0.606989 0 0
0.606989 0 0
0.606989 0 0
0.606989 0 0
0.606989 0 0
0.606989 0 0
0.606989 0 0
0.606989 0 0
0.606989 0 0
0.606989 0 0
0.606989 0 0
0 0.0307927 0.00714122
0 0.0286717 0.00608835
0.00595102 0.0269932 0.00503548
0.0290837 0.0271763 0.00512703
0.0514992 0.0302586 0.00636301
0.0819562 0.0307317 0.00285344
0.117006 0.0266728 0.000442512
0.150652 0.0188449 0
0.186526 0.00947585 0
0.222202 0.00350958 0
0.25948 0.000732433 0
0.299641 9.15541e-05 0
0.343191 0 0
0.386603 0 0
0.430426 0 0
0.479561 0 0
0.524056 0 0
0.562966 0 0
0.589883 0 0
0.606989 0 0
0.606989 0 0
0.606989 0 0
0.606989 0 0
0.606989 0 0
0.606989 0 0
0.606989 0 0
0.606989 0 0
0.606989 0 0
0.606989 0 0
0.606989 0 0
0.606989 0 0
0.606989 0 0
0.606989 0 0
0 0.0467231 0.0133516
0 0.0442817 0.0125734
0 0.0420081 0.0118563
0.0211337 0.041001 0.00996414
0.0462654 0.0427253 0.00972
0.0752117 0.0471046 0.00852979
0.113832 0.0480507 0.00288396
0.151278 0.0438544 0.000381476
0.189456 0.0331273 1.5259e-05
0.22681 0.0189212 0
0.266224 0.00619516 0
0.305592 0.000808728 0
0.350942 0.000244144 0
0.393652 0.000122072 0
0.433341 9.15541e-05 0
0.476478 6.10361e-05 0
0.519371 4.57771e-05 0
0.553887 1.5259e-05 0
0.581659 0 0
0.606989 0 0
0.606989 0 0
0.606989 0 0
0.606989 0 0
0.606989 0 0
0.606989 0 0
0.606989 0 0
0.606989 0 0
0.606989 0 0
0.606989 0 0
0.606989 0 0
0.606989 0 0
0.606989 0 0
0.606989 0 0
0 0.0650797 0.0173342
0 0.0623331 0.0172732
0 0.0596017 0.0171969
0.00953689 0.0585031 0.016144
0.035172 0.0604257 0.0137484
0.0678416 0.0649882 0.0108339
0.108782 0.069276 0.00430304
0.150958 0.0699474 0.000961318
0.191806 0.0643626 4.57771e-05
0.233875 0.0513161 0
0.275624 0.0298009 0
0.316732 0.0129854 0
0.363165 0.00386053 0
0.408835 0.00115969 0
0.449302 0.000549325 0
0.490761 0.000335698 0
0.534951 0.000213626 0
0.570748 0.00015259 0
0.599237 0.000137331 0
0.619486 0.000106813 0
0.622431 7.62951e-05 0
0.617456 6.10361e-05 0
0.612604 3.0518e-05 0
0.60763 0 0
0.606989 0 0
0.606989 0 0
0.606989 0 0
0.606989 0 0
0.606989 0 0
0.606989 0 0
0.606989 0 0
0.606989 0 0
0.606989 0 0
0 0.0855116 0.0176547
0 0.082887 0.0177768
0 0.080354 0.0177157
0.00106813 0.0777295 0.0174868
0.0177462 0.07953 0.0157626
0.0563058 0.0843824 0.0113832
0.101244 0.090837 0.00527962
0.148211 0.0950942 0.00128176
0.192844 0.0954299 7.62951e-05
0.240345 0.0902724 1.5259e-05
0.285435 0.0791791 0
0.330312 0.0591592 0
0.377096 0.0357824 0
0.426642 0.015671 0
0.469581 0.00642405 0
0.510842 0.00207523 0
0.554772 0.000762951 0
0.593988 0.000549325 0
0.625071 0.000411994 0
0.643565 0.000366217 0
0.65272 0.00030518 0
0.64651 0.000244144 0
0.640146 0.000167849 0
0.635065 0.000137331 0
0.630213 0.000122072 0
0.625238 9.15541e-05 0
0.620264 6.10361e-05 0
0.61529 4.57771e-05 0
0.610178 1.5259e-05 0
0.606989 0 0
0.606989 0 0
0.606989 0 0
0.606989 0 0
0 0.104814 0.0157473
0 0.102281 0.0160067
0 0.0999313 0.0162356
0 0.0971084 0.0165103
0.00311284 0.0981003 0.0151827
0.0372931 0.103395 0.0112917
0.0882429 0.112078 0.00445563
0.142275 0.121248 0.00135805
0.192065 0.125475 0.00015259
0.242176 0.125902 0
0.291295 0.122103 0
0.340246 0.11165 0
0.388861 0.0935225 0
0.441978 0.0640574 0
0.490761 0.0340276 0
0.533211 0.0201572 0
0.577539 0.0135805 0
0.619776 0.00950637 0
0.651545 0.0059205 0
0.672923 0.00375372 0
0.688823 0.00234989 0
0.681987 0.000732433 0
0.675578 0.000549325 0
0.669367 0.000488289 0
0.663005 0.000411994 0
0.656641 0.000350958 0
0.650263 0.000274662 0
0.6439 0.000213626 0
0.637995 0.00015259 0
0.633021 0.000137331 0
0.628046 0.000106813 0
0.622934 7.62951e-05 0
0.61796 6.10361e-05 0
0 0.12253 0.0125277
0 0.120241 0.0129702
0 0.11812 0.0133822
0 0.115679 0.0138705
0.00077821 0.115419 0.0132448
0.0195163 0.121248 0.00889601
0.0701305 0.130892 0.00355535
0.129366 0.143343 0.00105287
0.186419 0.153475 0.000106813
0.238712 0.157549 0
0.292775 0.158556 0
0.3449 0.155657 0
0.395895 0.148302 0
0.451026 0.136004 0
0.504906 0.114458 0
0.550744 0.0899519 0
0.596139 0.0688029 0
0.643076 0.0490883 0
0.67837 0.0332189 0
0.704189 0.0198062 0
0.721004 0.0118868 0
0.721202 0.00999466 0
0.714199 0.00833143 0
0.707362 0.00671397 0
0.700343 0.005066 0
0.693507 0.00344854 0
0.686488 0.00180056 0
0.679652 0.000595102 0
0.673289 0.000518807 0
0.666926 0.000457771 0
0.660563 0.000381476 0
0.654185 0.000320439 0
0.647654 0.000259403 0
0 0.140658 0.00784314
0 0.138277 0.00852979
0 0.136065 0.00915541
0 0.133516 0.00988785
0 0.1308 0.0106661
0.00463874 0.136477 0.00810254
0.0455787 0.14696 0.00297551
0.110887 0.161334 0.000564584
0.173709 0.175677 0.000122072
0.230945 0.185168 0
0.28954 0.190661 0
0.343908 0.191775 0
0.398886 0.190356 0
0.454368 0.184787 0
0.512551 0.173831 0
0.562356 0.157702 0
0.609201 0.139803 0
0.65803 0.118166 0
0.69955 0.0947585 0
0.731701 0.0698863 0
0.74931 0.057908 0
0.757702 0.0520027 0
0.751476 0.0436408 0
0.745068 0.03505 0
0.738827 0.0266728 0
0.732433 0.0180819 0
0.72607 0.0111391 0
0.719051 0.00947585 0
0.712032 0.00782788 0
0.705013 0.00616464 0
0.698009 0.00451667 0
0.69099 0.00285344 0
0.68397 0.00120546 0
0 0.158724 0.00354009
0 0.156497 0.00395209
0 0.154437 0.00434882
0 0.151888 0.00483711
0 0.149233 0.00538643
0.000335698 0.152331 0.00512703
0.0161135 0.162997 0.00323491
0.0848096 0.178424 0.000244144
0.156756 0.196277 3.0518e-05
0.219821 0.209842 0
0.280003 0.218189 0
0.33872 0.222965 0
0.396063 0.224506 0
0.452064 0.223209 0
0.512505 0.218845 0
0.568093 0.210864 0
0.616953 0.200214 0
0.66772 0.186831 0
0.715267 0.168795 0
0.749783 0.14966 0
0.772808 0.131533 0
0.790036 0.121065 0
0.784772 0.107408 0
0.779507 0.0937514 0
0.774105 0.0797284 0
0.768704 0.0667735 0
0.76231 0.0581826 0
0.756069 0.0498054 0
0.74966 0.0412146 0
0.743267 0.0326238 0
0.736858 0.024033 0
0.730465 0.0154421 0
0.72372 0.0105898 0
0 0.176928 0.00103761
0 0.174685 0.00111391
0 0.172457 0.0011902
0 0.169909 0.00141909
0 0.167285 0.00192264
6.10361e-05 0.167132 0.00222782
0.00582895 0.177615 0.00172427
0.0531014 0.194385 0.000701915
0.13315 0.214664 4.57771e-05
0.205676 0.233661 0
0.267536 0.245304 0
0.331197 0.253742 0
0.390356 0.257847 0
0.448112 0.259266 0
0.508995 0.258595 0
0.569589 0.254398 0
0.621088 0.247776 0
0.671641 0.238956 0
0.724086 0.227085 0
0.762829 0.214145 0
0.791531 0.202167 0
0.810285 0.192706 0
0.813519 0.182742 0
0.809201 0.17116 0
0.804868 0.159503 0
0.799466 0.145495 0
0.794202 0.131838 0
0.788785 0.11783 0
0.78352 0.104173 0
0.778119 0.0901503 0
0.772717 0.0761425 0
0.766903 0.0643473 0
0.760494 0.0557565 0
0 0.195834 0.000457771
0 0.19353 0.000503548
0 0.191302 0.000579843
0 0.188724 0.000656138
0 0.186053 0.000747692
0 0.183215 0.000839246
0.000167849 0.190875 0.000518807
0.0217746 0.207568 0.000137331
0.101854 0.23003 1.5259e-05
0.183581 0.251682 0
0.252613 0.268482 0
0.319265 0.280324 0
0.381613 0.28806 0
0.442329 0.292271 0
0.503197 0.294545 0
0.567224 0.294789 0
0.623133 0.291646 0
0.673671 0.285557 0
0.727077 0.277852 0
0.772335 0.268696 0
0.806683 0.260655 0
0.827039 0.253895 0
0.838361 0.24799 0
0.834363 0.238682 0
0.830076 0.227268 0
0.82565 0.215381 0
0.821332 0.203784 0
0.817029 0.192203 0
0.812604 0.180301 0
0.808179 0.168414 0
0.803616 0.156283 0
0.798215 0.14226 0
0.792813 0.128252 0
0 0.214542 3.0518e-05
0 0.212329 9.15541e-05
0 0.210193 0.000137331
0 0.20763 0.000198367
0 0.204898 0.000259403
0 0.202167 0.000320439
9.15541e-05 0.205859 0.000289921
0.00660716 0.221103 0.000106813
0.0645609 0.243519 0
0.159091 0.269459 0
0.235782 0.290089 0
0.304067 0.304784 0
0.370382 0.315511 0
0.433494 0.32253 0
0.494972 0.327077 0
0.559853 0.32961 0
0.620813 0.329747 0
0.673442 0.326528 0
0.727138 0.322148 0
0.778988 0.316396 0
0.816297 0.31075 0
0.841932 0.305608 0
0.861051 0.301976 0
0.857771 0.293019 0
0.853758 0.283711 0
0.84976 0.274418 0
0.845747 0.26511 0
0.841733 0.255818 0
0.837629 0.246265 0
0.833585 0.236728 0
0.82916 0.224826 0
0.824735 0.21294 0
0.820325 0.201038 0
0 0.235645 0
0 0.233158 1.5259e-05
0 0.230762 1.5259e-05
0 0.227893 1.5259e-05
0 0.224933 1.5259e-05
0 0.221775 1.5259e-05
1.5259e-05 0.220111 3.0518e-05
0.00247196 0.233509 1.5259e-05
0.0352636 0.255528 0
0.122911 0.283223 0
0.213565 0.309041 0
0.286091 0.327276 0
0.356909 0.341192 0
0.422415 0.351034 0
0.485786 0.357656 0
0.550683 0.362631 0
0.616114 0.365011 0
0.671366 0.364233 0
0.725124 0.361791 0
0.781018 0.358907 0
0.823697 0.354803 0
0.854643 0.352148 0
0.874357 0.348837 0
0.879194 0.342565 0
0.875624 0.33431 0
0.872053 0.32604 0
0.868467 0.317784 0
0.864805 0.3093 0
0.861219 0.301045 0
0.857237 0.291798 0
0.853132 0.282246 0
0.849012 0.272709 0
0.844907 0.263157 0
0 0.257588 0
0 0.255009 0
0 0.252522 0
0 0.249531 0
0 0.246448 0
0 0.243259 0
0 0.239979 0
0.000137331 0.2486 0
0.00621042 0.268925 0
0.0784924 0.297581 0
0.184573 0.326787 0
0.26685 0.349142 0
0.340825 0.36553 0
0.409247 0.377813 0
0.474784 0.386175 0
0.539971 0.392905 0
0.607401 0.397879 0
0.667659 0.399893 0
0.72163 0.399069 0
0.777951 0.397803 0
0.8271 0.395438 0
0.863767 0.393408 0
0.88571 0.39086 0
0.898695 0.387381 0
0.895491 0.380041 0
0.892287 0.372686 0
0.889082 0.365347 0
0.885893 0.358007 0
0.882307 0.349752 0
0.878737 0.341482 0
0.875151 0.333227 0
0.871489 0.324742 0
0.867811 0.316258 0
0 0.278508 0
0 0.276112 0
0 0.273823 0
0 0.271168 0
0 0.26833 0
0 0.2654 0
0 0.262165 0
7.62951e-05 0.265034 0
0.00146487 0.283818 0
0.0359655 0.311879 0
0.150408 0.344839 0
0.245609 0.372442 0
0.32311 0.391531 0
0.396048 0.406287 0
0.464164 0.417014 0
0.529534 0.425055 0
0.597925 0.431495 0
0.66215 0.434928 0
0.717983 0.435447 0
0.774121 0.43505 0
0.829099 0.434287 0
0.869093 0.433204 0
0.896345 0.431724 0
0.915709 0.429816 0
0.914321 0.423194 0
0.911162 0.415991 0
0.908019 0.408774 0
0.904845 0.40148 0
0.901549 0.393942 0
0.89836 0.386603 0
0.895155 0.379263 0
0.891875 0.371725 0
0.88867 0.364385 0
0 0.298863 0
0 0.296498 0
0 0.294224 0
0 0.291585 0
0 0.288762 0
0 0.285832 0
0 0.282811 0
0 0.279789 0
0.000396735 0.296513 0
0.0132143 0.324102 0
0.0978714 0.358816 0
0.215106 0.392218 0
0.301518 0.416388 0
0.380835 0.434607 0
0.451484 0.447501 0
0.519448 0.457359 0
0.58851 0.46569 0
0.657954 0.471901 0
0.715206 0.473411 0
0.770993 0.474067 0
0.82858 0.474479 0
0.874174 0.473564 0
0.906477 0.472847 0
0.926619 0.471183 0
0.932921 0.466239 0
0.929793 0.458824 0
0.926665 0.451469 0
0.923506 0.444266 0
0.920363 0.437049 0
0.91722 0.429847 0
0.913985 0.422431 0
0.910826 0.415229 0
0.907607 0.407828 0
0 0.319982 0
0 0.317388 0
0 0.3149 0
0 0.312016 0
0 0.309148 0
0 0.306233 0
0 0.303319 0
0 0.300221 0
0.000122072 0.309438 0
0.00135805 0.334264 0
0.0422827 0.369253 0
0.174533 0.406226 0
0.275792 0.435676 0
0.35967 0.457771 0
0.435981 0.474754 0
0.506966 0.48719 0
0.576516 0.497414 0
0.64863 0.506752 0
0.712139 0.511666 0
0.767132 0.512612 0
0.825788 0.514641 0
0.876936 0.514992 0
0.91458 0.514885 0
0.937255 0.512795 0
0.951583 0.510597 0
0.948409 0.502983 0
0.945281 0.495567 0
0.942153 0.488136 0
0.939025 0.480705 0
0.935897 0.473274 0
0.932769 0.465858 0
0.929549 0.458228 0
0.926406 0.450904 0
0 0.342489 0
0 0.33991 0
0 0.337316 0
0 0.334417 0
0 0.331334 0
0 0.328145 0
0 0.324956 0
0 0.321569 0
4.57771e-05 0.32311 0
0.000747692 0.345647 0
0.0197299 0.378866 0
0.129015 0.418601 0
0.246326 0.45275 0
0.335119 0.477913 0
0.41648 0.497963 0
0.491035 0.51339 0
0.561929 0.525826 0
0.63415 0.536156 0
0.704067 0.544457 0
0.762478 0.547982 0
0.820264 0.550774 0
0.878767 0.554131 0
0.919295 0.554925 0
0.947524 0.555077 0
0.967498 0.555032 0
0.967376 0.548409 0
0.964263 0.540963 0
0.961074 0.533318 0
0.957885 0.525673 0
0.954696 0.518029 0
0.951415 0.510185 0
0.948241 0.502602 0
0.945113 0.495171 0
0 0.36527 0
0 0.363195 0
0 0.360601 0
0 0.357595 0
0 0.354391 0
0 0.35108 0
0 0.347768 0
0 0.34435 0
0 0.340841 0
0.000167849 0.356878 0
0.00691234 0.389013 0
0.0762798 0.429038 0
0.206058 0.46775 0
0.307347 0.497063 0
0.395529 0.520577 0
0.472831 0.538201 0
0.545968 0.552163 0
0.618326 0.563958 0
0.692454 0.574594 0
0.755383 0.580972 0
0.813382 0.584665 0
0.873228 0.58883 0
0.921416 0.591165 0
0.955505 0.592355 0
0.974243 0.591608 0
0.981567 0.588388 0
0.9794 0.582055 0
0.977188 0.575555 0
0.97496 0.569039 0
0.972747 0.562539 0
0.970535 0.556023 0
0.967285 0.548211 0
0.964096 0.540566 0
0 0.383413 0
0 0.381323 0
0 0.3794 0
0 0.377066 0
0 0.374578 0
0 0.372015 0
0 0.369436 0
0 0.366796 0
0 0.364065 0
9.15541e-05 0.37229 0
0.00112917 0.400519 0
0.0276799 0.439414 0
0.161288 0.48188 0
0.276097 0.516106 0
0.370092 0.54229 0
0.453635 0.563226 0
0.530236 0.579416 0
0.603601 0.593088 0
0.678416 0.604501 0
0.746181 0.612863 0
0.806058 0.618112 0
0.865705 0.622446 0
0.920073 0.626001 0
0.959091 0.627604 0
0.98146 0.626902 0
0.992279 0.625513 0
0.990662 0.619455 0
0.989059 0.613397 0
0.987442 0.60734 0
0.98584 0.601282 0
0.98378 0.594903 0
0.981567 0.588388 0
0.979339 0.581888 0
0 0.399863 0
0 0.397986 0
0 0.396246 0
0 0.394141 0
0 0.391882 0
0 0.389639 0
0 0.387243 0
0 0.384848 0
0 0.382284 0
1.5259e-05 0.381994 0
0.000564584 0.409201 0
0.0154574 0.44741 0
0.111482 0.491951 0
0.239963 0.532387 0
0.340688 0.562661 0
0.431495 0.587594 0
0.511742 0.60621 0
0.587518 0.621714 0
0.663279 0.634714 0
0.737179 0.645518 0
0.798627 0.651606 0
0.859236 0.657343 0
0.919234 0.661692 0
0.960189 0.663493 0
0.984619 0.663218 0
0.996246 0.66157 0
0.997665 0.656413 0
0.997116 0.650111 0
0.996551 0.643809 0
0.995499 0.637629 0
0.993881 0.631571 0
0.992279 0.625513 0
0.990662 0.619455 0
0 0.411673 0
0 0.410468 0
0 0.409262 0
0 0.407874 0
0 0.406424 0
0 0.404929 0
0 0.403342 0
0 0.401312 0
0 0.398932 0
0 0.39646 0
0.000137331 0.414755 0
0.00315862 0.45098 0
0.0604257 0.496498 0
0.195285 0.541009 0
0.307591 0.576013 0
0.40415 0.604135 0
0.489158 0.626642 0
0.567681 0.644709 0
0.644465 0.660243 0
0.722972 0.67451 0
0.790692 0.684627 0
0.850996 0.691234 0
0.912749 0.6972 0
0.961776 0.699962 0
0.989075 0.70042 0
0.997559 0.698192 0
1 0.694377 0
1 0.687984 0
0.999893 0.681788 0
0.999344 0.675486 0
0.998795 0.669184 0
0.99823 0.662882 0
0.997681 0.65658 0
0 0.424979 0
0 0.423407 0
0 0.42182 0
0 0.42005 0
0 0.418097 0
0 0.416144 0
0 0.414313 0
0 0.412726 0
0 0.411093 0
0 0.409506 0
6.10361e-05 0.418341 0
0.00102235 0.452903 0
0.0257877 0.497734 0
0.152514 0.546761 0
0.275715 0.585611 0
0.375769 0.615946 0
0.466011 0.64181 0
0.546761 0.662257 0
0.624292 0.680476 0
0.701213 0.695232 0
0.773709 0.70811 0
0.83711 0.716854 0
0.899809 0.724376 0
0.956985 0.730449 0
0.988998 0.732784 0
0.998917 0.732403 0
1 0.731212 0
1 0.726345 0
1 0.720256 0
1 0.713863 0
1 0.707485 0
1 0.701091 0
1 0.694713 0
0 0.431113 0
0 0.431113 0
0 0.431113 0
0 0.431113 0
0 0.431113 0
0 0.430549 0
0 0.428458 0
0 0.426444 0
0 0.424292 0
0 0.422202 0
0 0.42005 0
0.000411994 0.451392 0
0.013489 0.494759 0
0.10605 0.544015 0
0.242954 0.588724 0
0.350332 0.622843 0
0.443748 0.651423 0
0.526741 0.674693 0
0.605081 0.694957 0
0.681666 0.712154 0
0.758709 0.727352 0
0.823575 0.737667 0
0.886061 0.746319 0
0.948531 0.754513 0
0.988464 0.758694 0
0.999115 0.760235 0
1 0.759533 0
1 0.755688 0
1 0.750942 0
1 0.746075 0
1 0.741207 0
1 0.736339 0
1 0.731472 0
0 0.431113 0
0 0.431113 0
0 0.431113 0
0 0.431113 0
0 0.431113 0
0 0.431113 0
0 0.431113 0
0 0.431113 0
0 0.431113 0
0 0.431113 0
0 0.431113 0
0.000122072 0.451804 0
0.00164797 0.494423 0
0.0530098 0.543435 0
0.207507 0.591134 0
0.326207 0.628199 0
0.422797 0.658122 0
0.508675 0.683268 0
0.58613 0.703304 0
0.66305 0.721782 0
0.740139 0.738033 0
0.809003 0.751339 0
0.871153 0.761608 0
0.933837 0.771435 0
0.983291 0.778729 0
0.998611 0.782956 0
1 0.783703 0
1 0.781537 0
1 0.777325 0
1 0.773236 0
1 0.769039 0
1 0.764843 0
1 0.760632 0
0 0.431113 0
0 0.431113 0
0 0.431113 0
0 0.431113 0
0 0.431113 0
0 0.431113 0
0 0.431113 0
0 0.431113 0
0 0.431113 0
