luts/Alen Palander - Big Sur.cube
TITLE "Generated by Resolve"
LUT_3D_SIZE 5
0 0 0
0.209033 1.5259e-05 0
0.55668 0 0
0.606989 0 0
0.606989 0 0
0 0.12253 0.0125277
0.186419 0.153475 0.000106813
0.596139 0.0688029 0
0.700343 0.005066 0
0.647654 0.000259403 0
0 0.278508 0
0.00146487 0.283818 0
0.597925 0.431495 0
0.914321 0.423194 0
0.88867 0.364385 0
0 0.424979 0
0 0.411093 0
0.466011 0.64181 0
0.988998 0.732784 0
1 0.694713 0
0 0.431113 0
0 0.431113 0
0.181338 0.588296 0
0.870985 0.785458 0
1 0.821485 0
0 0.00636301 0.201373
0.222919 0 0.225635
0.572152 0 0.198337
0.626047 0 0.14316
0.622766 0 0.0609293
0 0.151888 0.180316
0.178378 0.167193 0.14609
0.59527 0.0546883 0.0395514
0.694652 0.00222782 0.00297551
0.636545 0.00015259 1.5259e-05
0 0.284398 0.0104829
0.000915541 0.270558 0.000534066
0.574456 0.414954 0
0.907851 0.408392 0
0.881743 0.34844 0
0 0.42005 0
0 0.407385 0
0.441962 0.627237 0
0.981262 0.721019 0
0.999908 0.681956 0
0 0.431113 0
0 0.431113 0
0.142596 0.575952 0
0.857038 0.782528 0
1 0.821485 0
0 0 0.406332
0.209445 0 0.482231
0.57377 0 0.494331
0.635157 0 0.471427
0.633417 0 0.435554
0 0.194003 0.479713
0.0596017 0.194675 0.507225
0.585153 0.0661479 0.502068
0.699611 0.0012665 0.438453
0.650217 9.15541e-05 0.355291
0 0.383215 0.447089
0.00015259 0.361959 0.415244
0.556893 0.505989 0.451209
0.922332 0.483391 0.382849
0.897322 0.403784 0.29868
0 0.523934 0.379995
0 0.499779 0.313802
0.386511 0.707012 0.190097
0.98146 0.768643 0.0191958
0.99939 0.707622 0.000885023
0 0.485847 0.154452
0 0.465553 0.0593881
0.0874495 0.5785 0.00015259
0.840253 0.779004 0
1 0.821485 0
0 0 0.465812
0.181765 0 0.577234
0.577646 0 0.646143
0.656382 0 0.659785
0.656382 0 0.659785
0 0.220172 0.637369
0.00556954 0.212299 0.699992
0.562936 0.0910048 0.759609
0.70898 0.0071107 0.719234
0.654337 3.0518e-05 0.629267
0 0.441047 0.733639
9.15541e-05 0.416785 0.714061
0.514061 0.561929 0.832593
0.912383 0.539117 0.812894
0.889586 0.457984 0.747509
0 0.586648 0.710765
0 0.568185 0.669795
0.180453 0.76907 0.726268
0.929519 0.841428 0.704707
0.997696 0.796246 0.649271
0 0.586862 0.621576
0 0.58056 0.589075
0.000381476 0.695583 0.600504
0.779522 0.91252 0.583719
1 0.948226 0.531426
0 0 0.465812
0.159258 0 0.572152
0.56437 0 0.64387
0.656382 0 0.659785
0.656382 0 0.659785
0 0.202075 0.626398
0.00518807 0.179767 0.674037
0.52961 0.0408789 0.7364
0.693004 0.00015259 0.706752
0.656382 0 0.659785
0 0.432197 0.739055
3.0518e-05 0.40763 0.731517
0.45771 0.557458 0.89247
0.905562 0.555886 0.928283
0.89044 0.489174 0.912825
0 0.598444 0.797009
0 0.58529 0.792264
0.0934615 0.776165 0.917205
0.884276 0.862593 0.980194
0.98201 0.831678 0.980209
0 0.618891 0.803723
0 0.618891 0.803723
0.000167849 0.719493 0.86183
0.705562 0.95172 0.956085
1 0.995956 0.943908
