luts/Alen Palander - Big Sur.cube
TITLE "Generated by Resolve"
LUT_3D_SIZE 9
0 0 0
0.0747234 0.00756847 1.5259e-05
0.209033 1.5259e-05 0
0.380896 0 0
0.55668 0 0
0.606989 0 0
0.606989 0 0
0.606989 0 0
0.606989 0 0
0 0.0467231 0.0133516
0.0462654 0.0427253 0.00972
0.189456 0.0331273 1.5259e-05
0.350942 0.000244144 0
0.519371 4.57771e-05 0
0.606989 0 0
0.606989 0 0
0.606989 0 0
0.606989 0 0
0 0.12253 0.0125277
0.00077821 0.115419 0.0132448
0.186419 0.153475 0.000106813
0.395895 0.148302 0
0.596139 0.0688029 0
0.721004 0.0118868 0
0.700343 0.005066 0
0.673289 0.000518807 0
0.647654 0.000259403 0
0 0.195834 0.000457771
0 0.186053 0.000747692
0.101854 0.23003 1.5259e-05
0.381613 0.28806 0
0.623133 0.291646 0
0.806683 0.260655 0
0.830076 0.227268 0
0.812604 0.180301 0
0.792813 0.128252 0
0 0.278508 0
0 0.26833 0
0.00146487 0.283818 0
0.32311 0.391531 0
0.597925 0.431495 0
0.829099 0.434287 0
0.914321 0.423194 0
0.901549 0.393942 0
0.88867 0.364385 0
0 0.36527 0
0 0.354391 0
0 0.340841 0
0.206058 0.46775 0
0.545968 0.552163 0
0.813382 0.584665 0
0.974243 0.591608 0
0.97496 0.569039 0
0.964096 0.540566 0
0 0.424979 0
0 0.418097 0
0 0.411093 0
0.0257877 0.497734 0
0.466011 0.64181 0
0.773709 0.70811 0
0.988998 0.732784 0
1 0.720256 0
1 0.694713 0
0 0.431113 0
0 0.431113 0
0 0.431113 0
0.000167849 0.460853 0
0.362768 0.647669 0
0.696025 0.746136 0
0.961654 0.803403 0
1 0.812604 0
1 0.802747 0
0 0.431113 0
0 0.431113 0
0 0.431113 0
0 0.431113 0
0.181338 0.588296 0
0.582727 0.716365 0
0.870985 0.785458 0
1 0.820157 0
1 0.821485 0
0 0.0127108 0.0856489
0.0698558 0.0180667 0.0783093
0.219074 1.5259e-05 0.0596628
0.389456 0 0.0141604
0.559136 0 0.00158694
0.610376 0 0.000106813
0.606989 0 0
0.606989 0 0
0.606989 0 0
0 0.0502785 0.0584421
0.0444038 0.0440223 0.0420386
0.190616 0.0283513 0.018555
0.344549 0.000213626 0.000366217
0.509377 1.5259e-05 0
0.606989 0 0
0.606989 0 0
0.606989 0 0
0.606989 0 0
0 0.120714 0.0211032
0.000549325 0.111467 0.0142367
0.17763 0.146822 0.000213626
0.385733 0.141268 0
0.584237 0.0577707 0
0.711772 0.00975052 0
0.693858 0.00354009 0
0.667414 0.000457771 0
0.641779 0.000183108 0
0 0.192676 0.000534066
0 0.182864 0.000839246
0.0921187 0.222873 3.0518e-05
0.371984 0.281361 0
0.613306 0.284291 0
0.798672 0.251911 0
0.825986 0.216297 0
0.808515 0.169329 0
0.787823 0.115312 0
0 0.275196 0
0 0.265034 0
0.00125124 0.276753 0
0.312612 0.383566 0
0.587228 0.423972 0
0.821225 0.427253 0
0.91133 0.416358 0
0.898604 0.387182 0
0.885634 0.357427 0
0 0.362158 0
0 0.350774 0
0 0.337224 0
0.192477 0.458671 0
0.536156 0.544991 0
0.804303 0.577905 0
0.969787 0.584817 0
0.97293 0.563043 0
0.961166 0.533532 0
0 0.422766 0
0 0.415885 0
0 0.409415 0
0.0214237 0.489693 0
0.455207 0.635233 0
0.765255 0.702281 0
0.985611 0.727443 0
1 0.714366 0
1 0.688823 0
0 0.431113 0
0 0.431113 0
0 0.431113 0
0.00015259 0.456886 0
0.351339 0.64387 0
0.687816 0.744183 0
0.954589 0.800412 0
1 0.810437 0
1 0.800336 0
0 0.431113 0
0 0.431113 0
0 0.431113 0
0 0.431113 0
0.164645 0.582956 0
0.574289 0.713954 0
0.864576 0.784115 0
0.999985 0.81976 0
1 0.821485 0
0 0.00636301 0.201373
0.0350805 0.00624094 0.21471
0.222919 0 0.225635
0.403189 0 0.216434
0.572152 0 0.198337
0.627436 0 0.17792
0.626047 0 0.14316
0.624506 0 0.104479
0.622766 0 0.0609293
0 0.0632181 0.198138
0.00302129 0.0542458 0.188281
0.192081 0.0272526 0.190875
0.360723 0.000183108 0.166155
0.524376 0 0.128328
0.623987 0 0.0913252
0.622202 0 0.0504921
0.619501 0 0.0227817
0.61651 0 0.00529488
0 0.151888 0.180316
1.5259e-05 0.13666 0.157763
0.178378 0.167193 0.14609
0.405539 0.151629 0.102037
0.59527 0.0546883 0.0395514
0.713954 0.0121614 0.00653086
0.694652 0.00222782 0.00297551
0.665019 0.000442512 0.000122072
0.636545 0.00015259 1.5259e-05
0 0.219333 0.10988
0 0.202335 0.0895857
0.0692607 0.234379 0.0491493
0.379934 0.288624 0.00317388
0.6121 0.282628 0.000137331
0.791501 0.243961 3.0518e-05
0.821118 0.203174 0
0.803479 0.155917 0
0.781994 0.100221 0
0 0.284398 0.0104829
0 0.268116 0.00357061
0.000915541 0.270558 0.000534066
0.300328 0.37438 0
0.574456 0.414954 0
0.810498 0.419043 0
0.907851 0.408392 0
0.895064 0.379065 0
0.881743 0.34844 0
0 0.357702 0
0 0.346319 0
0 0.332921 0
0.176364 0.448035 0
0.524514 0.536568 0
0.793408 0.569787 0
0.96437 0.576654 0
0.970474 0.555856 0
0.957641 0.525078 0
0 0.42005 0
0 0.413642 0
0 0.407385 0
0.0165866 0.479545 0
0.441962 0.627237 0
0.754986 0.695109 0
0.981262 0.721019 0
1 0.707317 0
0.999908 0.681956 0
0 0.431113 0
0 0.431113 0
0 0.431113 0
0.000122072 0.452033 0
0.337545 0.639292 0
0.677913 0.741817 0
0.945754 0.796078 0
1 0.807843 0
1 0.797421 0
0 0.431113 0
0 0.431113 0
0 0.431113 0
0 0.431113 0
0.142596 0.575952 0
0.564126 0.711055 0
0.857038 0.782528 0
0.999969 0.819272 0
1 0.821485 0
0 0 0.307012
0.0110628 0 0.327932
0.215747 0 0.357168
0.399634 0 0.359884
0.572625 0 0.356237
0.632258 0 0.349126
0.631876 0 0.328878
0.631479 0 0.308141
0.630945 0 0.28632
0 0.0625315 0.3187
0.000381476 0.0454261 0.309895
0.176959 0.0110933 0.333165
0.352682 6.10361e-05 0.320851
0.525719 0 0.305669
0.631357 0 0.301961
0.630793 0 0.280232
0.630167 0 0.257603
0.629419 0 0.233082
0 0.175647 0.339696
0 0.158862 0.318303
0.124895 0.188281 0.349401
0.397971 0.166979 0.350103
0.595026 0.0532692 0.324819
0.716213 0.0152438 0.29836
0.702266 0.00132753 0.258427
0.675547 0.000549325 0.214557
0.650782 0.000122072 0.168948
0 0.26424 0.31429
0 0.248112 0.293675
0.00564584 0.276143 0.297154
0.360922 0.332052 0.299687
0.621836 0.323033 0.257588
0.807294 0.285649 0.205127
0.839521 0.241047 0.160723
0.818936 0.183795 0.0961776
0.795026 0.119295 0.0346685
0 0.345129 0.261524
0 0.327535 0.238697
0.000167849 0.324804 0.214603
0.28397 0.431205 0.174762
0.595804 0.463569 0.0805524
0.822995 0.454215 0.012604
0.921935 0.436149 0.00758373
0.905852 0.395514 0.000808728
0.887709 0.353307 0.000350958
0 0.416953 0.175402
0 0.396841 0.140383
0 0.373648 0.101778
0.137346 0.483513 0.0163119
0.537346 0.56408 0.000183108
0.800443 0.582147 0.000167849
0.963256 0.577401 0.000106813
0.967163 0.547631 1.5259e-05
0.953948 0.516228 0
0 0.45124 0.0408179
0 0.436759 0.0179904
0 0.420798 0.00260929
0.0108034 0.478492 9.15541e-05
0.428153 0.618906 0
0.744259 0.687633 0
0.97615 0.714076 0
1 0.699916 0
0.999268 0.674662 0
0 0.434455 0.000671397
0 0.431113 0
0 0.431113 0
9.15541e-05 0.446952 0
0.322759 0.634363 0
0.667277 0.739284 0
0.936217 0.791424 0
1 0.80502 0
1 0.794308 0
0 0.431113 0
0 0.431113 0
0 0.431113 0
0 0.431113 0
0.119463 0.568612 0
0.553445 0.708019 0
0.848737 0.780789 0
0.999954 0.818738 0
1 0.821485 0
0 0 0.406332
0.00132753 0 0.435691
0.209445 0 0.482231
0.402197 0 0.493935
0.57377 0 0.494331
0.636286 0 0.48893
0.635157 0 0.471427
0.634165 0 0.45359
0.633417 0 0.435554
0 0.0528267 0.4271
0.000167849 0.0281529 0.41503
0.156176 0.00231937 0.453147
0.343908 1.5259e-05 0.448493
0.523491 0 0.446952
0.633936 0 0.448234
0.633234 0 0.430716
0.633021 0 0.411246
0.632837 0 0.391714
0 0.194003 0.479713
0 0.174838 0.457954
0.0596017 0.194675 0.507225
0.381064 0.168322 0.519142
0.585153 0.0661479 0.502068
0.70959 0.0124514 0.478798
0.699611 0.0012665 0.438453
0.672999 0.000350958 0.394842
0.650217 9.15541e-05 0.355291
0 0.292332 0.475334
0 0.275837 0.4542
0.000869764 0.299672 0.472389
0.346029 0.365072 0.492836
0.605646 0.348119 0.49514
0.801129 0.310445 0.476905
0.838849 0.269368 0.45623
0.819211 0.20885 0.421241
0.797574 0.144488 0.384344
0 0.383215 0.447089
0 0.366079 0.426215
0.00015259 0.361959 0.415244
0.20499 0.46746 0.44625
0.556893 0.505989 0.451209
0.813169 0.499321 0.403021
0.922332 0.483391 0.382849
0.910857 0.445396 0.341527
0.897322 0.403784 0.29868
0 0.466896 0.408301
0 0.450278 0.386511
0 0.430381 0.360342
0.0255741 0.540307 0.370504
0.500282 0.625681 0.337179
0.791775 0.644572 0.27155
0.967056 0.640558 0.204517
0.978744 0.610605 0.145464
0.968338 0.571954 0.0777905
0 0.523934 0.379995
0 0.513191 0.350545
0 0.499779 0.313802
0.000427253 0.554711 0.285664
0.386511 0.707012 0.190097
0.742809 0.75845 0.0447852
0.98146 0.768643 0.0191958
1 0.74519 0.00265507
0.99939 0.707622 0.000885023
0 0.520134 0.304646
0 0.512993 0.273411
0 0.504036 0.234241
6.10361e-05 0.505135 0.185
0.24918 0.689097 0.045655
0.659693 0.780301 0.00776684
0.934966 0.817395 0.000366217
1 0.81944 0.000183108
1 0.79884 7.62951e-05
0 0.485847 0.154452
0 0.476509 0.110704
0 0.465553 0.0593881
0 0.455161 0.0293278
0.0874495 0.5785 0.00015259
0.543511 0.711681 6.10361e-05
0.840253 0.779004 0
0.999939 0.818204 0
1 0.821485 0
0 0 0.465812
0.000900282 0 0.505776
0.191836 0 0.579431
0.402502 0 0.614603
0.579828 0 0.627985
0.649668 0 0.626551
0.647501 0 0.612329
0.645609 0 0.594217
0.643748 0 0.576013
0 0.0495613 0.522026
0.000167849 0.0142824 0.51014
0.124956 0.00201419 0.563851
0.337713 0 0.57348
0.527581 0 0.587045
0.645045 0 0.5888
0.643259 0 0.571176
0.641474 0 0.553292
0.639735 0 0.532952
0 0.216205 0.609018
0 0.193256 0.586572
0.0270085 0.205203 0.647837
0.363699 0.171496 0.670848
0.576257 0.0744945 0.655024
0.705791 0.00787366 0.629114
0.69839 0.0011902 0.583688
0.670863 0.00015259 0.536614
0.647761 6.10361e-05 0.495109
0 0.321721 0.622827
0 0.30457 0.602716
0.000228885 0.321019 0.623667
0.290883 0.377356 0.677089
0.591348 0.366293 0.678462
0.793042 0.330327 0.667155
0.83624 0.289219 0.647105
0.815198 0.219806 0.611337
0.792477 0.145617 0.574517
0 0.411658 0.604013
0 0.394537 0.583978
0.000122072 0.388006 0.573297
0.0957046 0.494774 0.635889
0.554376 0.543709 0.636912
0.79556 0.526543 0.631251
0.91603 0.511788 0.61886
0.905394 0.474418 0.587106
0.892958 0.433417 0.554788
0 0.499641 0.581704
0 0.484077 0.562371
0 0.465644 0.539803
0.00363165 0.566781 0.575586
0.454047 0.65272 0.588174
0.751766 0.676982 0.585138
0.953109 0.674617 0.548074
0.969284 0.647379 0.518791
0.960235 0.611643 0.485328
0 0.560739 0.563333
0 0.551781 0.539315
0 0.54023 0.511513
0.000167849 0.590143 0.51191
0.265415 0.747387 0.524529
0.703578 0.804593 0.493187
0.958068 0.817655 0.452399
1 0.799603 0.418799
0.99913 0.766995 0.372457
0 0.566751 0.519799
0 0.563439 0.503594
0 0.559487 0.484291
3.0518e-05 0.561059 0.46595
0.0744335 0.754253 0.488716
0.604547 0.852613 0.447807
0.90396 0.894759 0.367361
1 0.903487 0.293263
1 0.885512 0.207187
0 0.552041 0.448737
0 0.548058 0.430167
0 0.542931 0.406699
0 0.537316 0.381064
0.00766003 0.66363 0.375021
0.488731 0.805631 0.316396
0.822477 0.867643 0.198383
0.999939 0.896773 0.0691997
1 0.888701 0.0420233
0 0 0.465812
0.000656138 0 0.501503
0.181765 0 0.577234
0.39408 0 0.617716
0.577646 0 0.646143
0.656382 0 0.659785
0.656382 0 0.659785
0.656382 0 0.659785
0.656382 0 0.659785
0 0.0376898 0.514473
0.000167849 0.0127871 0.509056
0.108156 0.00132753 0.573388
0.331594 0 0.607355
0.52755 0 0.638239
0.656382 0 0.659785
0.656382 0 0.659785
0.656382 0 0.659785
0.656382 0 0.659785
0 0.220172 0.637369
0 0.200153 0.625254
0.00556954 0.212299 0.699992
0.337438 0.189822 0.751354
0.562936 0.0910048 0.759609
0.711482 0.0195163 0.756497
0.70898 0.0071107 0.719234
0.680415 0.000122072 0.673152
0.654337 3.0518e-05 0.629267
0 0.342428 0.70222
0 0.328542 0.695583
0.000167849 0.3467 0.73579
0.213001 0.41033 0.820752
0.573312 0.403326 0.84242
0.788403 0.366705 0.841505
0.841825 0.318746 0.82295
0.821164 0.24303 0.784924
0.796521 0.147707 0.742229
0 0.441047 0.733639
0 0.42562 0.720668
9.15541e-05 0.416785 0.714061
0.0402838 0.522972 0.806348
0.514061 0.561929 0.832593
0.779507 0.55404 0.827543
0.912383 0.539117 0.812894
0.901671 0.499611 0.780835
0.889586 0.457984 0.747509
0 0.526787 0.731594
0 0.512093 0.715389
0 0.494179 0.69485
0.00166323 0.58677 0.745754
0.3879 0.680369 0.78175
0.740581 0.710658 0.775433
0.938811 0.700175 0.762219
0.958907 0.672587 0.737423
0.950759 0.638209 0.708873
0 0.586648 0.710765
0 0.579324 0.692271
0 0.568185 0.669795
0.000167849 0.612268 0.67921
0.180453 0.76907 0.726268
0.663539 0.827146 0.722454
0.929519 0.841428 0.704707
0.999481 0.826871 0.682429
0.997696 0.796246 0.649271
0 0.596094 0.672679
0 0.594034 0.661036
0 0.591653 0.647471
0 0.5888 0.631937
0.0195773 0.780636 0.692988
0.549065 0.87953 0.686015
0.870069 0.925811 0.655802
1 0.939071 0.627283
1 0.924239 0.586954
0 0.586862 0.621576
0 0.584176 0.607523
0 0.58056 0.589075
0 0.57673 0.56965
0.000381476 0.695583 0.600504
0.397955 0.844175 0.60676
0.779522 0.91252 0.583719
0.999008 0.948547 0.555703
1 0.948226 0.531426
0 0 0.465812
0.000396735 0 0.497139
0.170703 0 0.574746
0.384482 0 0.616129
0.571069 0 0.645014
0.656382 0 0.659785
0.656382 0 0.659785
0.656382 0 0.659785
0.656382 0 0.659785
0 0.0253452 0.505699
0.000122072 0.0102541 0.498405
0.0956436 0.000427253 0.561364
0.322621 0 0.605859
0.51931 0 0.637003
0.655512 0 0.659678
0.656382 0 0.659785
0.656382 0 0.659785
0.656382 0 0.659785
0 0.211124 0.631891
0 0.191196 0.619791
0.00567636 0.195895 0.687053
0.322118 0.170062 0.740414
0.546319 0.0660716 0.748028
0.698497 0.0153964 0.744732
0.701747 0.00334173 0.717433
0.677546 9.15541e-05 0.686915
0.656382 0 0.659785
0 0.336172 0.699275
0 0.322164 0.6925
0.000167849 0.334661 0.72697
0.18819 0.401221 0.8215
0.558587 0.401282 0.857511
0.778973 0.372869 0.873991
0.843198 0.333272 0.871565
0.825757 0.275715 0.855161
0.802792 0.196902 0.832044
0 0.43801 0.741222
0 0.425437 0.736538
6.10361e-05 0.416571 0.737087
0.0261082 0.521782 0.843717
0.474189 0.567971 0.896635
0.758648 0.572305 0.920333
0.91191 0.566949 0.930816
0.90399 0.535073 0.923598
0.893553 0.498405 0.909606
0 0.530495 0.774136
0 0.519203 0.770382
0 0.505898 0.765896
0.00102235 0.592767 0.839048
0.317998 0.697673 0.915251
0.703532 0.726375 0.94139
0.926192 0.728573 0.943038
0.953063 0.704952 0.926192
0.945678 0.67155 0.904753
0 0.600244 0.797772
0 0.596155 0.796078
0 0.587549 0.787182
0.000167849 0.62533 0.808072
0.119615 0.783383 0.891371
0.615732 0.845914 0.91458
0.901946 0.863951 0.911055
0.992981 0.848432 0.889555
0.989822 0.819043 0.859968
0 0.616632 0.786099
0 0.615396 0.779629
0 0.613718 0.770825
0 0.611536 0.75906
0.0134737 0.795209 0.84535
0.493919 0.896757 0.866163
0.838743 0.944991 0.855879
0.999954 0.960174 0.836225
1 0.945281 0.806226
0 0.610101 0.751247
0 0.608133 0.74052
0 0.605814 0.72784
0 0.603082 0.712398
0.000167849 0.713359 0.75668
0.328908 0.866392 0.795148
0.744289 0.936141 0.794446
0.989883 0.974533 0.781201
1 0.976471 0.764248
0 0 0.465812
0.000167849 0 0.492836
0.159258 0 0.572152
0.374868 0 0.614557
0.56437 0 0.64387
0.656382 0 0.659785
0.656382 0 0.659785
0.656382 0 0.659785
0.656382 0 0.659785
0 0.0174411 0.497505
9.15541e-05 0.00730907 0.487968
0.083772 0 0.55433
0.313497 0 0.604318
0.511315 0 0.635828
0.651713 0 0.65919
0.656382 0 0.659785
0.656382 0 0.659785
0.656382 0 0.659785
0 0.202075 0.626398
0 0.180682 0.612894
0.00518807 0.179767 0.674037
0.305852 0.147784 0.727977
0.52961 0.0408789 0.7364
0.685496 0.0112917 0.732967
0.693004 0.00015259 0.706752
0.669886 6.10361e-05 0.677104
0.656382 0 0.659785
0 0.329793 0.696193
0 0.315785 0.689403
0.000167849 0.323125 0.718364
0.16379 0.388769 0.815167
0.543999 0.388281 0.85182
0.767269 0.35848 0.868833
0.837461 0.314336 0.866178
0.818341 0.250324 0.84773
0.795316 0.171221 0.824506
0 0.432197 0.739055
0 0.419898 0.734447
3.0518e-05 0.40763 0.731517
0.0166934 0.509896 0.83772
0.45771 0.557458 0.89247
0.746517 0.56141 0.916991
0.905562 0.555886 0.928283
0.900801 0.524178 0.92108
0.89044 0.489174 0.912825
0 0.525322 0.772412
0 0.514031 0.768658
0 0.501045 0.764172
0.000579843 0.579232 0.832227
0.299733 0.687709 0.911818
0.69041 0.718639 0.944472
0.918517 0.722957 0.96022
0.949844 0.702541 0.958114
0.942657 0.67451 0.953048
0 0.598444 0.797009
0 0.593118 0.79501
0 0.58529 0.792264
0.000167849 0.615732 0.817823
0.0934615 0.776165 0.917205
0.582986 0.841352 0.959518
0.884276 0.862593 0.980194
0.98732 0.855146 0.983719
0.98201 0.831678 0.980209
0 0.618891 0.803723
0 0.618891 0.803723
0 0.618891 0.803723
0 0.618891 0.803723
0.00860609 0.789822 0.906325
0.423697 0.898192 0.961822
0.801831 0.952316 0.989059
0.996429 0.97377 0.994812
1 0.959487 0.98024
0 0.618891 0.803723
0 0.618891 0.803723
0 0.618891 0.803723
0 0.618891 0.803723
0.000167849 0.719493 0.86183
0.251972 0.877928 0.934325
0.705562 0.95172 0.956085
0.970962 0.992615 0.958877
1 0.995956 0.943908
